0 0 0 0 0 0 0 0 0 0 0 0 0 0 0 0 0 0 0 0 0 0 0 0 0 0 0 0 0 0 0 0 0 0 0 0 0 0 0 0 0 0 0 0 0 0 0 0 0 0 0 0 0 0 0 0 0 0 0 0 0 0 0 0 0 0 0 0 0 0 0 0 0 0 0 0 0 0 0 0 0 0 0 0 0 0 0 0 0 0 0 0 0 0 0 0 0 0 0 0 0 0 0 0 0 0 0 0 0 0 0 0 0 0 0 0 0 0 0 0 0 0 0 0 0 0 0 0 0 0 0 0 0 0 0 0 0 0 0 0 0 0 0 0 0 0 0 0 0 0 0 0 0 0 0 0 0 0 0 0 0 0 0 0 0 0 0 0 0 0 0 0 0 0 0 0 0 0 0 0 0 0 0 0 0 0 0 0 0 0 0 0 0 0 0 0 0 0 0 0 0 0 0 0 0 0 0 0 0 0 0 0 0 0 0 0 0 0 0 0 0 0 0 0 0 0 0 0 0 0 0 0 0 0 0 0 0 0 0 0 0 0 0 0 0 0 0 0 0 0 0 0 0 0 0 0 0 0 0 0 0 0 0 0 0 0 0 0 0 0 0 0 0 0 0 0 0 0 0 0 0 0 0 0 0 0 0 0 0 0 0 0 0 0 0 0 0 0 0 0 0 0 0 0 0 0 0 0 0 0 0 0 0 0 0 0 0 0 0 0 0 0 0 0 0 0 0 0 0 0 0 0 0 0 0 0 0 0 0 0 0 0 0 0 0 0 0 0 0 0 0 0 0 0 0 0 0 0 0 0 0 0 0 0 0 0 0 0 0 0 0 0 0 0 0 0 0 0 0 0 0 0 0 0 0 0 0 0 0 0 0 0 0 0 0 0 0 0 0 0 0 0 0 0 0 0 0 0 0 0 0 0 0 0 0 0 0 0 0 0 0 0 0 0 0 0 0 0 0 0 0 0 0 0 0 0 0 0 0 0 0 0 0 0 0 0 0 0 0 0 0 0 0 0 0 0 0 0 0 0 0 0 0 0 0 0 0 0 0 0 0 0 0 0 0 0 0 0 0 0 0 0 0 0 0 0 0 0 0 0 0 0 0 0 0 0 0 0 0 0 0 0 0 0 0 0 0 0 0 0 0 0
0 0 0 0 0 0 0 0 0 0 0 0 0 0 0 0 0 0 0 0 0 0 0 0 0 0 0 0 0 0 0 0 0 0 0 0 0 0 0 0 0 0 0 0 0 0 0 0 0 0 0 0 0 0 0 0 0 0 0 0 0 0 0 0 0 0 0 0 0 0 0 0 0 0 0 0 0 0 0 0 0 0 0 0 0 0 0 0 0 0 0 0 0 0 0 0 0 0 0 0 0 0 0 0 0 0 0 0 0 0 0 0 0 0 0 0 0 0 0 0 0 0 0 0 0 0 0 0 0 0 0 0 0 0 0 0 0 0 0 0 0 0 0 0 0 0 0 0 0 0 0 0 0 0 0 0 0 0 0 0 0 0 0 0 0 0 0 0 0 0 0 0 0 0 0 0 0 0 0 0 0 0 0 0 0 0 0 0 0 0 0 0 0 0 0 0 0 0 0 0 0 0 0 0 0 0 0 0 0 0 0 0 0 0 0 0 0 0 0 0 0 0 0 0 0 0 0 0 0 0 0 0 0 0 0 0 0 0 0 0 0 0 0 0 0 0 0 0 0 0 0 0 0 0 0 0 0 0 0 0 0 0 0 0 0 0 0 0 0 0 0 0 0 0 0 0 0 0 0 0 0 0 0 0 0 0 0 0 0 0 0 0 0 0 0 0 0 0 0 0 0 0 0 0 0 0 0 0 0 0 0 0 0 0 0 0 0 0 0 0 0 0 0 0 0 0 0 0 0 0 0 0 0 0 0 0 0 0 0 0 0 0 0 0 0 0 0 0 0 0 0 0 0 0 0 0 0 0 0 0 0 0 0 0 0 0 0 0 0 0 0 0 0 0 0 0 0 0 0 0 0 0 0 0 0 0 0 0 0 0 0 0 0 0 0 0 0 0 0 0 0 0 0 0 0 0 0 0 0 0 0 0 0 0 0 0 0 0 0 0 0 0 0 0 0 0 0 0 0 0 0 0 0 0 0 0 0 0 0 0 0 0 0 0 0 0 0 0 0 0 0 0 0 0 0 0 0 0 0 0 0 0 0 0 0 0 0 0 0 0 0 0 0 0 0 0 0 0 0 0 0 0 0 0 0 0 0 0 0 0 0 0 0 0 0 0 0 0 0 0 0 0 0 0 0 0 0 0 0 0 0 0
0 0 0 0 0 0 0 0 0 0 0 0 0 0 0 0 0 0 0 0 0 0 0 0 0 0 0 0 0 0 0 0 0 0 0 0 0 0 0 0 0 0 0 0 0 0 0 0 0 0 0 0 0 0 0 0 0 0 0 0 0 0 0 0 0 0 0 0 0 0 0 0 0 0 0 0 0 0 0 0 0 0 0 0 0 0 0 0 0 0 0 0 0 0 0 0 0 0 0 0 0 0 0 0 0 0 0 0 0 0 0 0 0 0 0 0 0 0 0 0 0 0 0 0 0 0 0 0 0 0 0 0 0 0 0 0 0 0 0 0 0 0 0 0 0 0 0 0 0 0 0 0 0 0 0 0 0 0 0 0 0 0 0 0 0 0 0 0 0 0 0 0 0 0 0 0 0 0 0 0 0 0 0 0 0 0 0 0 0 0 0 0 0 0 0 0 0 0 0 0 0 0 0 0 0 0 0 0 0 0 0 0 0 0 0 0 0 0 0 0 0 0 0 0 0 0 0 0 0 0 0 0 0 0 0 0 0 0 0 0 0 0 0 0 0 0 0 0 0 0 0 0 0 0 0 0 0 0 0 0 0 0 0 0 0 0 0 0 0 0 0 0 0 0 0 0 0 0 0 0 0 0 0 0 0 0 0 0 0 0 0 0 0 0 0 0 0 0 0 0 0 0 0 0 0 0 0 0 0 0 0 0 0 0 0 0 0 0 0 0 0 0 0 0 0 0 0 0 0 0 0 0 0 0 0 0 0 0 0 0 0 0 0 0 0 0 0 0 0 0 0 0 0 0 0 0 0 0 0 0 0 0 0 0 0 0 0 0 0 0 0 0 0 0 0 0 0 0 0 0 0 0 0 0 0 0 0 0 0 0 0 0 0 0 0 0 0 0 0 0 0 0 0 0 0 0 0 0 0 0 0 0 0 0 0 0 0 0 0 0 0 0 0 0 0 0 0 0 0 0 0 0 0 0 0 0 0 0 0 0 0 0 0 0 0 0 0 0 0 0 0 0 0 0 0 0 0 0 0 0 0 0 0 0 0 0 0 0 0 0 0 0 0 0 0 0 0 0 0 0 0 0 0 0 0 0 0 0 0 0 0 0 0 0 0 0 0 0 0 0 0 0 0 0 0 0 0 0 0 0 0 0
0 0 0 0 0 0 0 0 0 0 0 0 0 0 0 0 0 0 0 0 0 0 0 0 0 0 0 0 0 0 0 0 0 0 0 0 0 0 0 0 0 0 0 0 0 0 0 0 0 0 0 0 0 0 0 0 0 0 0 0 0 0 0 0 0 0 0 0 0 0 0 0 0 0 0 0 0 0 0 0 0 0 0 0 0 0 0 0 0 0 0 0 0 0 0 0 0 0 0 0 0 0 0 0 0 0 0 0 0 0 0 0 0 0 0 0 0 0 0 0 0 0 0 0 0 0 0 0 0 0 0 0 0 0 0 0 0 0 0 0 0 0 0 0 0 0 0 0 0 0 0 0 0 0 0 0 0 0 0 0 0 0 0 0 0 0 0 0 0 0 0 0 0 0 0 0 0 0 0 0 0 0 0 0 0 0 0 0 0 0 0 0 0 0 0 0 0 0 0 0 0 0 0 0 0 0 0 0 0 0 0 0 0 0 0 0 0 0 0 0 0 0 0 0 0 0 0 0 0 0 0 0 0 0 0 0 0 0 0 0 0 0 0 0 0 0 0 0 0 0 0 0 0 0 0 0 0 0 0 0 0 0 0 0 0 0 0 0 0 0 0 0 0 0 0 0 0 0 0 0 0 0 0 0 0 0 0 0 0 0 0 0 0 0 0 0 0 0 0 0 0 0 0 0 0 0 0 0 0 0 0 0 0 0 0 0 0 0 0 0 0 0 0 0 0 0 0 0 0 0 0 0 0 0 0 0 0 0 0 0 0 0 0 0 0 0 0 0 0 0 0 0 0 0 0 0 0 0 0 0 0 0 0 0 0 0 0 0 0 0 0 0 0 0 0 0 0 0 0 0 0 0 0 0 0 0 0 0 0 0 0 0 0 0 0 0 0 0 0 0 0 0 0 0 0 0 0 0 0 0 0 0 0 0 0 0 0 0 0 0 0 0 0 0 0 0 0 0 0 0 0 0 0 0 0 0 0 0 0 0 0 0 0 0 0 0 0 0 0 0 0 0 0 0 0 0 0 0 0 0 0 0 0 0 0 0 0 0 0 0 0 0 0 0 0 0 0 0 0 0 0 0 0 0 0 0 0 0 0 0 0 0 0 0 0 0 0 0 0 0 0 0 0 0 0 0 0 0 0 0 0 0
0 0 0 0 0 0 0 0 0 0 0 0 0 0 0 0 0 0 0 0 0 0 0 0 0 0 0 0 0 0 0 0 0 0 0 0 0 0 0 0 0 0 0 0 0 0 0 0 0 0 0 0 0 0 0 0 0 0 0 0 0 0 0 0 0 0 0 0 0 0 0 0 0 0 0 0 0 0 0 0 0 0 0 0 0 0 0 0 0 0 0 0 0 0 0 0 0 0 0 0 0 0 0 0 0 0 0 0 0 0 0 0 0 0 0 0 0 0 0 0 0 0 0 0 0 0 0 0 0 0 0 0 0 0 0 0 0 0 0 0 0 0 0 0 0 0 0 0 0 0 0 0 0 0 0 0 0 0 0 0 0 0 0 0 0 0 0 0 0 0 0 0 0 0 0 0 0 0 0 0 0 0 0 0 0 0 0 0 0 0 0 0 0 0 0 0 0 0 0 0 0 0 0 0 0 0 0 0 0 0 0 0 0 0 0 0 0 0 0 0 0 0 0 0 0 0 0 0 0 0 0 0 0 0 0 0 0 0 0 0 0 0 0 0 0 0 0 0 0 0 0 0 0 0 0 0 0 0 0 0 0 0 0 0 0 0 0 0 0 0 0 0 0 0 0 0 0 0 0 0 0 0 0 0 0 0 0 0 0 0 0 0 0 0 0 0 0 0 0 0 0 0 0 0 0 0 0 0 0 0 0 0 0 0 0 0 0 0 0 0 0 0 0 0 0 0 0 0 0 0 0 0 0 0 0 0 0 0 0 0 0 0 0 0 0 0 0 0 0 0 0 0 0 0 0 0 0 0 0 0 0 0 0 0 0 0 0 0 0 0 0 0 0 0 0 0 0 0 0 0 0 0 0 0 0 0 0 0 0 0 0 0 0 0 0 0 0 0 0 0 0 0 0 0 0 0 0 0 0 0 0 0 0 0 0 0 0 0 0 0 0 0 0 0 0 0 0 0 0 0 0 0 0 0 0 0 0 0 0 0 0 0 0 0 0 0 0 0 0 0 0 0 0 0 0 0 0 0 0 0 0 0 0 0 0 0 0 0 0 0 0 0 0 0 0 0 0 0 0 0 0 0 0 0 0 0 0 0 0 0 0 0 0 0 0 0 0 0 0 0 0 0 0 0 0 0 0 0 0 0 0 0
0 0 0 0 0 0 0 0 0 0 0 0 0 0 0 0 0 0 0 0 0 0 0 0 0 0 0 0 0 0 0 0 0 0 0 0 0 0 0 0 0 0 0 0 0 0 0 0 0 0 0 0 0 0 0 0 0 0 0 0 0 0 3474.95 3587.6 3218.08 3277.49 3368.76 3538.79 3250.44 3252.77 3164.79 3031.06 2874.44 2751.46 2795.65 2529.18 2225.06 2376.3 0 0 0 0 0 0 0 0 0 0 0 0 0 0 0 0 0 0 0 0 0 0 0 0 0 0 0 0 0 0 0 0 0 0 0 0 0 0 0 0 0 0 0 0 0 0 0 0 0 0 0 0 0 0 0 0 0 0 0 0 0 0 0 0 0 0 0 0 0 0 0 0 0 0 0 0 0 0 0 0 0 0 0 0 0 0 0 0 0 0 0 0 0 0 0 0 0 0 0 0 0 0 0 0 0 0 0 0 0 0 0 0 0 0 0 0 0 0 0 0 0 0 0 0 0 0 0 0 0 0 0 0 0 0 0 0 0 0 0 0 0 0 0 0 0 0 0 0 0 0 0 0 0 0 0 0 0 0 0 0 0 0 0 0 0 0 0 0 0 0 0 0 0 0 0 0 0 0 0 0 0 0 0 0 0 0 0 0 0 0 0 0 0 0 0 0 0 0 0 0 0 0 0 3382 3335.41 3303.56 3170.23 3146.74 3163.83 3346.72 3267.53 3123.43 3083.82 0 0 0 0 0 0 0 0 0 0 0 0 0 0 0 0 0 0 0 0 0 0 0 0 0 0 0 0 0 0 0 0 0 0 0 0 0 0 0 0 0 0 0 0 0 0 0 0 0 0 0 0 0 0 0 0 0 0 0 0 0 0 0 0 0 0 0 0 0 0 0 0 0 0 0 0 0 0 0 0 0 0 0 0 0 0 0 0 0 0 0 0 0 0 0 0 0 0 0 0 0 0 0 0 0 0 0 0 0 0 0 0 0 0 0 0 0 0 0 0 0 0 0 0 0 0 0 0 0 0 0 0 0 0 0 0 0 0 0 0 0 0 0 0 0 0 0 0 0 0 0 0 0 0 0 0 0 0 0 0 0 0 0 0 0 0 0 0 0 0 0 0 0 0 0 0 0 0 0 0 0 0 0 0 0 0 0 0 0 0 0 0 0 0 0 0 0 0 0 0 0 0 0 0 0 0 0 0 0 0 0 0 0 0 0 0 0 0 0 0 0
0 0 0 0 0 0 0 0 0 0 0 0 0 0 0 0 0 0 0 0 0 0 0 0 0 0 0 0 0 0 0 0 0 0 0 0 0 0 0 0 0 0 0 0 0 0 0 0 0 0 0 0 0 0 0 0 0 0 0 3049.68 2895.72 3171.07 3031.6 3175.51 3318.59 3194.13 3254.29 3228.11 3018.24 3001.93 3015.1 2943.79 2823.46 2792.77 2736.2 2584.47 2525.42 2685.83 2766.75 2523.1 2737.9 0 0 0 0 0 0 0 0 0 0 0 0 0 0 0 0 0 0 0 0 0 0 0 0 0 0 0 0 0 0 0 0 0 0 0 0 0 0 0 0 0 0 0 0 0 0 0 0 0 0 0 0 0 0 0 0 0 0 0 0 0 0 0 0 0 0 0 0 0 0 0 0 0 0 0 0 0 0 0 0 0 0 0 0 0 0 0 0 0 0 0 0 0 0 0 0 0 0 0 0 0 0 0 0 0 0 0 0 0 0 0 0 0 0 0 0 0 0 0 0 0 0 0 0 0 0 0 0 0 0 0 0 0 0 0 0 0 0 0 0 0 0 0 0 0 0 0 0 0 0 0 0 0 0 0 0 0 0 0 0 0 0 0 0 0 0 0 0 0 0 0 0 0 0 0 0 0 0 0 0 0 0 0 0 0 0 0 0 0 0 0 0 0 0 0 0 0 0 3133.17 3221.36 3154.55 3255.23 3395.01 3492.6 3352.47 3201.32 3383.16 3381.39 3264.48 3241.96 3232.4 3153.37 3125.87 0 0 0 0 0 0 0 0 0 0 0 0 0 0 0 0 0 0 0 0 0 0 0 0 0 0 0 0 0 0 0 0 0 0 0 0 0 0 0 0 0 0 0 0 0 0 0 0 0 0 0 0 0 0 0 0 0 0 0 0 0 0 0 0 0 0 0 0 0 0 0 0 0 0 0 0 0 0 0 0 0 0 0 0 0 0 0 0 0 0 0 0 0 0 0 0 0 0 0 0 0 0 0 0 0 0 0 0 0 0 0 0 0 0 0 0 0 0 0 0 0 0 0 0 0 0 0 0 0 0 0 0 0 0 0 0 0 0 0 0 0 0 0 0 0 0 0 0 0 0 0 0 0 0 0 0 0 0 0 0 0 0 0 0 0 0 0 0 0 0 0 0 0 0 0 0 0 0 0 0 0 0 0 0 0 0 0 0 0 0 0 0 0 0 0 0 0 0 0 0 0 0 0 0 0 0 0 0 0 0 0 0 0 0 0 0 0 0
0 0 0 0 0 0 0 0 0 0 0 0 0 0 0 0 0 0 0 0 0 0 0 0 0 0 0 0 0 0 0 0 0 0 0 0 0 0 0 0 0 0 0 0 0 0 0 0 0 0 0 0 0 0 0 0 0 0 0 3049.46 2908.93 3048.85 3114.56 3419.36 3570.73 3491.73 3325.23 3315.31 3164.67 3157.64 3185.4 3073.87 2907.87 2913.47 2830.32 2665.81 2527.09 2569.03 2568.92 2318.15 2276.2 2157.9 2085.43 0 0 0 0 0 0 0 0 0 0 0 0 0 0 0 0 0 0 0 0 0 0 0 0 0 0 0 0 0 0 0 0 0 0 0 0 0 0 0 0 0 0 0 0 0 0 0 0 0 0 0 0 0 0 0 0 0 0 0 0 0 0 0 0 0 0 0 0 0 0 0 0 0 0 0 0 0 0 0 0 0 0 0 0 0 0 0 0 0 0 0 0 0 0 0 0 0 0 0 0 0 0 0 0 0 0 0 0 0 0 0 0 0 0 0 0 0 0 0 0 0 0 0 0 0 0 0 0 0 0 0 0 0 0 0 0 0 0 0 0 0 0 0 0 0 0 0 0 0 0 0 0 0 0 0 0 0 0 0 0 0 0 0 0 0 0 0 0 0 0 0 0 0 0 0 0 0 0 0 0 0 0 0 0 0 0 0 0 0 0 0 0 0 0 3447.68 3287.44 3151.77 3235.77 3290.79 3344.99 3388.36 3391.78 3299.92 3192.73 3244.84 3280.05 3175.93 3057.85 3028.49 3044.75 2990.11 2796.82 2671.76 2549.63 2420.87 0 0 0 0 0 0 0 0 0 0 0 0 0 0 0 0 0 0 0 0 0 0 0 0 0 0 0 0 0 0 0 0 0 0 0 0 0 0 0 0 0 0 0 0 0 0 0 0 0 0 0 0 0 0 0 0 0 0 0 0 0 0 0 0 0 0 0 0 0 0 0 0 0 0 0 0 0 0 0 0 0 0 0 0 0 0 0 0 0 0 0 0 0 0 0 0 0 0 0 0 0 0 0 0 0 0 0 0 0 0 0 0 0 0 0 0 0 0 0 0 0 0 0 0 0 0 0 0 0 0 0 0 0 0 0 0 0 0 0 0 0 0 0 0 0 0 0 0 0 0 0 0 0 0 0 0 0 0 0 0 0 0 0 0 0 0 0 0 0 0 0 0 0 0 0 0 0 0 0 0 0 0 0 0 0 0 0 0 0 0 0 0 0 0 0 0 0 0 0 0 0 0 0 0 0 0 0 0 0 0 0 0 0 0
0 0 0 0 0 0 0 0 0 0 0 0 0 0 0 0 0 0 0 0 0 0 0 0 0 0 0 0 0 0 0 0 0 0 0 0 0 0 0 0 0 0 0 0 0 0 0 0 0 0 0 0 0 0 0 0 0 0 2593.34 2854.1 2724.25 3331.77 2985.85 3468.63 3706.97 3643.54 3516.84 3202.85 3096.34 3095.59 3146.03 3018.08 2849.74 2869.82 2806.03 2703.53 2632.27 2627.37 2604 2364.05 2312.98 2212.97 2112.87 0 0 0 0 0 0 0 0 0 0 0 0 0 0 0 0 0 0 0 0 0 0 0 0 0 0 0 0 0 0 0 0 0 0 0 0 0 0 0 0 0 0 0 0 0 0 0 0 0 0 0 0 0 0 0 0 0 0 0 0 0 0 0 0 0 0 0 0 0 0 0 0 0 0 0 0 0 0 0 0 0 0 0 0 0 0 0 0 0 0 0 0 0 0 0 0 0 0 0 0 0 0 0 0 0 0 0 0 0 0 0 0 0 0 0 0 0 0 0 0 0 0 0 0 0 0 0 0 0 0 0 0 0 0 0 0 0 0 0 0 0 0 0 0 0 0 0 0 0 0 0 0 0 0 0 0 0 0 0 0 0 0 0 0 0 0 0 0 0 0 0 0 0 0 0 0 0 0 0 0 0 0 0 0 0 0 0 0 0 0 0 0 0 3196.81 3360.33 3306.88 3229.42 3283.77 3348.06 3422.36 3395.01 3369.37 3261.56 3168.19 3200.53 3204.32 3207.75 3151.59 3110.05 3084.67 3083.93 2997.22 2878.48 2793.7 2711 2563.15 0 0 0 0 0 0 0 0 0 0 0 0 0 0 0 0 0 0 0 0 0 0 0 0 0 0 0 0 0 0 0 0 0 0 0 0 0 0 0 0 0 0 0 0 0 0 0 0 0 0 0 0 0 0 0 0 0 0 0 0 0 0 0 0 0 0 0 0 0 0 0 0 0 0 0 0 0 0 0 0 0 0 0 0 0 0 0 0 0 0 0 0 0 0 0 0 0 0 0 0 0 0 0 0 0 0 0 0 0 0 0 0 0 0 0 0 0 0 0 0 0 0 0 0 0 0 0 0 0 0 0 0 0 0 0 0 0 0 0 0 0 0 0 0 0 0 0 0 0 0 0 0 0 0 0 0 0 0 0 0 0 0 0 0 0 0 0 0 0 0 0 0 0 0 0 0 0 0 0 0 0 0 0 0 0 0 0 0 0 0 0 0 0 0 0 0 0 0 0 0 0 0 0 0 0 0 0 0 0 0 0 0 0
0 0 0 0 0 0 0 0 0 0 0 0 0 0 0 0 0 0 0 0 0 0 0 0 0 0 0 0 0 0 0 0 0 0 0 0 0 0 0 0 0 0 0 0 0 0 0 0 0 0 0 0 0 0 0 0 0 0 2595.26 3627.15 2834.19 3557.7 3006.13 3560.87 3817.64 3728.06 3620.97 3205.54 3101.83 3068.36 3122.38 2998.5 2880.56 2881.5 2789.75 2713.32 2667.55 2640.81 2708.51 2524.96 2467.3 2348.62 2378.49 0 0 0 0 0 0 0 0 0 0 0 0 0 0 0 0 0 0 0 0 0 0 0 0 0 0 0 0 0 0 0 0 0 0 0 0 0 0 0 0 0 0 0 0 0 0 0 0 0 0 0 0 0 0 0 0 0 0 0 0 0 0 0 0 0 0 0 0 0 0 0 0 0 0 0 0 0 0 0 0 0 0 0 0 0 0 0 0 0 0 0 0 0 0 0 0 0 0 0 0 0 0 0 0 0 0 0 0 0 0 0 0 0 0 0 0 0 0 0 0 0 0 0 0 0 0 0 0 0 0 0 0 0 0 0 0 0 0 0 0 0 0 0 0 0 0 0 0 0 0 0 0 0 0 0 0 0 0 0 0 0 0 0 0 0 0 0 0 0 0 0 0 0 0 0 0 0 0 0 0 0 0 0 0 0 0 0 0 0 0 0 0 2472.82 3016.67 3144.38 3092.23 3041.33 3010.34 3115.42 3146.27 3204.56 3267.91 3201.75 3152.54 3209.4 3223.52 3312.17 3307.08 3324.31 3287.89 3243.84 3147.81 3062.15 2975.48 2940.28 2788.64 0 0 0 0 0 0 0 0 0 0 0 0 0 0 0 0 0 0 0 0 0 0 0 0 0 0 0 0 0 0 0 0 0 0 0 0 0 0 0 0 0 0 0 0 0 0 0 0 0 0 0 0 0 0 0 0 0 0 0 0 0 0 0 0 0 0 0 0 0 0 0 0 0 0 0 0 0 0 0 0 0 0 0 0 0 0 0 0 0 0 0 0 0 0 0 0 0 0 0 0 0 0 0 0 0 0 0 0 0 0 0 0 0 0 0 0 0 0 0 0 0 0 0 0 0 0 0 0 0 0 0 0 0 0 0 0 0 0 0 0 0 0 0 0 0 0 0 0 0 0 0 0 0 0 0 0 0 0 0 0 0 0 0 0 0 0 0 0 0 0 0 0 0 0 0 0 0 0 0 0 0 0 0 0 0 0 0 0 0 0 0 0 0 0 0 0 0 0 0 0 0 0 0 0 0 0 0 0 0 0 0 0 0
0 0 0 0 0 0 0 0 0 0 0 0 0 0 0 0 0 0 0 0 0 0 0 0 0 0 0 0 0 0 0 0 0 0 0 0 0 0 0 0 0 0 0 0 0 0 0 0 0 0 0 0 0 0 0 0 0 2693.63 2719.79 3736.86 4571.33 2874.15 3003.22 3182.56 3881.31 3781.84 3615.59 3188.79 3112.13 3074.72 3165.38 3046.47 2936.93 2937.14 2859.01 2822.22 2764.88 2765.2 3478.2 2708.24 2675.17 2625.31 2665.98 2376.06 0 0 0 0 0 0 0 0 0 0 0 0 0 0 0 0 0 0 0 0 0 0 0 0 0 0 0 0 0 0 0 0 0 0 0 0 0 0 0 0 0 0 0 0 0 0 0 0 0 0 0 0 0 0 0 0 0 0 0 0 0 0 0 0 0 0 0 0 0 0 0 0 0 0 0 0 0 0 0 0 0 0 0 0 0 0 0 0 0 0 0 0 0 0 0 0 0 0 0 0 0 0 0 0 0 0 0 0 0 0 0 0 0 0 0 0 0 0 0 0 0 0 0 0 0 0 0 0 0 0 0 0 0 0 0 0 0 0 0 0 0 0 0 0 0 0 0 0 0 0 0 0 0 0 0 0 0 0 0 0 0 0 0 0 0 0 0 0 0 0 0 0 0 0 0 0 0 0 0 0 0 0 0 0 0 0 0 0 0 0 2528.12 2845.87 3237.96 3348.32 3298.36 3263.53 3163.06 3796.21 3787.64 3719.79 3339 3271.03 3224.02 3232.03 3187.03 3305.84 3294.61 3301.09 3251.95 3200.16 3108.9 2981.45 2965.54 3008.77 2860.82 2912.36 0 0 0 0 0 0 0 0 0 0 0 0 0 0 0 0 0 0 0 0 0 0 0 0 0 0 0 0 0 0 0 0 0 0 0 0 0 0 0 0 0 0 0 0 0 0 0 0 0 0 0 0 0 0 0 0 0 0 0 0 0 0 0 0 0 0 0 0 0 0 0 0 0 0 0 0 0 0 0 0 0 0 0 0 0 0 0 0 0 0 0 0 0 0 0 0 0 0 0 0 0 0 0 0 0 0 0 0 0 0 0 0 0 0 0 0 0 0 0 0 0 0 0 0 0 0 0 0 0 0 0 0 0 0 0 0 0 0 0 0 0 0 0 0 0 0 0 0 0 0 0 0 0 0 0 0 0 0 0 0 0 0 0 0 0 0 0 0 0 0 0 0 0 0 0 0 0 0 0 0 0 0 0 0 0 0 0 0 0 0 0 0 0 0 0 0 0 0 0 0 0 0 0 0 0 0 0 0 0 0 0 0
0 0 0 0 0 0 0 0 0 0 0 0 0 0 0 0 0 0 0 0 0 0 0 0 0 0 0 0 0 0 0 0 0 0 0 0 0 0 0 0 0 0 0 0 0 0 0 0 0 0 0 0 0 0 0 0 2399.34 2689.7 2882.84 3107.98 2965.12 2989.95 3145.44 3274.1 3182.13 3892.21 3732.37 3207.38 3130.01 3113.57 3206.4 3074.66 2992.99 3038.25 2917.98 2874 2801.25 2803.83 2862.96 2689.92 2688.07 2641.6 2517.72 2401.85 2271.52 0 0 0 0 0 0 0 0 0 0 0 0 0 0 0 0 0 0 0 0 0 0 0 0 0 0 0 0 0 0 0 0 0 0 0 0 0 0 0 0 0 0 0 0 0 0 0 0 0 0 0 0 0 0 0 0 0 0 0 0 0 0 0 0 0 0 0 0 0 0 0 0 0 0 0 0 0 0 0 0 0 0 0 0 0 0 0 0 0 0 0 0 0 0 0 0 0 0 0 0 0 0 0 0 0 0 0 0 0 0 0 0 0 0 0 0 0 0 0 0 0 0 0 0 0 0 0 0 0 0 0 0 0 0 0 0 0 0 0 0 0 0 0 0 0 0 0 0 0 0 0 0 0 0 0 0 0 0 0 0 0 0 0 0 0 0 0 0 0 0 0 0 0 0 0 0 0 0 0 0 0 0 0 0 0 0 0 0 0 2761.65 2908.83 3330.58 3391.03 3314.07 3285 3190.97 3216.42 3256.31 3308.84 3349.19 3271.03 3250.5 3271.93 3222.9 3327.67 3314.2 3313.15 3290.34 3212.54 3171.85 3028.92 3003.12 3047.52 2869.48 2907.31 2487.82 2507.56 2249.29 2790.45 0 0 0 0 0 0 0 0 0 0 0 0 0 0 0 0 0 0 0 0 0 0 0 0 0 0 0 0 0 0 0 0 0 0 0 0 0 0 0 0 0 0 0 0 0 0 0 0 0 0 0 0 0 0 0 0 0 0 0 0 0 0 0 0 0 0 0 0 0 0 0 0 0 0 0 0 0 0 0 0 0 0 0 0 0 0 0 0 0 0 0 0 0 0 0 0 0 0 0 0 0 0 0 0 0 0 0 0 0 0 0 0 0 0 0 0 0 0 0 0 0 0 0 0 0 0 0 0 0 0 0 0 0 0 0 0 0 0 0 0 0 0 0 0 0 0 0 0 0 0 0 0 0 0 0 0 0 0 0 0 0 0 0 0 0 0 0 0 0 0 0 0 0 0 0 0 0 0 0 0 0 0 0 0 0 0 0 0 0 0 0 0 0 0 0 0 0 0 0 0 0 0 0 0 0 0 0 0
0 0 0 0 0 0 0 0 0 0 0 0 0 0 0 0 0 0 0 0 0 0 0 0 0 0 0 0 0 0 0 0 0 0 0 0 0 0 0 0 0 0 0 0 0 0 0 0 0 0 0 0 0 0 0 2044.16 2258.55 2616.14 2707.02 2928.83 2820.75 2922.71 4060.83 3244.22 4054.94 3951.42 3773.08 3166.7 3137.03 3145.03 3206.77 3092.11 3009.47 3084.33 2947.3 2903.74 2871.44 2836.82 2885.61 2712.62 2695.28 2718.03 2594.02 2544.3 2442.12 2071.37 1504.44 0 0 0 0 0 0 0 0 0 0 0 0 0 0 0 0 0 0 0 0 0 0 0 0 0 0 0 0 0 0 0 0 0 0 0 0 0 0 0 0 0 0 0 0 0 0 0 0 0 0 0 0 0 0 0 0 0 0 0 0 0 0 0 0 0 0 0 0 0 0 0 0 0 0 0 0 0 0 0 0 0 0 0 0 0 0 0 0 0 0 0 0 0 0 0 0 0 0 0 0 0 0 0 0 0 0 0 0 0 0 0 0 0 0 0 0 0 0 0 0 0 0 0 0 0 0 0 0 0 0 0 0 0 0 0 0 0 0 0 0 0 0 0 0 0 0 0 0 0 0 0 0 0 0 0 0 0 0 0 0 0 0 0 0 0 0 0 0 0 0 0 0 0 0 0 0 0 0 0 0 0 0 0 0 0 0 2885.12 3001.77 3186 3552.65 3537.38 3427.39 3427.53 3320.3 3293.77 3318.52 3363.56 3359.52 3281.53 3248.55 3248.87 3194.25 3283.77 3290.21 3282.43 3257.06 3204.5 3144.91 3044.97 3029.31 3005.97 2788.08 2788.59 2403.67 2380.89 2131.09 2459.66 0 0 0 0 0 0 0 0 0 0 0 0 0 0 0 0 0 0 0 0 0 0 0 0 0 0 0 0 0 0 0 0 0 0 0 0 0 0 0 0 0 0 0 0 0 0 0 0 0 0 0 0 0 0 0 0 0 0 0 0 0 0 0 0 0 0 0 0 0 0 0 0 0 0 0 0 0 0 0 0 0 0 0 0 0 0 0 0 0 0 0 0 0 0 0 0 0 0 0 0 0 0 0 0 0 0 0 0 0 0 0 0 0 0 0 0 0 0 0 0 0 0 0 0 0 0 0 0 0 0 0 0 0 0 0 0 0 0 0 0 0 0 0 0 0 0 0 0 0 0 0 0 0 0 0 0 0 0 0 0 0 0 0 0 0 0 0 0 0 0 0 0 0 0 0 0 0 0 0 0 0 0 0 0 0 0 0 0 0 0 0 0 0 0 0 0 0 0 0 0 0 0 0 0 0 0 0 0
0 0 0 0 0 0 0 0 0 0 0 0 0 0 0 0 0 0 0 0 0 0 0 0 0 0 0 0 0 0 0 0 0 0 0 0 0 0 0 0 0 0 0 0 0 0 0 0 0 0 0 0 0 0 0 0 2297.77 2701.53 2735.26 2945.96 2838.31 2901.73 3030.35 4087.24 3984.17 3868.96 3113.92 3106.25 3096.51 3109.53 3208.61 3128.79 3047.91 3167.95 3031.77 3798.1 2981.29 2946.53 3763.09 2767.34 2678.67 2705.4 2408.81 2395.54 2296.8 1989.6 1402.92 0 0 0 0 0 0 0 0 0 0 0 0 0 0 0 0 0 0 0 0 0 0 0 0 0 0 0 0 0 0 0 0 0 0 0 0 0 0 0 0 0 0 0 0 0 0 0 0 0 0 0 0 0 0 0 0 0 0 0 0 0 0 0 0 0 0 0 0 0 0 0 0 0 0 0 0 0 0 0 0 0 0 0 0 0 0 0 0 0 0 0 0 0 0 0 0 0 0 0 0 0 0 0 0 0 0 0 0 0 0 0 0 0 0 0 0 0 0 0 0 0 0 0 0 0 0 0 0 0 0 0 0 0 0 0 0 0 0 0 0 0 0 0 0 0 0 0 0 0 0 0 0 0 0 0 0 0 0 0 0 0 0 0 0 0 0 0 0 0 0 0 0 0 0 0 0 0 0 0 0 0 0 0 0 0 2281.77 2726.95 2821.98 3065.11 3331.11 3309.42 3182.62 3267.47 3206.34 3196.99 3262.45 3303.3 3304.93 3262.13 3227.18 3195.22 3145.5 3231.35 3218.27 3147.57 3104.41 3050.62 2977.53 2905.05 2973.21 2882.79 2589.37 2610.89 2416.79 2357.87 2099.97 2394.92 0 0 0 0 0 0 0 0 0 0 0 0 0 0 0 0 0 0 0 0 0 0 0 0 0 0 0 0 0 0 0 0 0 0 0 0 0 0 0 0 0 0 0 0 0 0 0 0 0 0 0 0 0 0 0 0 0 0 0 0 0 0 0 0 0 0 0 0 0 0 0 0 0 0 0 0 0 0 0 0 0 0 0 0 0 0 0 0 0 0 0 0 0 0 0 0 0 0 0 0 0 0 0 0 0 0 0 0 0 0 0 0 0 0 0 0 0 0 0 0 0 0 0 0 0 0 0 0 0 0 0 0 0 0 0 0 0 0 0 0 0 0 0 0 0 0 0 0 0 0 0 0 0 0 0 0 0 0 0 0 0 0 0 0 0 0 0 0 0 0 0 0 0 0 0 0 0 0 0 0 0 0 0 0 0 0 0 0 0 0 0 0 0 0 0 0 0 0 0 0 0 0 0 0 0 0 0 0
0 0 0 0 0 0 0 0 0 0 0 0 0 0 0 0 0 0 0 0 0 0 0 0 0 0 0 0 0 0 0 0 0 0 0 0 0 0 0 0 0 0 0 0 0 0 0 0 0 0 0 0 0 0 1850.56 0 2409.68 2643.76 2849.98 2943.58 2777.46 2892.08 3075 4164.55 4089.93 3873.43 3058.3 3006.13 3076.35 3109.42 3189.94 3102.75 3044.42 3171.73 3050.68 3014.99 4037.67 4143.98 4308.38 4470 2731.97 2773.2 2505.47 2558.57 2496.78 2119.6 0 0 0 0 0 0 0 0 0 0 0 0 0 0 0 0 0 0 0 0 0 0 0 0 0 0 0 0 0 0 0 0 0 0 0 0 0 0 0 0 0 0 0 0 0 0 0 0 0 0 0 0 0 0 0 0 0 0 0 0 0 0 0 0 0 0 0 0 0 0 0 0 0 0 0 0 0 0 0 0 0 0 0 0 0 0 0 0 0 0 0 0 0 0 0 0 0 0 0 0 0 0 0 0 0 0 0 0 0 0 0 0 0 0 0 0 0 0 0 0 0 0 0 0 0 0 0 0 0 0 0 0 0 0 0 0 0 0 0 0 0 0 0 0 0 0 0 0 0 0 0 0 0 0 0 0 0 0 0 0 0 0 0 0 0 0 0 0 0 0 0 0 0 0 0 0 0 0 0 0 0 0 0 0 0 0 2529.99 2854.1 2894.72 3038.03 3119.36 3093.99 3065.95 3194.49 3137.86 3108.55 3188.24 3259.28 3286.35 3234.02 3218.82 3189.03 3155.2 3237.64 3233.4 3172.09 3108.61 3062.31 3021.99 2972.37 3035.61 2895.27 2608.29 2612.15 2457.54 2230.71 2040.41 0 0 0 0 0 0 0 0 0 0 0 0 0 0 0 0 0 0 0 0 0 0 0 0 0 0 0 0 0 0 0 0 0 0 0 0 0 0 0 0 0 0 0 0 0 0 0 0 0 0 0 0 0 0 0 0 0 0 0 0 0 0 0 0 0 0 0 0 0 0 0 0 0 0 0 0 0 0 0 0 0 0 0 0 0 0 0 0 0 0 0 0 0 0 0 0 0 0 0 0 0 0 0 0 0 0 0 0 0 0 0 0 0 0 0 0 0 0 0 0 0 0 0 0 0 0 0 0 0 0 0 0 0 0 0 0 0 0 0 0 0 0 0 0 0 0 0 0 0 0 0 0 0 0 0 0 0 0 0 0 0 0 0 0 0 0 0 0 0 0 0 0 0 0 0 0 0 0 0 0 0 0 0 0 0 0 0 0 0 0 0 0 0 0 0 0 0 0 0 0 0 0 0 0 0 0 0 0 0
0 0 0 0 0 0 0 0 0 0 0 0 0 0 0 0 0 0 0 0 0 0 0 0 0 0 0 0 0 0 0 0 0 0 0 0 0 0 0 0 0 0 0 0 0 0 0 0 0 0 0 0 0 0 1966.21 2245.85 2531.97 2738.3 2843.84 2912.21 2755.93 2872.96 3111.26 3294.48 3986.35 3100.23 3059.69 3097.54 3753.66 3205.72 3690.26 3162.7 3085.18 3211.49 3087.45 3027.78 3026.85 2890.24 2924.29 2717.89 2648.85 2731.08 2472.13 2473.19 2526.02 2060.96 0 0 0 0 0 0 0 0 0 0 0 0 0 0 0 0 0 0 0 0 0 0 0 0 0 0 0 0 0 0 0 0 0 0 0 0 0 0 0 0 0 0 0 0 0 0 0 0 0 0 0 0 0 0 0 0 0 0 0 0 0 0 0 0 0 0 0 0 0 0 0 0 0 0 0 0 0 0 0 0 0 0 0 0 0 0 0 0 0 0 0 0 0 0 0 0 0 0 0 0 0 0 0 0 0 0 0 0 0 0 0 0 0 0 0 0 0 0 0 0 0 0 0 0 0 0 0 0 0 0 0 0 0 0 0 0 0 0 0 0 0 0 0 0 0 0 0 0 0 0 0 0 0 0 0 0 0 0 0 0 0 0 0 0 0 0 0 0 0 0 0 0 0 0 0 0 0 0 0 0 0 0 0 0 0 0 2797.28 3116.81 3239.77 3419.08 3322.07 3218.02 3182.19 3282.81 3173.95 3213.64 3226.87 3263.59 3257.95 3243.9 3254.1 3184.79 3152.77 3256.94 3230.23 3218.45 3153.6 3117.86 3078.95 2975.26 3101.03 2923.07 2692.55 2604.85 2414.98 2072.14 1748.7 1771.35 1242.15 0 0 0 0 0 0 0 0 0 0 0 0 0 0 0 0 0 0 0 0 0 0 0 0 0 0 0 0 0 0 0 0 0 0 0 0 0 0 0 0 0 0 0 0 0 0 0 0 0 0 0 0 0 0 0 0 0 0 0 0 0 0 0 0 0 0 0 0 0 0 0 0 0 0 0 0 0 0 0 0 0 0 0 0 0 0 0 0 0 0 0 0 0 0 0 0 0 0 0 0 0 0 0 0 0 0 0 0 0 0 0 0 0 0 0 0 0 0 0 0 0 0 0 0 0 0 0 0 0 0 0 0 0 0 0 0 0 0 0 0 0 0 0 0 0 0 0 0 0 0 0 0 0 0 0 0 0 0 0 0 0 0 0 0 0 0 0 0 0 0 0 0 0 0 0 0 0 0 0 0 0 0 0 0 0 0 0 0 0 0 0 0 0 0 0 0 0 0 0 0 0 0 0 0 0 0 0
0 0 0 0 0 0 0 0 0 0 0 0 0 0 0 0 0 0 0 0 0 0 0 0 0 0 0 0 0 0 0 0 0 0 0 0 0 0 0 0 0 0 0 0 0 0 0 0 0 0 0 0 0 0 1823.94 2201.65 2351.39 2573.92 2730.63 2801.39 2720.36 2847.42 3011.15 4606.47 3010.93 2998.29 2953.43 2984.53 3093.08 3108.55 3176.71 3099.88 3056.96 3193.03 3081.61 3064.94 3099.02 2954.36 3047.41 2849.49 2883.83 3038.58 2727.62 2966.64 3212.97 2462.73 0 0 0 0 0 0 0 0 0 0 0 0 0 0 0 0 0 0 0 0 0 0 0 0 0 0 0 0 0 0 0 0 0 0 0 0 0 0 0 0 0 0 0 0 0 0 0 0 0 0 0 0 0 0 0 0 0 0 0 0 0 0 0 0 0 0 0 0 0 0 0 0 0 0 0 0 0 0 0 0 0 0 0 0 0 0 0 0 0 0 0 0 0 0 0 0 0 0 0 0 0 0 0 0 0 0 0 0 0 0 0 0 0 0 0 0 0 0 0 0 0 0 0 0 0 0 0 0 0 0 0 0 0 0 0 0 0 0 0 0 0 0 0 0 0 0 0 0 0 0 0 0 0 0 0 0 0 0 0 0 0 0 0 0 0 0 0 0 0 0 0 0 0 0 0 0 0 0 0 0 0 0 0 0 0 2361.75 2941.72 3234.21 3294.67 3464.12 3273.84 3164.19 3112.13 3318.26 3185.34 3196.81 3233.9 3334.95 3335.48 3343.59 3364.17 3311.51 3265.69 3408.8 3397.48 3412.61 3306.95 3275.63 3252.46 3208.91 3359.32 3208.05 2805.47 2734.33 2534.8 1937.89 1600.79 1530.27 965.217 0 0 0 0 0 0 0 0 0 0 0 0 0 0 0 0 0 0 0 0 0 0 0 0 0 0 0 0 0 0 0 0 0 0 0 0 0 0 0 0 0 0 0 0 0 0 0 0 0 0 0 0 0 0 0 0 0 0 0 0 0 0 0 0 0 0 0 0 0 0 0 0 0 0 0 0 0 0 0 0 0 0 0 0 0 0 0 0 0 0 0 0 0 0 0 0 0 0 0 0 0 0 0 0 0 0 0 0 0 0 0 0 0 0 0 0 0 0 0 0 0 0 0 0 0 0 0 0 0 0 0 0 0 0 0 0 0 0 0 0 0 0 0 0 0 0 0 0 0 0 0 0 0 0 0 0 0 0 0 0 0 0 0 0 0 0 0 0 0 0 0 0 0 0 0 0 0 0 0 0 0 0 0 0 0 0 0 0 0 0 0 0 0 0 0 0 0 0 0 0 0 0 0 0 0 0 0
0 0 0 0 0 0 0 0 0 0 0 0 0 0 0 0 0 0 0 0 0 0 0 0 0 0 0 0 0 0 0 0 0 0 0 0 0 0 0 0 0 0 0 0 0 0 0 0 0 0 0 0 0 0 1732.65 2204.02 2250.64 2476 2767.89 2831.94 2782.81 2887.15 3008.23 3142.44 4534.88 2982.35 2974.95 3005.59 3121.28 3140.91 3213.58 3162.22 3715.51 3256.31 3125.87 3100 3130.48 2972.94 3085.97 2878.53 2904.29 3132.47 2842.4 3282.04 3350.67 2569.74 0 0 0 0 0 0 0 0 0 0 0 0 0 0 0 0 0 0 0 0 0 0 0 0 0 0 0 0 0 0 0 0 0 0 0 0 0 0 0 0 0 0 0 0 0 0 0 0 0 0 0 0 0 0 0 0 0 0 0 0 0 0 0 0 0 0 0 0 0 0 0 0 0 0 0 0 0 0 0 0 0 0 0 0 0 0 0 0 0 0 0 0 0 0 0 0 0 0 0 0 0 0 0 0 0 0 0 0 0 0 0 0 0 0 0 0 0 0 0 0 0 0 0 0 0 0 0 0 0 0 0 0 0 0 0 0 0 0 0 0 0 0 0 0 0 0 0 0 0 0 0 0 0 0 0 0 0 0 0 0 0 0 0 0 0 0 0 0 0 0 0 0 0 0 0 0 0 0 0 0 0 0 0 0 0 0 3326.09 3612.39 3327.01 3517.13 3399.75 3281.21 3170.71 3331.64 3173.35 3115.13 3150.46 3305.45 3361.47 3366.53 3375.27 3291.05 3244.72 3356.7 3337.87 3331.83 3241.52 3188.54 3138.38 3106.83 3268.42 3084.89 2722 2816.77 2755.93 1984.7 0 0 689.329 0 0 0 0 0 0 0 0 0 0 0 0 0 0 0 0 0 0 0 0 0 0 0 0 0 0 0 0 0 0 0 0 0 0 0 0 0 0 0 0 0 0 0 0 0 0 0 0 0 0 0 0 0 0 0 0 0 0 0 0 0 0 0 0 0 0 0 0 0 0 0 0 0 0 0 0 0 0 0 0 0 0 0 0 0 0 0 0 0 0 0 0 0 0 0 0 0 0 0 0 0 0 0 0 0 0 0 0 0 0 0 0 0 0 0 0 0 0 0 0 0 0 0 0 0 0 0 0 0 0 0 0 0 0 0 0 0 0 0 0 0 0 0 0 0 0 0 0 0 0 0 0 0 0 0 0 0 0 0 0 0 0 0 0 0 0 0 0 0 0 0 0 0 0 0 0 0 0 0 0 0 0 0 0 0 0 0 0 0 0 0 0 0 0 0 0 0 0 0 0 0 0 0 0 0 0 0
0 0 0 0 0 0 0 0 0 0 0 0 0 0 0 0 0 0 0 0 0 0 0 0 0 0 0 0 0 0 0 0 0 0 0 0 0 0 0 0 0 0 0 0 0 0 0 0 0 0 0 0 0 0 1822.87 2296.14 2214.08 2580.57 2781.52 2716.18 2669.46 2865.16 3011.47 3167.53 2956.34 2953.63 2915.95 2946.89 3793.64 3132.17 3186.12 3158.06 3093.02 3269.89 3190.67 4290.75 3255.42 3099.02 3159.54 2908.17 2929.04 3259.53 2718.51 2936.32 2941.1 0 0 0 0 0 0 0 0 0 0 0 0 0 0 0 0 0 0 0 0 0 0 0 0 0 0 0 0 0 0 0 0 0 0 0 0 0 0 0 0 0 0 0 0 0 0 0 0 0 0 0 0 0 0 0 0 0 0 0 0 0 0 0 0 0 0 0 0 0 0 0 0 0 0 0 0 0 0 0 0 0 0 0 0 0 0 0 0 0 0 0 0 0 0 0 0 0 0 0 0 0 0 0 0 0 0 0 0 0 0 0 0 0 0 0 0 0 0 0 0 0 0 0 0 0 0 0 0 0 0 0 0 0 0 0 0 0 0 0 0 0 0 0 0 0 0 0 0 0 0 0 0 0 0 0 0 0 0 0 0 0 0 0 0 0 0 0 0 0 0 0 0 0 0 0 0 0 0 0 0 0 0 0 0 0 0 0 3740.44 0 0 0 3492.39 3421.1 3365.05 3540.58 3425.5 3335.74 3394.25 3484.77 3471.14 3461.12 3450.73 3302.26 3219.19 3279.15 3244.91 3178.03 3090.4 3056.74 3020.25 2946.68 3167.59 2902.39 2508.28 2448.89 2497.45 1720.44 0 0 0 0 0 0 0 0 0 0 0 0 0 0 0 0 0 0 0 0 0 0 0 0 0 0 0 0 0 0 0 0 0 0 0 0 0 0 0 0 0 0 0 0 0 0 0 0 0 0 0 0 0 0 0 0 0 0 0 0 0 0 0 0 0 0 0 0 0 0 0 0 0 0 0 0 0 0 0 0 0 0 0 0 0 0 0 0 0 0 0 0 0 0 0 0 0 0 0 0 0 0 0 0 0 0 0 0 0 0 0 0 0 0 0 0 0 0 0 0 0 0 0 0 0 0 0 0 0 0 0 0 0 0 0 0 0 0 0 0 0 0 0 0 0 0 0 0 0 0 0 0 0 0 0 0 0 0 0 0 0 0 0 0 0 0 0 0 0 0 0 0 0 0 0 0 0 0 0 0 0 0 0 0 0 0 0 0 0 0 0 0 0 0 0 0 0 0 0 0 0 0 0 0 0 0 0 0 0 0
0 0 0 0 0 0 0 0 0 0 0 0 0 0 0 0 0 0 0 0 0 0 0 0 0 0 0 0 0 0 0 0 0 0 0 0 0 0 0 0 0 0 0 0 0 0 0 0 0 0 0 0 0 0 1724.65 2139 2130.82 2425.74 2628.15 2521.7 2451.4 2868.1 3044.86 3247.61 4660.98 2953.01 2924.14 2923.68 3060.36 3860.15 3121.63 3088.02 3025.48 3204.87 3162.82 3110.8 3237.08 3016.34 3073.87 2771.32 2836.49 3207.75 2643.97 2736.47 0 0 0 0 0 0 0 0 0 0 0 0 0 0 0 0 0 0 0 0 0 0 0 0 0 0 0 0 0 0 0 0 0 0 0 0 0 0 0 0 0 0 0 0 0 0 0 0 0 0 0 0 0 0 0 0 0 0 0 0 0 0 0 0 0 0 0 0 0 0 0 0 0 0 0 0 0 0 0 0 0 0 0 0 0 0 0 0 0 0 0 0 0 0 0 0 0 0 0 0 0 0 0 0 0 0 0 0 0 0 0 0 0 0 0 0 0 0 0 0 0 0 0 0 0 0 0 0 0 0 0 0 0 0 0 0 0 0 0 0 0 0 0 0 0 0 0 0 0 0 0 0 0 0 0 0 0 0 0 0 0 0 0 0 0 0 0 0 0 0 0 0 0 0 0 0 0 0 0 0 0 0 0 0 0 0 0 0 3192.61 0 0 3279.28 3267.21 3168.31 3039.46 3308.05 3281.27 3156.63 3212.78 3323.58 3337.73 3315.7 3377.24 3276.78 3198.7 3215 3202.66 3142.03 3070.95 3074.15 3033.8 2931.85 3052.34 2747.4 2275.95 2216.95 0 0 0 0 0 0 0 0 0 0 0 0 0 0 0 0 0 0 0 0 0 0 0 0 0 0 0 0 0 0 0 0 0 0 0 0 0 0 0 0 0 0 0 0 0 0 0 0 0 0 0 0 0 0 0 0 0 0 0 0 0 0 0 0 0 0 0 0 0 0 0 0 0 0 0 0 0 0 0 0 0 0 0 0 0 0 0 0 0 0 0 0 0 0 0 0 0 0 0 0 0 0 0 0 0 0 0 0 0 0 0 0 0 0 0 0 0 0 0 0 0 0 0 0 0 0 0 0 0 0 0 0 0 0 0 0 0 0 0 0 0 0 0 0 0 0 0 0 0 0 0 0 0 0 0 0 0 0 0 0 0 0 0 0 0 0 0 0 0 0 0 0 0 0 0 0 0 0 0 0 0 0 0 0 0 0 0 0 0 0 0 0 0 0 0 0 0 0 0 0 0 0 0 0 0 0 0 0 0 0 0 0
0 0 0 0 0 0 0 0 0 0 0 0 0 0 0 0 0 0 0 0 0 0 0 0 0 0 0 0 0 0 0 0 0 0 0 0 0 0 0 0 0 0 0 0 0 0 0 0 0 0 0 0 0 0 0 0 0 2149.72 2270.41 2366.18 2283.76 2664.25 2767.52 3094.85 4819.78 2860.43 2858.33 2873.01 3924.8 3928.2 3079.34 3057.68 2959.57 3094.22 3123.95 3086.94 3261.05 2929.04 2976.21 2687.21 2633.88 3087.56 2553.71 0 0 0 0 0 0 0 0 0 0 0 0 0 0 0 0 0 0 0 0 0 0 0 0 0 0 0 0 0 0 0 0 0 0 0 0 0 0 0 0 0 0 0 0 0 0 0 0 0 0 0 0 0 0 0 0 0 0 0 0 0 0 0 0 0 0 0 0 0 0 0 0 0 0 0 0 0 0 0 0 0 0 0 0 0 0 0 0 0 0 0 0 0 0 0 0 0 0 0 0 0 0 0 0 0 0 0 0 0 0 0 0 0 0 0 0 0 0 0 0 0 0 0 0 0 0 0 0 0 0 0 0 0 0 0 0 0 0 0 0 0 0 0 0 0 0 0 0 0 0 0 0 0 0 0 0 0 0 0 0 0 0 0 0 0 0 0 0 0 0 0 0 0 0 0 0 0 0 0 0 0 0 0 0 0 0 0 0 0 0 0 0 0 3140.85 3063.66 2927.2 3196.75 3221.67 3041.55 3129.14 3251.07 3243.4 3262.7 3302.13 3157.05 3137.39 3152.18 3207.68 3136.33 2997.48 3045.25 2949.53 2914.44 3102.35 2711.57 2262.24 2092.81 0 0 0 0 0 0 0 0 0 0 0 0 0 0 0 0 0 0 0 0 0 0 0 0 0 0 0 0 0 0 0 0 0 0 0 0 0 0 0 0 0 0 0 0 0 0 0 0 0 0 0 0 0 0 0 0 0 0 0 0 0 0 0 0 0 0 0 0 0 0 0 0 0 0 0 0 0 0 0 0 0 0 0 0 0 0 0 0 0 0 0 0 0 0 0 0 0 0 0 0 0 0 0 0 0 0 0 0 0 0 0 0 0 0 0 0 0 0 0 0 0 0 0 0 0 0 0 0 0 0 0 0 0 0 0 0 0 0 0 0 0 0 0 0 0 0 0 0 0 0 0 0 0 0 0 0 0 0 0 0 0 0 0 0 0 0 0 0 0 0 0 0 0 0 0 0 0 0 0 0 0 0 0 0 0 0 0 0 0 0 0 0 0 0 0 0 0 0 0 0 0 0 0 0 0 0 0 0 0 0 0 0
0 0 0 0 0 0 0 0 0 0 0 0 0 0 0 0 0 0 0 0 0 0 0 0 0 0 0 0 0 0 0 0 0 0 0 0 0 0 0 0 0 0 0 0 0 0 0 0 0 0 0 0 0 0 0 0 0 0 2597.63 2646.14 2451.33 2825.88 2782.39 3144.85 2994.97 2892.78 2864.04 2868.15 3006.94 3059.58 3040.01 3034.57 2914.18 3021.94 3082 3065.45 3199 2891.98 2930.62 2574.59 2524.54 0 0 0 0 0 0 0 0 0 0 0 0 0 0 0 0 0 0 0 0 0 0 0 0 0 0 0 0 0 0 0 0 0 0 0 0 0 0 0 0 0 0 0 0 0 0 0 0 0 0 0 0 0 0 0 0 0 0 0 0 0 0 0 0 0 0 0 0 0 0 0 0 0 0 0 0 0 0 0 0 0 0 0 0 0 0 0 0 0 0 0 0 0 0 0 0 0 0 0 0 0 0 0 0 0 0 0 0 0 0 0 0 0 0 0 0 0 0 0 0 0 0 0 0 0 0 0 0 0 0 0 0 0 0 0 0 0 0 0 0 0 0 0 0 0 0 0 0 0 0 0 0 0 0 0 0 0 0 0 0 0 0 0 0 0 0 0 0 0 0 0 0 0 0 0 0 0 0 0 0 0 0 0 0 0 0 0 0 0 0 0 0 0 0 2748.93 2686.52 2806.08 2748.03 2952.91 3032.04 2913.68 2988.89 3124.18 3167.12 3220.06 3308.9 3127.33 3135.04 3136.57 3191.39 3141.15 3017.21 3046.08 2963.02 2844.95 3132.99 2742.28 0 2297.46 0 0 0 0 0 0 0 0 0 0 0 0 0 0 0 0 0 0 0 0 0 0 0 0 0 0 0 0 0 0 0 0 0 0 0 0 0 0 0 0 0 0 0 0 0 0 0 0 0 0 0 0 0 0 0 0 0 0 0 0 0 0 0 0 0 0 0 0 0 0 0 0 0 0 0 0 0 0 0 0 0 0 0 0 0 0 0 0 0 0 0 0 0 0 0 0 0 0 0 0 0 0 0 0 0 0 0 0 0 0 0 0 0 0 0 0 0 0 0 0 0 0 0 0 0 0 0 0 0 0 0 0 0 0 0 0 0 0 0 0 0 0 0 0 0 0 0 0 0 0 0 0 0 0 0 0 0 0 0 0 0 0 0 0 0 0 0 0 0 0 0 0 0 0 0 0 0 0 0 0 0 0 0 0 0 0 0 0 0 0 0 0 0 0 0 0 0 0 0 0 0 0 0 0 0 0 0 0 0 0 0 0
0 0 0 0 0 0 0 0 0 0 0 0 0 0 0 0 0 0 0 0 0 0 0 0 0 0 0 0 0 0 0 0 0 0 0 0 0 0 0 0 0 0 0 0 0 0 0 0 0 0 0 0 0 0 0 0 0 0 0 2259.34 2083.8 2456.82 2504.01 2927.04 2957.75 2827.69 2831.22 2843.31 3017.27 3119.77 3061.53 3005.91 2861.74 2860.47 2992.3 2952.13 3040.56 2558.18 2639.73 2380.21 0 0 0 0 0 0 0 0 0 0 0 0 0 0 0 0 0 0 0 0 0 0 0 0 0 0 0 0 0 0 0 0 0 0 0 0 0 0 0 0 0 0 0 0 0 0 0 0 0 0 0 0 0 0 0 0 0 0 0 0 0 0 0 0 0 0 0 0 0 0 0 0 0 0 0 0 0 0 0 0 0 0 0 0 0 0 0 0 0 0 0 0 0 0 0 0 0 0 0 0 0 0 0 0 0 0 0 0 0 0 0 0 0 0 0 0 0 0 0 0 0 0 0 0 0 0 0 0 0 0 0 0 0 0 0 0 0 0 0 0 0 0 0 0 0 0 0 0 0 0 0 0 0 0 0 0 0 0 0 0 0 0 0 0 0 0 0 0 0 0 0 0 0 0 0 0 0 0 0 0 0 0 0 0 0 0 0 0 0 0 0 0 0 0 0 2907.31 2839.85 2818.48 2881.4 3072.91 3145.03 2984.9 3015.59 3141.26 3257.63 3251.83 3393.91 3209.77 3182.13 3172.03 3350.67 3437.58 3354.89 3375.34 3403.41 3384.19 3562.01 0 0 0 0 0 0 0 0 0 0 0 0 0 0 0 0 0 0 0 0 0 0 0 0 0 0 0 0 0 0 0 0 0 0 0 0 0 0 0 0 0 0 0 0 0 0 0 0 0 0 0 0 0 0 0 0 0 0 0 0 0 0 0 0 0 0 0 0 0 0 0 0 0 0 0 0 0 0 0 0 0 0 0 0 0 0 0 0 0 0 0 0 0 0 0 0 0 0 0 0 0 0 0 0 0 0 0 0 0 0 0 0 0 0 0 0 0 0 0 0 0 0 0 0 0 0 0 0 0 0 0 0 0 0 0 0 0 0 0 0 0 0 0 0 0 0 0 0 0 0 0 0 0 0 0 0 0 0 0 0 0 0 0 0 0 0 0 0 0 0 0 0 0 0 0 0 0 0 0 0 0 0 0 3174.67 0 0 3240.33 3302.26 0 0 3479.49 0 0 0 0 0 0 0 0 0 0 0 0 0 0 0 0 0 0 0 0 0 0 0 0
0 0 0 0 0 0 0 0 0 0 0 0 0 0 0 0 0 0 0 0 0 0 0 0 0 0 0 0 0 0 0 0 0 0 0 0 0 0 0 0 0 0 0 0 0 0 0 0 0 0 0 0 0 0 0 0 0 0 0 2072.88 2082.68 2423.04 2239.08 2673.08 2766.2 2732.46 2717.41 2801.67 2927.3 3002.63 2945.6 2974.53 2787.76 2792.86 2852.01 2842.78 2825.31 2295.38 2429.04 2112.52 0 0 0 0 0 0 0 0 0 0 0 0 0 0 0 0 0 0 0 0 0 0 0 0 0 0 0 0 0 0 0 0 0 0 0 0 0 0 0 0 0 0 0 0 0 0 0 0 0 0 0 0 0 0 0 0 0 0 0 0 0 0 0 0 0 0 0 0 0 0 0 0 0 0 0 0 0 0 0 0 0 0 0 0 0 0 0 0 0 0 0 0 0 0 0 0 0 0 0 0 0 0 0 0 0 0 0 0 0 0 0 0 0 0 0 0 0 0 0 0 0 0 0 0 0 0 984.565 0 0 0 0 0 0 0 0 0 0 0 0 0 0 0 0 0 0 0 0 0 0 0 0 0 0 0 0 0 0 0 0 0 0 0 0 0 0 0 0 0 0 0 0 0 0 0 0 0 0 0 0 0 0 0 0 0 0 0 0 0 0 0 0 0 0 0 0 2750.82 2915.9 3004.3 2941.93 3207.81 3288.99 3147.16 3141.56 3164.31 3359.39 3312.43 5380.2 3146.98 3088.19 3108.27 3274.03 3328.2 3301.8 3264.61 3272.12 3243.46 3513.52 0 0 2510.04 0 0 0 0 0 0 0 0 0 0 0 0 0 0 0 0 0 0 0 0 0 0 0 0 0 0 0 0 0 0 0 0 0 0 0 0 0 0 0 0 0 0 0 0 0 0 0 0 0 0 0 0 0 0 0 0 0 0 0 0 0 0 0 0 0 0 0 0 2771.36 2777.23 2531.05 2438.22 2441.87 2492.59 0 0 0 0 0 0 0 0 0 0 0 0 0 0 0 0 0 0 0 0 0 0 0 0 0 0 0 0 0 0 0 0 0 0 0 0 0 0 0 0 0 0 0 0 0 0 0 0 0 0 0 0 0 0 0 0 0 0 0 0 0 0 0 0 0 0 0 0 0 0 0 0 0 0 0 0 0 0 0 0 0 0 0 0 0 0 0 0 0 0 0 0 0 0 0 0 0 0 0 0 0 0 0 2677.34 2493.03 3033.36 3196.38 3036.98 3081.78 3078.04 2960.3 3119.77 3189.51 3115.6 2552.31 2424.69 2407.88 2046.41 1072.16 1087.44 0 0 0 0 0 0 0 0 0 0 0 0 0 0 0 0 0 0
0 0 0 0 0 0 0 0 0 0 0 0 0 0 0 0 0 0 0 0 0 0 0 0 0 0 0 0 0 0 0 0 0 0 0 0 0 0 0 0 0 0 0 0 0 0 0 0 0 0 0 0 0 0 0 0 0 0 0 0 0 0 2051.19 2330.94 2483.14 2391.3 2448.5 2495.15 2674.91 2820.47 2706.02 2807.91 2696.66 2682.22 2897.97 2903.79 2847.42 2075.19 2078.97 1883.89 0 0 0 0 0 0 0 0 0 0 0 0 0 0 0 0 0 0 0 0 0 0 0 0 0 0 0 0 0 0 0 0 0 0 0 0 0 0 0 0 0 0 0 0 0 0 0 0 0 0 0 0 0 0 0 0 0 0 0 0 0 0 0 0 0 0 0 0 0 0 0 0 0 0 0 0 0 0 0 0 0 0 0 0 0 0 0 0 0 0 0 0 0 0 0 0 0 0 0 0 0 0 0 0 0 0 0 0 0 0 0 0 0 0 0 0 0 0 0 0 0 0 0 0 0 0 1479.95 0 0 0 0 0 0 0 0 0 0 0 0 0 0 0 0 0 0 0 0 0 0 0 0 0 0 0 0 0 0 0 0 0 0 0 0 0 0 0 0 0 0 0 0 0 0 0 0 0 0 0 0 0 0 0 0 0 0 0 0 0 0 0 0 0 0 0 0 2879.03 2854.49 2999.3 2933.6 3260.93 3331.9 2860.62 2867.22 2813.99 3117.97 3151.41 3182.86 3006.29 2914.69 2963.65 3296.48 3366.26 3456.77 3386.71 3378.73 0 0 0 0 0 0 0 0 0 0 0 0 0 0 0 0 0 0 0 0 0 0 0 0 0 0 0 0 0 0 0 0 0 0 0 0 0 0 0 0 0 0 0 0 0 0 0 0 0 0 0 0 0 0 0 0 0 0 0 0 0 0 0 0 0 0 0 0 0 0 0 0 2965.54 3155.2 3098.51 2911.75 2867.91 2704.88 2711.48 2870.51 0 0 0 0 0 0 0 0 0 0 0 0 0 0 0 0 0 0 0 0 0 0 0 0 0 0 0 0 0 0 0 0 0 0 0 0 0 0 0 0 0 0 0 0 0 0 0 0 0 0 0 0 0 0 0 0 0 0 0 0 0 0 0 0 0 0 0 0 0 0 0 0 0 0 0 0 0 0 0 0 0 0 0 0 0 0 0 0 0 0 0 0 0 0 0 0 0 0 2372.17 2518.78 2309.28 2316.46 2355.95 2304.65 2527.97 2608.54 2600.65 2728.86 2765.24 2783.55 2990.59 2990.43 2790.86 2401.5 2379.64 2366.35 1749.63 1052.14 0 0 0 0 0 0 0 0 0 0 0 0 0 0 0 0 0 0 0
0 0 0 0 0 0 0 0 0 0 0 0 0 0 0 0 0 0 0 0 0 0 0 0 0 0 0 0 0 0 0 0 0 0 0 0 0 0 0 0 0 0 0 0 0 0 0 0 0 0 0 0 0 0 0 0 0 0 0 0 0 0 0 2082.63 2174.77 2219.91 2395.47 2386.44 2600.49 2843.27 2629.88 2703.23 2582.4 2534.07 2779.95 2696.71 2779.26 0 0 0 0 0 0 0 0 0 0 0 0 0 0 0 0 0 0 0 0 0 0 0 0 0 0 0 0 0 0 0 0 0 0 0 0 0 0 0 0 0 0 0 0 0 0 0 0 0 0 0 0 0 0 0 0 0 0 0 0 0 0 0 0 0 0 0 0 0 0 0 0 0 0 0 0 0 0 0 0 0 0 0 0 0 0 0 0 0 0 0 0 0 0 0 0 0 0 0 0 0 0 0 0 0 0 0 0 0 0 0 0 0 0 0 0 0 0 0 0 0 0 0 0 0 0 1579.02 1819.34 1811.95 1864.94 1655.85 1700.96 1718.2 1587.66 0 2101.18 0 0 0 0 0 0 0 0 0 0 0 0 0 0 0 0 0 0 0 0 0 0 0 0 0 0 0 0 0 0 0 0 0 0 0 0 0 0 0 0 0 0 0 0 0 0 0 0 0 0 0 0 0 0 0 0 0 0 0 0 0 0 0 0 0 2943.68 3130.42 3184.49 2589.13 2523.52 2299.76 2636.82 2718.03 2421.33 2296.86 2234.49 2261.75 2719.04 2777.37 2993.74 2780.87 2697.31 0 0 0 0 0 0 0 0 0 0 0 0 0 0 0 0 0 0 0 0 0 0 0 0 0 0 0 0 0 0 0 0 0 0 0 0 0 0 0 0 0 0 0 0 0 0 0 0 0 0 0 0 0 0 0 0 0 0 0 0 0 0 0 0 0 0 0 0 0 0 3098.57 2793.51 3180.44 3500.91 3399.82 3234.27 3251.76 3253.91 3121.34 3301.41 3350 3000.81 0 0 0 0 0 0 0 0 0 0 0 0 0 0 0 0 0 0 0 0 0 0 0 0 0 0 0 0 0 0 0 0 0 0 0 0 0 0 0 0 0 0 0 0 0 0 0 0 0 0 0 0 0 0 0 0 0 0 0 0 0 0 0 0 0 0 0 0 0 0 0 0 0 0 0 0 0 0 0 0 0 0 0 0 0 0 0 0 0 0 0 0 0 0 2447.32 2306.74 2287.87 2400.68 2368.38 2516.06 2546.69 2540.06 2701.05 2746.46 2778.06 2898.42 2939.76 2935.55 2921.29 2984.1 2790.17 2548.12 2597.15 2695.19 2290.21 1425.17 1506.83 1061.57 0 0 0 0 0 0 0 0 0 0 0 0 0 0 0 0 0
0 0 0 0 0 0 0 0 0 0 0 0 0 0 0 0 0 0 0 0 0 0 0 0 0 0 0 0 0 0 0 0 0 0 0 0 0 0 0 0 0 0 0 0 0 0 0 0 0 0 0 0 0 0 0 0 0 0 0 0 0 0 0 0 1953.19 1938.03 2197.27 2173.33 2326.25 2646.6 2322.77 2389.6 2313.65 2194.56 2372.84 0 0 0 0 0 0 0 0 0 0 0 0 0 0 0 0 0 0 0 0 0 0 0 0 0 0 0 0 0 0 0 0 0 0 0 0 0 0 0 0 0 0 0 0 0 0 0 0 0 0 0 0 0 0 0 0 0 0 0 0 0 0 0 0 0 0 0 0 0 0 0 0 0 0 0 0 0 0 0 0 0 0 0 0 0 0 0 0 0 0 0 0 0 0 0 0 0 0 0 0 0 0 0 0 0 0 0 0 0 0 0 0 0 0 0 0 0 0 0 0 0 0 0 0 0 0 0 0 2205.76 2345.83 2301.36 2371.19 2213.32 2408.57 2268.23 2188.87 0 2772.46 2309.12 2423.04 0 0 0 0 0 0 0 0 0 0 0 0 0 0 0 0 0 0 0 0 0 0 0 0 0 0 0 0 0 0 0 0 0 0 0 0 0 0 0 0 0 0 0 0 0 0 0 0 0 0 0 0 0 0 0 0 0 0 0 0 0 0 0 0 0 0 2207.7 2273.82 2058.86 2534.95 2819.23 2683.6 2508.35 2470.82 2440.27 3028.16 3233.15 3569.51 3174.01 0 0 0 0 0 0 0 0 0 0 0 0 0 0 0 0 0 0 0 0 0 0 0 0 0 0 0 0 0 0 0 0 0 0 0 0 0 0 0 0 0 0 0 0 0 0 0 0 0 0 0 0 0 0 0 0 0 0 0 0 0 0 0 0 0 0 0 0 0 0 0 3380.03 3019.82 3182.44 3369.3 3291.44 3143.15 3172.69 3090.8 3001.18 3137.5 3241.9 3045.47 2983.94 2952.07 2795.75 0 0 0 0 0 0 0 0 0 0 0 0 0 0 0 0 0 0 0 0 0 0 0 0 0 0 0 0 0 0 0 0 0 0 0 0 0 0 0 0 0 0 0 0 0 0 0 0 0 0 0 0 0 0 0 0 0 0 0 0 0 0 0 0 0 0 0 0 0 0 0 0 0 0 0 0 0 0 0 0 0 0 0 0 0 0 0 0 0 2794.44 2687.16 2297.8 2308.65 2320.91 2438.93 2355.28 2359.09 2397.56 2509.85 2600.65 2729.26 2778.29 2804.72 2836.06 2860.33 3016.56 3075.17 2841.77 2656.87 2617.94 2555.15 2340.6 1526.46 1707 1152.14 0 0 0 0 0 0 0 0 0 0 0 0 0 0 0 0 0
0 0 0 0 0 0 0 0 0 0 0 0 0 0 0 0 0 0 0 0 0 0 0 0 0 0 0 0 0 0 0 0 0 0 0 0 0 0 0 0 0 0 0 0 0 0 0 0 0 0 0 0 0 0 0 0 0 0 0 0 0 0 0 0 1878.38 1725.27 2108.57 2010.15 2295.63 0 0 2269.98 0 0 0 0 0 0 0 0 0 0 0 0 0 0 0 0 0 0 0 0 0 0 0 0 0 0 0 0 0 0 0 0 0 0 0 0 0 0 0 0 0 0 0 0 0 0 0 0 0 0 0 0 0 0 0 0 0 0 0 0 0 0 0 0 0 0 0 0 0 0 0 0 0 0 0 0 0 0 0 0 0 0 0 0 0 0 0 0 0 0 0 0 0 0 0 0 0 0 0 0 0 0 0 0 0 0 0 0 0 0 0 0 0 0 0 0 0 0 0 0 0 0 0 0 0 0 0 0 1914.48 2277.28 2489.63 2646.89 2690.91 2618.76 2829.03 2815.17 2820.85 2674.53 2569.23 2716.79 2992.89 2825.36 2931.29 3059.24 0 0 0 0 0 0 0 0 0 0 0 0 0 0 0 0 0 0 0 0 0 0 0 0 0 0 0 0 0 0 0 0 0 0 0 0 0 0 0 0 0 0 0 0 0 0 0 0 0 0 0 0 0 0 0 0 0 0 0 0 0 0 0 0 0 0 2168.39 1846.97 2240.43 2492.22 2256.61 2161.74 2168.08 2226.45 2819 0 0 0 0 0 0 0 0 0 0 0 0 0 0 0 0 0 0 0 0 0 0 0 0 0 0 0 0 0 0 0 0 0 0 0 0 0 0 0 0 0 0 0 0 0 0 0 0 0 0 0 0 0 0 0 0 0 0 0 0 0 0 0 0 0 0 0 0 0 0 0 0 3245.66 3157.76 3260.1 3050.95 3249.24 3408.66 3348.12 3240.27 3259.22 3174.49 3199.12 3276.72 3389.45 3276.66 3237.27 3249.5 3023.46 2618.22 2557.52 2550.83 0 1332.73 0 0 1461.34 0 0 0 0 0 0 0 0 0 0 0 0 0 0 0 0 0 0 0 0 0 0 0 0 0 0 0 0 0 0 0 0 0 0 0 0 0 0 0 0 0 0 0 0 0 0 0 0 0 0 0 0 0 0 0 0 0 0 0 0 0 0 0 0 0 0 0 0 0 0 0 0 0 0 0 0 0 0 0 0 0 3089.32 2906.06 2458.58 2416.13 2423.95 2541.79 2405.74 2333.18 2392.09 2520.64 2580.89 2711.35 2770.45 2772.42 2783.27 2841.15 3042.38 3147.21 3010.99 2943.01 2929.86 2947.72 2767.98 2195.54 0 0 0 0 0 0 0 0 0 0 0 0 0 0 0 0 0 0 0
0 0 0 0 0 0 0 0 0 0 0 0 0 0 0 0 0 0 0 0 0 0 0 0 0 0 0 0 0 0 0 0 0 0 0 0 0 0 0 0 0 0 0 0 0 0 0 0 0 0 0 0 0 0 0 0 0 0 0 0 0 0 0 0 1536.86 1363.02 1871.03 1768.14 2037.49 2518.78 1940.49 0 0 0 0 0 0 0 0 0 0 0 0 0 0 0 0 0 0 0 0 0 0 0 0 0 0 0 0 0 0 0 0 0 0 0 0 0 0 0 0 0 0 0 0 0 0 0 0 0 0 0 0 0 0 0 0 0 0 0 0 0 0 0 0 0 0 0 0 0 0 0 0 0 0 0 0 0 0 0 0 0 0 0 0 0 0 0 0 0 0 0 0 0 0 0 0 0 0 0 0 0 0 0 0 0 0 0 0 0 0 0 0 0 0 0 0 0 0 0 0 0 0 0 0 0 0 0 0 2338.74 2558.03 2737.14 2833.52 2852.3 4420.65 2861.25 3127.27 3193.95 3114.73 2933.34 2839.37 2967.16 3179.96 3024.06 3135.98 3101.95 2994.81 2856.77 3177.67 3199.24 2993.05 2318.22 1065.3 0 0 0 0 0 0 0 0 0 0 0 0 0 0 0 0 0 0 0 0 0 0 0 0 0 0 0 0 0 0 0 0 0 0 0 0 0 0 0 0 0 0 0 0 0 0 0 0 0 0 0 0 0 0 0 0 0 0 0 2025.58 0 0 0 0 0 0 2240.52 0 0 0 0 0 0 0 0 0 0 0 0 0 0 0 0 0 0 0 0 0 0 0 0 0 0 0 0 0 0 0 0 0 0 0 0 0 0 0 0 0 0 0 0 0 0 0 0 0 0 0 0 0 0 0 0 0 0 0 0 0 0 0 0 0 0 0 0 0 0 0 0 2682.14 3036.21 3093.65 3218.76 3117.04 3276.08 3425.43 3450.87 3444.7 3376.02 3370.66 3256.37 3319.57 3433.85 3358.38 3325.1 3270.91 3028.54 2970.26 2577.6 2858.62 0 1237.49 0 0 0 0 0 0 0 0 0 0 0 0 0 0 0 0 0 0 0 0 0 0 0 0 0 0 0 0 0 0 0 0 0 0 0 0 0 0 0 0 0 0 0 0 0 0 0 0 0 0 0 0 0 0 0 0 0 0 0 0 0 0 0 0 0 0 0 0 0 0 0 0 0 0 0 0 0 0 0 0 0 0 0 0 3118.72 2921.49 2635.46 4523.75 2497.86 2557.91 2526.98 2428.41 2464.29 3872.62 2578.31 2686.47 2754.26 2803.64 2812.05 2780.69 2956.7 3113.8 3117.51 3016.72 3042.43 3088.41 2971.15 2729.75 2776.73 0 1023.83 0 1124.79 950.631 0 0 0 0 0 0 0 0 0 0 0 0 0
0 0 0 0 0 0 0 0 0 0 0 0 0 0 0 0 0 0 0 0 0 0 0 0 0 0 0 0 0 0 0 0 0 0 0 0 0 0 0 0 0 0 0 0 0 0 0 0 0 0 0 0 0 0 0 0 0 0 0 0 0 0 0 0 0 0 0 0 0 0 0 0 0 0 0 0 0 0 0 0 0 0 0 0 0 0 0 0 0 0 0 0 0 0 0 0 0 0 0 0 0 0 0 0 0 0 0 0 0 0 0 0 0 0 0 0 0 0 0 0 0 0 0 0 0 0 0 0 0 0 0 0 0 0 0 0 0 0 0 0 0 0 0 0 0 0 0 0 0 0 0 0 0 0 0 0 0 0 0 0 0 0 0 0 0 0 0 0 0 0 0 0 0 0 0 0 0 0 0 0 0 0 0 0 0 0 0 0 0 0 0 0 0 0 0 0 0 0 0 3197.23 3154.26 3265.88 3763.35 3906.62 3740.44 3127.62 3341.12 3371.06 3306.55 3179.06 3011.96 3037.86 3301.02 3235.77 3292.47 3136.68 2929.7 2786.97 3105.1 3274.55 3122.03 2361.88 1543.86 1408.96 0 0 0 0 0 0 0 0 0 0 0 0 0 0 0 0 0 0 0 0 0 0 0 0 0 0 0 0 0 0 0 0 0 0 0 0 0 0 0 0 0 0 0 0 0 0 0 0 0 0 0 0 0 0 0 0 0 0 0 0 0 0 2410.13 0 0 0 0 0 0 0 0 0 0 0 0 0 0 0 0 0 0 0 0 0 0 0 0 0 0 0 0 0 0 0 0 0 0 0 0 0 0 0 0 0 0 0 0 0 0 0 0 0 0 0 0 0 0 0 0 0 0 0 0 0 0 0 0 0 0 0 0 0 0 0 0 0 1855.68 2125.37 2454.8 2776.18 2819.8 3101.49 3091.88 3358.51 3587.91 3563.22 3564.43 3500.33 3554.99 3466.27 3478.34 3599.53 3455.27 3393.84 3450.23 3238.52 3357.91 2928.94 3232.53 0 1406.27 0 0 0 0 0 0 0 0 0 0 0 0 0 0 0 0 0 0 0 0 0 0 0 0 0 0 0 0 0 0 0 0 0 0 0 0 0 0 0 0 0 0 0 0 0 0 0 0 0 0 0 0 0 0 0 0 0 0 0 0 0 0 0 0 0 0 0 0 0 0 0 0 0 0 0 0 0 0 0 0 0 0 0 0 0 2977.85 2693.07 2632.93 2597.51 2602.47 2533.23 2430.27 3936.86 3849.43 2574.16 2682.65 2743.63 2775.4 2810.54 2818.67 2878.14 3027.78 2977.48 2894.37 2836.06 2870.56 2600.01 2199.31 2261.08 0 0 0 999.564 961.301 0 0 0 0 0 0 0 0 0 0 0 0 0
0 0 0 0 0 0 0 0 0 0 0 0 0 0 0 0 0 0 0 0 0 0 0 0 0 0 0 0 0 0 0 0 0 0 0 0 0 0 0 0 0 0 0 0 0 0 0 0 0 0 0 0 0 0 0 0 0 0 0 0 0 0 0 0 0 0 0 0 0 0 0 0 0 0 0 0 0 0 0 0 0 0 0 0 0 0 0 0 0 0 0 0 0 0 0 0 0 0 0 0 0 0 0 0 0 0 0 0 0 0 0 0 0 0 0 0 0 0 0 0 0 0 0 0 0 0 0 0 0 0 0 0 0 0 0 0 0 0 0 0 0 0 0 0 0 0 0 0 0 0 0 0 0 0 0 0 0 0 0 0 0 0 0 0 0 0 0 0 0 0 0 0 0 0 0 0 0 0 0 0 0 0 0 0 0 0 0 0 0 0 0 0 0 0 0 0 0 0 2871.78 3118.03 3016.34 3180.99 3280.24 3754.76 3302.19 3188.79 3306.23 3251.2 3190.06 3157.94 3029.74 3027.67 3247.8 3179.48 3231.66 3131.3 3075.84 3085.86 3342.45 3386.03 3023.57 2448.14 1760.06 1610.07 521.03 0 0 0 0 0 0 0 0 0 0 0 0 0 0 0 0 0 0 0 0 0 0 0 0 0 0 0 0 0 0 0 0 0 0 0 0 0 0 0 0 0 0 0 0 0 0 0 0 0 0 0 0 0 0 0 0 0 0 0 0 0 0 0 0 0 0 0 0 0 0 0 0 0 0 0 0 0 0 0 0 0 0 0 0 0 0 0 0 0 0 0 0 0 0 0 0 0 0 0 0 0 0 0 0 0 0 0 0 0 0 0 0 0 0 0 0 0 0 0 0 0 0 0 0 0 0 0 0 0 0 0 0 0 0 1819.14 1918.15 2192.41 2463.85 2817.2 2790.63 3077.25 3148.69 3364.37 3567.23 3521.63 3488.54 3470.14 4048.68 3979.63 4005.38 3543.13 3453 3416.16 3498.65 3467.63 3640.93 3247.11 3650.59 3095.88 2587.82 0 0 0 0 0 0 0 0 0 0 0 0 0 0 0 0 0 0 0 0 0 0 0 0 0 0 0 0 0 0 0 0 0 0 0 0 0 0 0 0 0 0 0 0 0 0 0 0 0 0 0 0 0 0 0 0 0 0 0 0 0 0 0 0 0 0 0 0 0 0 0 0 0 0 0 0 0 0 0 0 0 0 0 2884.42 3085.01 2853.13 2709.38 2624.33 2706.84 2706.8 2677.6 3938.44 3903.07 2699.01 2763.69 2834.57 2910.19 2913.22 2941.41 2917.98 3027.72 3157.46 3071.9 2915.7 2862.57 2855.51 2591.85 2281.49 2476.8 1890.85 0 0 0 0 0 0 0 0 0 0 0 0 0 0 0 0 0
0 0 0 0 0 0 0 0 0 0 0 0 0 0 0 0 0 0 0 0 0 0 0 0 0 0 0 0 0 0 0 0 0 0 0 0 0 0 0 0 0 0 0 0 0 0 0 0 0 0 0 0 0 0 0 0 0 0 0 0 0 0 0 0 0 0 0 0 0 0 0 0 0 0 0 0 0 0 0 0 0 0 0 0 0 0 0 0 0 0 0 0 0 0 0 0 0 0 0 0 0 0 0 0 0 0 0 0 0 0 0 0 0 0 0 0 0 0 0 0 0 0 0 0 0 0 0 0 0 0 0 0 0 0 0 0 0 0 0 0 0 0 0 0 0 0 0 0 0 0 0 0 0 0 0 0 0 0 0 0 0 0 0 0 0 0 0 0 0 0 0 0 0 0 0 0 0 0 0 0 0 0 0 0 0 0 0 0 0 0 0 0 0 0 0 0 0 0 2755.16 3083.14 3064.55 3335.41 3379.28 3316.75 3391.78 4094.62 4126.96 4070.29 3908.98 3250.94 3153.37 3160.43 3382.69 3364.03 3312.63 3244.91 3209.59 3218.95 3435.39 3429 3296.94 2652.87 2371.8 2367.68 1149.35 0 0 0 0 0 0 0 0 0 0 0 0 0 0 0 0 0 0 0 0 0 0 0 0 0 0 0 0 0 0 0 0 0 0 0 0 0 0 0 0 0 0 0 0 0 0 0 0 0 0 0 0 0 0 0 0 0 0 0 0 0 0 0 0 0 0 0 0 0 0 0 0 0 0 0 0 0 0 0 0 0 0 0 0 0 0 0 0 0 0 0 0 0 0 0 0 0 0 0 0 0 0 0 0 0 0 0 0 0 0 0 0 0 0 0 0 0 0 0 0 0 0 0 0 0 0 0 0 0 0 0 1810.13 0 2420.73 2169.96 2295.92 2669.12 2912.82 3171.19 3187.7 3302.39 3235.15 3380.5 3514.55 3874.23 3782.27 3368.15 3791.84 3281.46 3357.57 3458.48 3384.94 3376.63 3362.15 3317.28 3541.48 3283.45 3740.03 3120.87 2360.09 0 0 1316.38 0 0 0 0 0 0 0 0 0 0 0 0 0 0 0 0 0 0 0 0 0 0 0 0 0 0 0 0 0 0 0 0 0 0 0 0 0 0 0 0 0 0 0 0 0 0 0 0 0 0 0 0 0 0 0 0 0 0 0 0 0 0 0 0 0 0 0 0 0 0 0 0 0 0 0 0 0 0 0 0 3077.88 3008.56 2903.39 2823.03 2812.57 2803.64 2824.79 2883.28 4005.95 2788.64 2863.99 2880.96 2958.37 3023.41 3050.18 3038.63 2942.03 3028.81 3141.44 3076.46 2971.37 2907.57 2805.75 2528.19 2401.71 2565.07 1948.47 1404.95 973.517 1192.26 1136.68 0 0 0 0 0 0 0 0 0 0 0 0 0
0 0 0 0 0 0 0 0 0 0 0 0 0 0 0 0 0 0 0 0 0 0 0 0 0 0 0 0 0 0 0 0 0 0 0 0 0 0 0 0 0 0 0 0 0 0 0 0 0 0 0 0 0 0 0 0 0 0 0 0 0 0 0 0 0 0 0 0 0 0 0 0 0 0 0 0 0 0 0 0 0 0 0 0 0 0 0 0 0 0 0 0 0 0 0 0 0 0 0 0 0 0 0 0 0 0 0 0 0 0 0 0 0 0 0 0 0 0 0 0 0 0 0 0 0 0 0 0 0 0 0 0 0 0 0 0 0 0 0 0 0 0 0 0 0 0 0 0 0 0 0 0 0 0 0 0 0 0 0 0 0 0 0 0 0 0 0 0 0 0 0 0 0 0 0 0 0 0 0 0 0 0 0 0 0 0 0 0 0 0 0 0 0 0 0 0 0 2272.96 3087.28 3335.61 3235.83 3494.5 3488.83 4224.21 4186.06 4232.73 4207.79 4113.4 4020.35 3848.99 3758.12 3176.89 3843.35 4009.4 3188.24 2995.88 3049.35 3108.5 3258.33 3245.6 3299.14 2642.93 2477.86 2647.27 0 0 0 0 0 0 0 0 0 0 0 0 0 0 0 0 0 0 0 0 0 0 0 0 0 0 0 0 0 0 0 0 0 0 0 0 0 0 0 0 0 0 0 0 0 0 0 0 0 0 0 0 0 0 0 0 0 0 0 0 0 0 0 0 0 0 0 0 0 0 0 0 0 0 0 0 0 0 0 0 0 0 0 0 0 0 0 0 0 0 0 0 0 0 0 0 0 0 0 0 0 0 0 0 0 0 0 0 0 0 0 0 0 0 0 0 0 0 0 0 0 0 0 0 0 0 0 0 0 0 0 0 2109.02 2424.09 2590.05 2383.02 2403.12 2694.63 2821.46 3032.37 3063.26 3119.94 3150.52 3264.42 3406.73 3435.25 3407.97 3328.73 3328.86 3276.08 3353.81 3447.32 3400.99 3333.16 3315.77 3295.25 3558.23 3383.23 3684.91 3245.03 2611.95 2095.95 1516.55 1491.07 1355.07 1381.14 0 0 0 0 0 0 0 0 0 0 0 0 0 0 0 0 0 0 0 0 0 0 0 0 0 0 0 0 0 0 0 0 0 0 0 0 0 0 0 0 0 0 0 0 0 0 0 0 0 0 0 0 0 0 0 0 0 0 0 0 0 0 0 0 0 0 0 0 0 0 0 0 0 0 0 0 0 0 3057.07 2973 3118.96 3003.22 2907.82 2883.68 2906.91 2967.27 2919.4 2908.78 2962.97 2949.69 3025.15 3090.97 3091.83 3087.05 2990.75 3074.04 3187.88 3152.06 3028.27 2934.31 2862.87 2691.6 2603.72 2834.71 2371.09 1807.03 1261.13 1408.9 1329.22 0 0 0 0 0 0 0 0 0 0 0 0 0
0 0 0 0 0 0 0 0 0 0 0 0 0 0 0 0 0 0 0 0 0 0 0 0 0 0 0 0 0 0 0 0 0 0 0 0 0 0 0 0 0 0 0 0 0 0 0 0 0 0 0 0 0 0 0 0 0 0 0 0 0 0 0 0 0 0 0 0 0 0 0 0 0 0 0 0 0 0 0 0 0 0 0 0 0 0 0 0 0 0 0 0 0 0 0 0 0 0 0 0 0 0 0 0 0 0 0 0 0 0 0 0 0 0 0 0 0 0 0 0 0 0 0 0 0 0 0 0 0 0 0 0 0 0 0 0 0 0 0 0 0 0 0 0 0 0 0 0 0 0 0 0 0 0 0 0 0 0 0 0 0 0 0 0 0 0 0 0 0 0 0 0 0 0 0 0 0 0 0 0 0 0 0 0 0 0 0 0 0 0 0 0 0 0 0 0 0 2263.58 2925.56 3257.82 3078.78 3352 3326.68 3245.22 3277.94 3965.24 3943.43 3820.16 3656.08 3217.1 3135.74 3131.24 3305.06 3903.98 3250.5 3078.89 3127.44 3231.78 3351.2 3319.24 3353.75 2505.99 2353.1 2376.57 2043.32 0 0 0 0 0 0 0 0 0 0 0 0 0 0 0 0 0 0 0 0 0 0 0 0 0 0 0 0 0 0 0 0 0 0 0 0 0 0 0 0 0 0 0 0 0 0 0 0 0 0 0 0 0 0 0 0 0 0 0 0 0 0 0 0 0 0 0 0 0 0 0 0 0 0 0 0 0 0 0 0 0 0 0 0 0 0 0 0 0 0 0 0 0 0 0 0 0 0 0 0 0 0 0 0 0 0 0 0 0 0 0 0 0 0 0 0 0 0 0 0 0 0 0 0 0 0 0 0 0 0 0 2215.14 2560.84 2796.82 2596.47 2626.54 2892.23 2944.1 3043.54 3054.68 3112.36 3117.45 3195.59 3325.1 3381.19 3360.87 3314.07 3358.31 3303.23 3367.75 3445.41 3416.78 3399.55 3344.45 3310.08 3479.21 3238.83 3480 3145.56 2684.97 2407.36 1856.64 1618.04 1261.04 1176.99 0 0 0 0 0 0 0 0 0 0 0 0 0 0 0 0 0 0 0 0 0 0 0 0 0 0 0 0 0 0 0 0 0 0 0 0 0 0 0 0 0 0 0 0 0 0 0 0 0 0 0 0 0 0 0 0 0 0 0 0 0 0 0 0 0 0 0 0 0 0 0 0 0 0 0 0 0 0 2985.43 2916.56 3070.95 3043.37 3029.42 2965.64 3007.69 3065.9 3031.88 3023.14 3049.9 3030.84 3079.57 3111.49 3100.46 3117.8 3054.29 3109.53 3216.42 3193.46 3097.99 3001.24 2915.04 2940.74 2734.55 2782.07 2382 1844.72 1340.32 1374.73 1220.93 958.988 0 0 0 0 0 0 0 0 0 0 0 0
0 0 0 0 0 0 0 0 0 0 0 0 0 0 0 0 0 0 0 0 0 0 0 0 0 0 0 0 0 0 0 0 0 0 0 0 0 0 0 0 0 0 0 0 0 0 0 0 0 0 0 0 0 0 0 0 0 0 0 0 0 0 0 0 0 0 0 0 0 0 0 0 0 0 0 0 0 0 0 0 0 0 0 0 0 0 0 0 0 0 0 0 0 0 0 0 0 0 0 0 0 0 0 0 0 0 0 0 0 0 0 0 0 0 0 0 0 0 0 0 0 0 0 0 0 0 0 0 0 0 0 0 0 0 0 0 0 0 0 0 0 0 0 0 0 0 0 0 0 0 0 0 0 0 0 0 0 0 0 0 0 0 0 0 0 0 0 0 0 0 0 0 0 0 0 0 0 0 0 0 0 0 0 0 0 0 0 0 0 0 0 0 0 0 0 0 2282.83 2369.35 3013.31 3235.77 3170.59 3516.69 3470.93 3404.03 3399.27 3906.98 3868.07 3738.69 3292.93 3310.99 3214.32 3197.23 3849.34 3980.77 3303.95 3157.64 3145.21 3197.17 3175.87 2995.82 3009.47 2254.39 2143.43 1961.18 1629.46 1080.5 0 0 0 0 0 0 0 0 0 0 0 0 0 0 0 0 0 0 0 0 0 0 0 0 0 0 0 0 0 0 0 0 0 0 0 0 0 0 0 0 0 0 0 0 0 0 0 0 0 0 0 0 0 0 0 0 0 0 0 0 0 0 0 0 0 0 0 0 0 0 0 0 0 0 0 0 0 0 0 0 0 0 0 0 0 0 0 0 0 0 0 0 0 0 0 0 0 0 0 0 0 0 0 0 0 0 0 0 0 0 0 0 0 0 0 0 0 0 0 0 0 0 0 0 0 0 0 0 0 0 2077.01 2326.51 2576.49 2533.5 2613.45 2868.25 2975.21 3114.21 3046.25 3158 3184.61 3257 3300.64 3304.67 3300.76 3224.7 3230.29 3227 3281.27 3331.83 3297.26 3347.86 3358.98 3362.28 3557.25 3428.23 3582.54 3266.39 3099.54 2824.26 2175.05 1974.43 1362.6 1011.79 0 0 0 0 0 0 0 0 0 0 0 0 0 0 0 0 0 0 0 0 0 0 0 0 0 0 0 2229.11 2316.84 2577.48 2602.99 0 0 0 0 0 0 0 0 0 0 0 0 0 0 0 0 0 0 0 0 0 0 0 0 0 0 0 0 0 0 0 0 0 0 0 0 0 0 0 0 0 0 0 0 0 0 3048.46 2880.26 2908.88 3116.47 3080.53 3081.66 3003.82 3005.54 3031.28 2972.63 2959.99 3009.09 3023.46 3087.96 3137.33 3143.68 3158.77 3134.22 3227.86 3757.53 3272.82 3138.44 3012.17 2888.35 2883.63 2733.84 2725.22 2255.82 1767.36 1406.98 1450.16 1311.47 1060.63 0 0 0 0 0 0 0 0 0 0 0 0
0 0 0 0 0 0 0 0 0 0 0 0 0 0 0 0 0 0 0 0 0 0 0 0 0 0 0 0 0 0 0 0 0 0 0 0 0 0 0 0 0 0 0 0 0 0 0 0 0 0 0 0 0 0 0 0 0 0 0 0 0 0 0 0 0 0 0 0 0 0 0 0 0 0 0 0 0 0 0 0 0 0 0 0 0 0 0 0 0 0 0 0 0 0 0 0 0 0 0 0 0 0 0 0 0 0 0 0 0 0 0 0 0 0 0 0 0 0 0 0 0 0 0 0 0 0 0 0 0 0 0 0 0 0 0 0 0 0 0 0 0 0 0 0 0 0 0 0 0 0 0 0 0 0 0 0 0 0 0 0 0 0 0 0 0 0 0 0 0 0 0 0 0 0 0 0 0 0 0 0 0 0 0 0 0 0 0 0 0 0 0 0 0 0 0 0 2559.74 2677.21 3171.85 3337.73 3282.88 3597.83 3574.22 3454.99 3423.62 3924.34 3859.97 3777.41 3305.84 3307.14 3212.54 3161.92 3306.88 3753.33 3263.08 3131.94 3079.68 3107.35 3093.02 2948.29 2875.08 2165.81 2147.54 1974.15 1623.33 924.697 0 0 0 0 0 0 0 0 0 0 0 0 0 0 0 0 0 0 0 0 0 0 0 0 0 0 0 0 0 0 0 0 0 0 0 0 0 0 0 0 0 0 0 0 0 0 0 0 0 0 0 0 0 0 0 0 0 0 0 0 0 0 0 0 0 0 0 0 0 0 0 0 0 0 0 0 0 0 0 0 0 0 0 0 0 0 0 0 0 0 0 0 0 0 0 0 0 0 0 0 0 0 0 0 0 0 0 0 0 0 0 0 0 0 0 0 0 0 0 0 0 0 0 0 0 0 0 0 0 0 2238.57 2534.84 2669.89 2681.62 2748.66 2916.61 3041.44 3190.42 3098.79 3215.25 3237.33 3341.12 3371.13 3358.51 3377.65 3329.52 3342.12 3373.64 3414.77 3477.19 3450.73 3488.54 3536.26 3518.68 3672.17 3565.34 3742.44 3533.8 3277.23 2973.37 2310.75 2372.6 1606.8 965.289 0 0 0 0 0 0 0 0 0 0 0 0 0 0 0 0 0 0 0 0 0 0 0 0 0 2638.48 2524.5 2594.98 2547.42 2692.99 2728.06 2512.41 2551.14 2571.2 0 0 0 0 0 1478.02 1478.31 1567.72 919.966 0 0 0 0 0 0 0 0 0 0 0 0 0 0 0 0 0 0 0 0 0 0 0 0 0 0 0 0 0 0 0 0 0 3199 0 2862.08 2972.68 3151.94 3215.49 3214.45 3098.68 3075.51 3108.96 3105.97 3039.24 3058.69 3091.6 3146.86 3178.28 3201.93 3241.02 3195.77 3239.39 3824.34 3883.83 3227.12 3120.17 3088.41 3037.92 2918.03 2904.95 2491.37 1834.21 1283.59 1379.3 1124.41 907.811 725.212 0 0 0 0 0 0 0 0 0 0 0
0 0 0 0 0 0 0 0 0 0 0 0 0 0 0 0 0 0 0 0 0 0 0 0 0 0 0 0 0 0 0 0 0 0 0 0 0 0 0 0 0 0 0 0 0 0 0 0 0 0 0 0 0 0 0 0 0 0 0 0 0 0 0 0 0 0 0 0 0 0 0 0 0 0 0 0 0 0 0 0 0 0 0 0 0 0 0 0 0 0 0 0 0 0 0 0 0 0 0 0 0 0 0 0 0 0 0 0 0 0 0 0 0 0 0 0 0 0 0 0 0 0 0 0 0 0 0 0 0 0 0 0 0 0 0 0 0 0 0 0 0 0 0 0 0 0 0 0 0 0 0 0 0 0 0 0 0 0 0 0 0 0 0 0 0 0 0 0 0 0 0 0 0 0 0 0 0 0 0 0 0 0 0 0 0 0 0 0 0 0 0 0 0 0 0 0 2666.62 2815.07 3235.96 3434.13 3279.47 3514.92 3427.95 3346.65 3282.94 3281.46 3260.74 3243.9 3193.76 3227.99 3186.79 3159.19 3266.89 3832.99 3889.23 3233.46 3198.82 3207.62 3095.99 2911 2775.03 2206.22 2239.89 1990.66 1759.41 1238.63 0 0 0 0 0 0 0 0 0 0 0 0 0 0 0 0 0 0 0 0 0 0 0 0 0 0 0 0 0 0 0 0 0 0 0 0 0 0 0 0 0 0 0 0 0 0 0 0 0 0 0 0 0 0 0 0 0 0 0 0 0 0 0 0 0 0 0 0 0 0 0 0 0 0 0 0 0 0 0 0 0 0 0 0 0 0 0 0 0 0 0 0 0 0 0 0 0 0 0 0 0 0 0 0 0 0 0 0 0 0 0 0 0 0 0 0 0 0 0 0 0 0 0 0 0 0 0 0 0 0 2573.68 2831.08 2963.13 3000.22 3012.23 3069.09 3214.2 3271.74 3251.51 3350.13 3310.86 3364.37 3370.93 3350.6 3352.54 3353.81 3338.6 3313.74 3304.21 3384.19 3362.01 3414.56 3460.76 3462.98 3527.04 3494.06 3704.93 3670.08 3432.51 3371.67 2431.19 2023.29 1224.23 705.958 0 0 0 0 0 0 0 0 0 0 0 0 0 0 0 0 0 0 0 0 0 0 0 0 2573.88 2555.85 2448.79 2523.1 2534.27 2614.63 2661.42 2559.2 2618.18 2681.67 2612.48 2418.88 2307.92 0 0 0 0 1844.44 1242.7 0 0 0 0 0 0 0 0 0 0 0 0 0 0 0 0 0 0 0 0 0 0 0 0 0 0 0 0 0 0 0 0 0 0 2544.18 2445.72 2597.07 2953.84 3004.3 3057.13 2932.01 2987.02 3049.57 3089.15 3057.18 3076.13 3098.11 3169.51 3204.81 3243.9 3264.67 3190.24 3225.82 3810.53 3919.94 3145.86 2991.71 2913.42 2829.89 2615.53 2509.96 2054.96 1536.89 1285.58 1414.46 1275.16 865.773 0 0 0 0 0 0 0 0 0 0 0 0
0 0 0 0 0 0 0 0 0 0 0 0 0 0 0 0 0 0 0 0 0 0 0 0 0 0 0 0 0 0 0 0 0 0 0 0 0 0 0 0 0 0 0 0 0 0 0 0 0 0 0 0 0 0 0 0 0 0 0 0 0 0 0 0 0 0 0 0 0 0 0 0 0 0 0 0 0 0 0 0 0 0 0 0 0 0 0 0 0 0 0 0 0 0 0 0 0 0 0 0 0 0 0 0 0 0 0 0 0 0 0 0 0 0 0 0 0 0 0 0 0 0 0 0 0 0 0 0 0 0 0 0 0 0 0 0 0 0 0 0 0 0 0 0 0 0 0 0 0 0 0 0 0 0 0 0 0 0 0 0 0 0 0 0 0 0 0 0 0 0 0 0 0 0 0 0 0 0 0 0 0 0 0 0 0 0 0 0 0 0 0 0 0 0 0 2494.25 2567.23 2687.51 3154.14 3320.62 3223.96 3473.23 3372.15 3307.79 3249.31 3290.47 3251.57 3243.28 3209.34 3237.27 3185.76 3169.21 3236.89 3222.35 3207.07 3089.32 3017.21 3022.76 2858.82 2667.26 2489.55 2149.94 2279.45 2043.04 2022.55 0 0 0 0 0 0 0 0 0 0 0 0 0 0 0 0 0 0 0 0 0 0 0 0 0 0 0 0 0 0 0 0 0 0 0 0 0 0 0 0 0 0 0 0 0 0 0 0 0 0 0 0 0 0 0 0 0 0 0 0 0 0 0 0 0 0 0 0 0 0 0 0 0 0 0 0 0 0 0 0 0 0 0 0 0 0 0 0 0 0 0 0 0 0 0 0 0 0 0 0 0 0 0 0 0 0 0 0 0 0 0 0 0 0 0 0 0 0 0 0 0 0 0 0 0 0 0 0 0 0 0 0 0 3166.88 3210.2 3187.33 3263.34 3234.21 3290.73 3266.45 3355.49 3287.31 3351.67 3386.17 3350 3362.82 3398.86 3375.88 3400.44 3378.33 3458.91 3431.39 3458.05 3536.63 3512.42 3542.3 3495.51 3489.12 3373.57 3252.39 3338.93 2443.79 0 0 0 0 0 0 0 0 0 0 0 0 0 0 0 0 0 0 0 0 0 0 0 0 0 2714.2 2798.12 2708.16 2699.83 2706.93 2783.64 2728.5 2818.33 2792.3 2784.01 2750.46 2851.58 2876.21 2721.42 2613.17 2601.18 2567.66 2322.65 0 2479.14 2316.3 0 0 0 0 0 0 0 0 0 0 0 0 0 0 0 0 0 0 0 0 0 0 0 0 0 0 0 0 0 0 0 0 0 0 2265.47 2438.78 2527.81 2919.4 2940.43 3040.67 2951.76 3026.03 3021.07 3089.1 3056.18 3120.23 3071 3183.64 3197.23 3217.34 3242.09 3218.7 3226 3275.31 3199 3117.91 2917.48 2810.31 2735.49 2528.04 2312.28 1896.58 1444.84 1158.01 1245.03 1211.37 805.817 0 0 0 0 0 0 0 0 0 0 0 0
0 0 0 0 0 0 0 0 0 0 0 0 0 0 0 0 0 0 0 0 0 0 0 0 0 0 0 0 0 0 0 0 0 0 0 0 0 0 0 0 0 0 0 0 0 0 0 0 0 0 0 0 0 0 0 0 0 0 0 0 0 0 0 0 0 0 0 0 0 0 0 0 0 0 0 0 0 0 0 0 0 0 0 0 0 0 0 0 0 0 0 0 0 0 0 0 0 0 0 0 0 0 0 0 0 0 0 0 0 0 0 0 0 0 0 0 0 0 0 0 0 0 0 0 0 0 0 0 0 0 0 0 0 0 0 0 0 0 0 0 0 0 0 0 0 0 0 0 0 0 0 0 0 0 0 0 0 0 0 0 0 0 0 0 0 0 0 0 0 0 0 0 0 0 0 0 0 0 0 0 0 0 0 0 0 0 0 0 0 0 0 0 0 0 0 0 2302 2301.49 2830.08 3116.81 3091.26 3320.56 3238.14 3227.86 3200.04 3244.66 3518.61 3758.37 3690.83 3636.67 3642.27 3704.76 3200.34 3154.43 3154.97 3054.84 3021.18 2991.5 2846.74 2598.64 2389.91 2129.69 2379.26 0 0 0 0 0 0 0 0 0 0 0 0 0 0 0 0 0 0 0 0 0 0 0 0 0 0 0 0 0 0 0 0 0 0 0 0 0 0 0 0 0 0 0 0 0 0 0 0 0 0 0 0 0 0 0 0 0 0 0 0 0 0 0 0 0 0 0 0 0 0 0 0 0 0 0 0 0 0 0 0 0 0 0 0 0 0 0 0 0 0 0 0 0 0 0 0 0 0 0 0 0 0 0 0 0 0 0 0 0 0 0 0 0 0 0 0 0 0 0 0 0 0 0 0 0 0 0 0 0 0 0 0 0 0 0 3125.99 3139.85 3154.02 3335.68 3332.36 3370.05 3343.85 3478.27 3366.94 3363.49 3385.01 3706.15 3334.68 3374.86 3352.87 3361 3344.59 3415.46 3457.05 3492.17 3556.27 3564.58 3593.05 3586.22 3651.78 3468.06 3410.46 3345.25 2585.66 2182.15 0 0 0 0 0 0 0 0 0 0 0 0 0 0 0 0 0 0 0 0 0 0 0 2809.04 2984.16 3023.52 2939.04 3012.34 2970.84 3030.45 2915.95 2993.26 2982.03 2867.51 2912.51 2966.11 2899.08 2846.11 2734.24 2794.63 2782.72 2751.91 2781.06 2769.3 2730.46 0 0 0 0 0 0 0 0 0 0 0 0 0 0 0 0 0 0 0 0 0 0 0 0 0 0 0 0 0 0 0 0 0 0 2069.53 2409.75 2465.16 2967.37 2992.03 3153.31 3013.64 3120.06 3116.87 3170.47 3128.61 3171.91 3097.48 3200.65 3203.95 3243.72 3241.46 3232.4 3266.39 3275.95 3220.99 3181.23 2976.64 2853.95 2872.23 2748.03 2533.42 2143.62 1758.38 1386.08 1626.54 1463.33 0 0 0 0 0 0 0 0 0 0 0 0 0
0 0 0 0 0 0 0 0 0 0 0 0 0 0 0 0 0 0 0 0 0 0 0 0 0 0 0 0 0 0 0 0 0 0 0 0 0 0 0 0 0 0 0 0 0 0 0 0 0 0 0 0 0 0 0 0 0 0 0 0 0 0 0 0 0 0 0 0 0 0 0 0 0 0 0 0 0 0 0 0 0 0 0 0 0 0 0 0 0 0 0 0 0 0 0 0 0 0 0 0 0 0 0 0 0 0 0 0 0 0 0 0 0 0 0 0 0 0 0 0 0 0 0 0 0 0 0 0 0 0 0 0 0 0 0 0 0 0 0 0 0 0 0 0 0 0 0 0 0 0 0 0 0 0 0 0 0 0 0 0 0 0 0 0 0 0 0 0 0 0 0 0 0 0 0 0 0 0 0 0 0 0 0 0 0 0 0 0 0 0 0 0 0 0 0 0 2367.82 2393.28 2786.27 3114.15 3152.42 3354.15 3223.52 3229.85 3149.22 3194.68 3571.94 3821.98 3748.13 3689.77 3702.64 3755.43 3257.38 3255.93 3269.57 3159.84 3086.25 2970.89 2814.08 2558.53 2308.87 2058.66 2192.44 1958.07 2146.33 0 0 0 0 0 0 0 0 0 0 0 0 0 0 0 0 0 0 0 0 0 0 0 0 0 0 0 0 0 0 0 0 0 0 0 0 0 0 0 0 0 0 0 0 0 0 0 0 0 0 0 0 0 0 0 0 0 0 0 0 0 0 0 0 0 0 0 0 0 0 0 0 0 0 0 0 0 0 0 0 0 0 0 0 0 0 0 0 0 0 0 0 0 0 0 0 0 0 0 0 0 0 0 0 0 0 0 0 0 0 0 0 0 0 0 0 0 0 0 0 0 0 0 0 0 0 0 0 0 0 0 0 0 3048.57 3139.62 3109.65 3316.36 3353.68 3384.12 3372.62 3482.96 3355.42 3349.73 3717.57 3318.98 3318.72 3350 3316.1 3296.81 3270.72 3288.15 3312.89 3333.89 3389.86 3318.13 3300.76 3277.62 3337.14 3103.49 3240.27 3101.66 0 1905.04 0 0 0 0 0 0 0 0 0 0 0 0 0 0 0 0 0 0 0 0 0 3082.57 2832.08 2831.32 2931.49 2941.93 2902.29 3004.57 2995.61 3050.62 2952.33 3078.21 3062.03 2979.91 2974.79 2993.53 2907.52 2877.2 2764.97 2787.57 2669.25 2570.29 2510.38 2511.17 2424.09 1989.43 0 0 0 0 0 0 0 0 0 0 0 0 0 0 0 0 0 0 0 0 0 0 0 0 0 0 0 0 0 0 0 0 0 2467.33 2721.6 2780.69 3284.16 3109.42 3261.18 3074.38 3198.02 3182.92 3190.36 3094.79 3145.92 3024.99 3140.85 3144.56 3189.09 3165.44 3170.35 3230.72 3275.82 3229.92 3259.66 3122.85 2997.97 2995.24 2854.63 2526.82 2169.06 1645.41 1469.98 1385.38 1299.87 866.345 0 0 0 0 0 0 0 0 0 0 0 0
0 0 0 0 0 0 0 0 0 0 0 0 0 0 0 0 0 0 0 0 0 0 0 0 0 0 0 0 0 0 0 0 0 0 0 0 0 0 0 0 0 0 0 0 0 0 0 0 0 0 0 0 0 0 0 0 0 0 0 0 0 0 0 0 0 0 0 0 0 0 0 0 0 0 0 0 0 0 0 0 0 0 0 0 0 0 0 0 0 0 0 0 0 0 0 0 0 0 0 0 0 0 0 0 0 0 0 0 0 0 0 0 0 0 0 0 0 0 0 0 0 0 0 0 0 0 0 0 0 0 0 0 0 0 0 0 0 0 0 0 0 0 0 0 0 0 0 0 0 0 0 0 0 0 0 0 0 0 0 0 0 0 0 0 0 0 0 0 0 0 0 0 0 0 0 0 0 0 0 0 0 0 0 0 0 0 0 0 0 0 0 0 0 0 0 0 2462.52 2583.91 2827.98 3069.32 3129.43 3266.32 3169.87 3217.03 3109.94 3166.64 3173.41 3209.34 3221.36 3254.41 3227.43 3248.99 3226 3266.58 3276.78 3192.67 3196.93 3126.57 2900.68 2676.57 2287.25 2043.97 2012.73 1799.57 0 0 0 0 0 0 0 0 0 0 0 0 0 0 0 0 0 0 0 0 0 0 0 0 0 0 0 0 0 0 0 0 0 0 0 0 0 0 0 0 0 0 0 0 0 0 0 0 0 0 0 0 0 0 0 0 0 0 0 0 0 0 0 0 0 0 0 0 0 0 0 0 0 0 0 0 0 0 0 0 0 0 0 0 0 0 0 0 0 0 0 0 0 0 0 0 0 0 0 0 0 0 0 0 0 0 0 0 0 0 0 0 0 0 0 0 0 0 0 0 0 0 0 0 0 0 0 0 0 0 0 0 0 0 0 2850.17 2850.95 3112.88 3219.44 3290.92 3298.56 3440.75 3371.61 3345.92 3826.69 3322.93 3289.38 3354.42 3360.33 3358.24 3321.54 3306.29 3340.26 3343.12 3439.2 3422.99 3371.94 3273.46 3360.73 3153.07 3365.86 3247.86 0 0 0 0 0 0 0 0 0 0 0 0 0 0 0 0 0 0 0 1451.98 1989.39 2465.59 2770.58 3067.24 2976.48 3059.86 3150.11 3234.46 3213.4 3253.28 3235.15 3217.03 3130.65 3191.82 3092.06 3052.68 3003.44 2962.71 2902.29 2852.79 2758.47 2765.29 2666.49 2640.02 2498.9 2548.01 2585.34 2150.49 0 0 0 0 0 0 0 0 0 0 0 0 0 0 0 0 0 0 0 0 0 0 0 0 0 0 0 0 0 0 0 0 0 2560.02 2696.62 2877.69 3262.7 3006.51 3126.75 2971.58 3045.31 2983.57 2988.99 2903.69 2955.97 2909.08 3035.94 3035.33 3080.36 3098.79 3182.01 3252.83 3311.12 3280.31 3309.95 3131.41 3120.76 3100.74 2864.23 2485.9 2354.42 1751.46 1548.11 1330.59 1246.49 723.352 0 0 0 0 0 0 0 0 0 0 0 0
0 0 0 0 0 0 0 0 0 0 0 0 0 0 0 0 0 0 0 0 0 0 0 0 0 0 0 0 0 0 0 0 0 0 0 0 0 0 0 0 0 0 0 0 0 0 0 0 0 0 0 0 0 0 0 0 0 0 0 0 0 0 0 0 0 0 0 0 0 0 0 0 0 0 0 0 0 0 0 0 0 0 0 0 0 0 0 0 0 0 0 0 0 0 0 0 0 0 0 0 0 0 0 0 0 0 0 0 0 0 0 0 0 0 0 0 0 0 0 0 0 0 0 0 0 0 0 0 0 0 0 0 0 0 0 0 0 0 0 0 0 0 0 0 0 0 0 0 0 0 0 0 0 0 0 0 0 0 0 0 0 0 0 0 0 0 0 0 0 0 0 0 0 0 0 0 0 0 0 0 0 0 0 0 0 0 0 0 0 0 0 0 0 0 0 0 2498.71 2501.69 2697.53 2998.34 3143.15 3275.7 3169.03 3231.47 3112.48 3159.13 3171.61 3246.85 3226.5 3266.13 3246.35 3281.53 3271.99 3338.2 3386.3 3340.46 3287.7 3254.1 3046.58 2740.13 2357.73 2101.81 2086.02 0 0 0 0 0 0 0 0 0 0 0 0 0 0 0 0 0 0 0 0 0 0 0 0 0 0 0 0 0 0 0 0 0 0 0 0 0 0 0 0 0 0 0 0 0 0 0 0 0 0 0 0 0 0 0 0 0 0 0 0 0 0 0 0 0 0 0 0 0 0 0 0 0 0 0 0 0 0 0 0 0 0 0 0 0 0 0 0 0 0 0 0 0 0 0 0 0 0 0 0 0 0 0 0 0 0 0 0 0 0 0 0 0 0 0 0 0 0 0 0 0 0 0 0 0 0 0 0 0 0 0 0 0 0 0 2452.69 2777.56 2960.67 3358.98 3444.28 3502.15 3498.36 3642.43 3482.74 3948.82 3969.37 3771.72 3681.43 3396.79 3373.44 3356.7 3297.39 3297.26 3345.05 3393.56 3495.37 3440.61 3330.78 3309.42 3414.28 3266.7 3499.31 3522.74 0 0 0 0 0 0 0 0 0 0 0 0 0 0 0 0 0 0 0 1583.88 2064.59 2615.73 2907.01 3152.36 3042.99 3189.15 4133.26 3759.47 3375.88 3360.66 3266.96 3248.36 3185.7 3241.46 3119.59 3086.2 3054.95 2988.46 2941.77 2966.53 2896.52 2865.26 2736.51 2777.79 2675.55 2821.13 2902.99 2647.47 0 0 0 0 0 0 0 0 0 0 0 0 0 0 0 0 0 0 0 0 0 0 0 0 0 0 0 0 0 0 0 0 0 0 2290.65 2514.97 2833.57 2718.47 2856.04 2710.08 2833.23 2754.66 2817.15 2797.66 2873.55 2808.38 2940.95 2940.64 2998.13 3039.62 3149.28 3219.69 3273.27 3247.8 3333.95 3120.99 3127.39 3127.39 2865.36 2361.42 2050.69 1581 1376.82 1145.73 0 0 0 0 0 0 0 0 0 0 0 0 0 0
0 0 0 0 0 0 0 0 0 0 0 0 0 0 0 0 0 0 0 0 0 0 0 0 0 0 0 0 0 0 0 0 0 0 0 0 0 0 0 0 0 0 0 0 0 0 0 0 0 0 0 0 0 0 0 0 0 0 0 0 0 0 0 0 0 0 0 0 0 0 0 0 0 0 0 0 0 0 0 0 0 0 0 0 0 0 0 0 0 0 0 0 0 0 0 0 0 0 0 0 0 0 0 0 0 0 0 0 0 0 0 0 0 0 0 0 0 0 0 0 0 0 0 0 0 0 0 0 0 0 0 0 0 0 0 0 0 0 0 0 0 0 0 0 0 0 0 0 0 0 0 0 0 0 0 0 0 0 0 0 0 0 0 0 0 0 0 0 0 0 0 0 0 0 0 0 0 0 0 0 0 0 0 0 0 0 0 0 0 0 0 0 0 0 0 0 2793.33 2651.7 2851.09 3089.15 3291.83 3387.47 3315.05 3382.28 3241.52 3269.25 3276.27 3847.4 3704.84 3310.34 3636.19 3706.4 3211.55 3290.54 3287.64 3212.66 3153.43 3081.32 2882.09 2598.28 2311.29 2330.06 2170.26 0 0 0 0 0 0 0 0 0 0 0 0 0 0 0 0 0 0 0 0 0 0 0 0 0 0 0 0 0 0 0 0 0 0 0 0 0 0 0 0 0 0 0 0 0 0 0 0 0 0 0 0 0 0 0 0 0 0 0 0 0 0 0 0 0 0 0 0 0 0 0 0 0 0 0 0 0 0 0 0 0 0 0 0 0 0 0 0 0 0 0 0 0 0 0 0 0 0 0 0 0 0 0 0 0 0 0 0 0 0 0 0 0 0 0 0 0 0 0 0 0 0 0 0 0 0 0 0 0 0 0 0 0 0 0 2143.86 2532.7 2735.93 3131.88 3348.19 3518.61 3539.32 3701.9 4085.55 4073.05 4108.46 3922.14 3850.14 3372.22 3306.68 3308.77 3236.15 3212.6 3264.67 3298.82 3447.68 3446.69 3449.59 3527.63 3575.52 3459.98 3770.28 3707.46 2895.52 1482.83 0 0 0 0 0 0 0 0 0 0 0 0 0 0 0 0 1549.92 1484.55 1959.97 2449.82 2772.6 3032.43 2975.9 3097.19 3206.52 3296.68 3333.62 3269.38 3202.42 3175.15 3167.18 3153.13 3078.72 3077.93 3056.18 2964.65 2998.39 3028.65 2991.66 2921.49 2961.61 3045.42 2830.89 2802.28 2916.11 2413.42 0 0 0 0 0 0 0 0 0 0 0 0 0 0 0 0 0 0 0 0 0 0 0 0 0 0 0 0 0 0 0 0 0 2216.63 2320.62 2579.18 2857.45 2602.87 2723.06 2545.14 2698.1 2619.57 2692.47 2663.87 2737.58 2756.02 2956.55 2922.76 3028.43 3034.4 3161.03 3253.02 3311.71 3304.15 3325.63 3118.72 3244.59 3132.23 3031.39 2709.38 2455.81 1984.42 1620.07 1220.14 0 0 0 0 0 0 0 0 0 0 0 0 0 0
0 0 0 0 0 0 0 0 0 0 0 0 0 0 0 0 0 0 0 0 0 0 0 0 0 0 0 0 0 0 0 0 0 0 0 0 0 0 0 0 0 0 0 0 0 0 0 0 0 0 0 0 0 0 0 0 0 0 0 0 0 0 0 0 0 0 0 0 0 0 0 0 0 0 0 0 0 0 0 0 0 0 0 0 0 0 0 0 0 0 0 0 0 0 0 0 0 0 0 0 0 0 0 0 0 0 0 0 0 0 0 0 0 0 0 0 0 0 0 0 0 0 0 0 0 0 0 0 0 0 0 0 0 0 0 0 0 0 0 0 0 0 0 0 0 0 0 0 0 0 0 0 0 0 0 0 0 0 0 0 0 0 0 0 0 0 0 0 0 0 0 0 0 0 0 0 0 0 0 0 0 0 0 0 0 0 0 0 0 0 0 0 0 0 0 0 2801.82 2609.27 2778.94 3074.66 3245.91 3266.13 3215.55 3249.37 3129.66 3146.21 3201.63 3895.91 3800.77 3665.35 3721.03 3660.87 3108.67 3198.09 3197.66 3114.73 3104.93 3045.25 2851.29 2702.79 2463.85 2638.69 0 0 0 0 0 0 0 0 0 0 0 0 0 0 0 0 0 0 0 0 0 0 0 0 0 0 0 0 0 0 0 0 0 0 0 0 0 0 0 0 0 0 0 0 0 0 0 0 0 0 0 0 0 0 0 0 0 0 0 0 0 0 0 0 0 0 0 0 0 0 0 0 0 0 0 0 0 0 0 0 0 0 0 0 0 0 0 0 0 0 0 0 0 0 0 0 0 0 0 0 0 0 0 0 0 0 0 0 0 0 0 0 0 0 0 0 0 0 0 0 0 0 0 0 0 0 0 0 0 0 0 0 0 0 0 0 2628.48 2867.27 2927.86 3259.09 3329.19 3476.11 3587.45 3706.07 3517.43 4125.84 4221.45 4074.44 4002.32 3835.09 3410.46 3387.26 3299.27 3308.18 3380.23 3368.02 3468.56 3389.11 3295.25 3314.13 3340.46 3265.11 3407.28 3096.62 2392.22 1016.27 0 0 0 0 0 0 0 0 0 0 0 0 0 0 0 0 0 1288.96 1724.03 2167.35 2536.14 2870.02 2902.59 3101.2 3289.25 3394.87 3463.98 3420.76 3375.34 3367.14 3316.36 3272.89 3209.03 3159.13 3128.03 3025.97 3029.69 3001.77 2985.91 2953.37 2977.48 3022.65 2885.66 2820.61 3140.97 0 2931.7 2642.6 0 0 0 0 0 0 0 0 0 0 0 0 0 0 0 0 0 0 0 0 0 0 0 0 0 0 0 0 0 0 0 2649.06 2638.77 2902.03 0 2812.38 2939.56 2736.91 2860.28 2810.92 2854.39 2820.18 2795.65 2787.01 2978.86 2908.12 2963.7 2975.37 2999.73 3055.84 3142.44 3216.97 3238.02 3034.62 3196.2 3137.91 3016.51 2923.12 2775.99 2138.84 1450.24 1036.21 0 0 0 0 0 0 0 0 0 0 0 0 0 0
0 0 0 0 0 0 0 0 0 0 0 0 0 0 0 0 0 0 0 0 0 0 0 0 0 0 0 0 0 0 0 0 0 0 0 0 0 0 0 0 0 0 0 0 0 0 0 0 0 0 0 0 0 0 0 0 0 0 0 0 0 0 0 0 0 0 0 0 0 0 0 0 0 0 0 0 0 0 0 0 0 0 0 0 0 0 0 0 0 0 0 0 0 0 0 0 0 0 0 0 0 0 0 0 0 0 0 0 0 0 0 0 0 0 0 0 0 0 0 0 0 0 0 0 0 0 0 0 0 0 0 0 0 0 0 0 0 0 0 0 0 0 0 0 0 0 0 0 0 0 0 0 0 0 0 0 0 0 0 0 0 0 0 0 0 0 0 0 0 0 0 0 0 0 0 0 0 0 0 0 0 0 0 0 0 0 0 0 0 0 0 0 0 0 0 0 2452.58 2363.01 2555.81 2869.08 3046.19 3095.48 3051.12 3114.27 3026.96 3049.29 3115.94 3734.61 3165.5 3863.44 3256.24 3877.54 3058.41 3747.21 3795.18 3069.93 3104.53 3057.79 2801.39 2530.37 2212.1 2421.57 0 0 0 0 0 0 0 0 0 0 0 0 0 0 0 0 0 0 0 0 0 0 0 0 0 0 0 0 0 0 0 0 0 0 0 0 0 0 0 0 0 0 0 0 0 0 0 0 0 0 0 0 0 0 0 0 0 0 0 0 0 0 0 0 0 0 0 0 0 0 0 0 0 0 0 0 0 0 0 0 0 0 0 0 0 0 0 0 0 0 0 0 0 0 0 0 0 0 0 0 0 0 0 0 0 0 0 0 0 0 0 0 0 0 0 0 0 0 0 0 0 0 0 0 0 0 0 0 0 0 0 0 0 0 0 0 2212.56 2606.11 2745.78 3132.58 3210.02 3353.41 3601.46 5020.24 4141.62 3434.41 3501.64 3429.57 3865.48 3422.85 3393.5 3291.25 3215.49 3191.52 3270.4 3258.14 3324.24 3295.32 3162.16 3088.81 3174.43 3089.04 0 0 0 826.534 0 0 0 0 0 0 0 0 0 0 0 0 0 0 0 0 0 1541.32 1902.99 2473.77 2784.84 2997.05 3044.09 3197.72 3361.34 3431.6 3443.93 3405.2 3347.12 3323.32 3352.41 3302.06 3251.57 3227.74 3184.91 3116.47 3127.33 3089.44 3102.52 3009.91 2998.34 3021.94 2806.31 2735.75 2995.61 2926.53 2678.58 2574.39 1869.57 1039.27 0 0 0 0 0 0 0 0 0 0 0 0 0 0 0 0 0 0 0 0 0 0 0 0 0 0 0 0 0 0 0 0 0 2612.31 2764.47 2571.04 2711.18 2674.91 2769.85 2797.75 2772.42 2774.02 3019.82 2956.76 2981.5 2961.51 3007.26 3057.46 3089.72 3193.16 3221.17 2980.29 3078.27 3123.31 3067.75 2920.73 2729.57 2428.44 1650.36 0 0 0 0 0 0 0 0 0 0 0 0 0 0 0
0 0 0 0 0 0 0 0 0 0 0 0 0 0 0 0 0 0 0 0 0 0 0 0 0 0 0 0 0 0 0 0 0 0 0 0 0 0 0 0 0 0 0 0 0 0 0 0 0 0 0 0 0 0 0 0 0 0 0 0 0 0 0 0 0 0 0 0 0 0 0 0 0 0 0 0 0 0 0 0 0 0 0 0 0 0 0 0 0 0 0 0 0 0 0 0 0 0 0 0 0 0 0 0 0 0 0 0 0 0 0 0 0 0 0 0 0 0 0 0 0 0 0 0 0 0 0 0 0 0 0 0 0 0 0 0 0 0 0 0 0 0 0 0 0 0 0 0 0 0 0 0 0 0 0 0 0 0 0 0 0 0 0 0 0 0 0 0 0 0 0 0 0 0 0 0 0 0 0 0 0 0 0 0 0 0 0 0 0 0 0 0 0 0 0 0 2636.62 2446.18 2533.35 2790.4 3065.34 3152.6 3142.56 3195.77 3109.42 3140.32 3258.52 4067.82 3978.69 4011.22 4052.1 3178.94 3885.45 3207.87 3150.29 3046.8 3093.2 2989.74 2797.42 2412.73 2178.24 0 0 1306.74 0 0 0 0 0 0 0 0 0 0 0 0 0 0 0 0 0 0 0 0 0 0 0 0 0 0 0 0 0 0 0 0 0 0 0 0 0 0 0 0 0 0 0 0 0 0 0 0 0 0 0 0 0 0 0 0 0 0 0 0 0 0 0 0 0 0 0 0 0 0 0 0 0 0 0 0 0 0 0 0 0 0 0 0 0 0 0 0 0 0 0 0 0 0 0 0 0 0 0 0 0 0 0 0 0 0 0 0 0 0 0 0 0 0 0 0 0 0 0 0 0 0 0 0 0 0 0 0 0 0 0 0 0 0 0 2568.72 2661.63 2999.14 3028.49 3201.87 3428.51 3594.98 3542.53 3423.69 3542.45 3460.19 3335.15 3426.55 3414.49 3325.49 3273.65 3129.84 3206.27 3078.61 3139.85 3205.23 3089.89 3016.02 3056.01 2907.92 3416.37 0 0 0 0 0 0 0 0 0 0 0 0 0 0 0 0 0 0 0 0 0 2108.12 2594.18 2968.84 3172.03 3135.33 3321.28 3419.78 3783.8 3876.2 3495.59 3439.97 3407.9 3406.03 3345.99 3292.73 3279.47 3223.21 3136.8 3127.79 3078.5 3093.2 3008.12 2993.15 3001.99 2828.26 2674.14 2888 2841.2 0 2101.83 1873.96 0 0 0 0 0 0 0 0 0 0 0 0 0 0 0 0 0 0 0 0 0 0 0 0 0 0 0 0 0 0 0 0 0 0 2796.07 2916.21 2876.66 2958.84 2927.2 2993.69 2985.22 2952.49 2956.86 3164.91 3064.89 3083.87 3048.74 3106.94 3162.82 3235.83 3277.62 3323.58 3219.44 3327.67 3266.77 3314 3196.26 2971.37 2677 2160.15 1614.16 1748.94 0 0 0 0 0 0 0 0 0 0 0 0 0
0 0 0 0 0 0 0 0 0 0 0 0 0 0 0 0 0 0 0 0 0 0 0 0 0 0 0 0 0 0 0 0 0 0 0 0 0 0 0 0 0 0 0 0 0 0 0 0 0 0 0 0 0 0 0 0 0 0 0 0 0 0 0 0 0 0 0 0 0 0 0 0 0 0 0 0 0 0 0 0 0 0 0 0 0 0 0 0 0 0 0 0 0 0 0 0 0 0 0 0 0 0 0 0 0 0 0 0 0 0 0 0 0 0 0 0 0 0 0 0 0 0 0 0 0 0 0 0 0 0 0 0 0 0 0 0 0 0 0 0 0 0 0 0 0 0 0 0 0 0 0 0 0 0 0 0 0 0 0 0 0 0 0 0 0 0 0 0 0 0 0 0 0 0 0 0 0 0 0 0 0 0 0 0 0 0 0 0 0 0 0 0 0 0 0 0 0 2425.11 2434.01 2751.23 3041.77 3116.41 3180.2 3281.33 3128.73 3135.1 3212.23 3256.56 3275.38 4019.39 3325.63 4015.35 4041.66 4051.61 3937.51 3205.91 3296.87 3944.08 3040.56 2712.23 2497.19 0 0 0 0 0 0 0 0 0 0 0 0 0 0 0 0 0 0 0 0 0 0 0 0 0 0 0 0 0 0 0 0 0 0 0 0 0 0 0 0 0 0 0 0 0 0 0 0 0 0 0 0 0 0 0 0 0 0 0 0 0 0 0 0 0 0 0 0 0 0 0 0 0 0 0 0 0 0 0 0 0 0 0 0 0 0 0 0 0 0 0 0 0 0 0 0 0 0 0 0 0 0 0 0 0 0 0 0 0 0 0 0 0 0 0 0 0 0 0 0 0 0 0 0 0 0 0 0 0 0 0 0 0 0 0 0 0 0 2430.52 0 3051.9 3203.95 3380.1 3520.01 3703.94 3681.51 3514.18 3589.98 3459.91 3299.01 3365.45 3357.97 3213.03 3156.04 2961.77 3103.21 2978.38 3063.15 3186.24 3071.4 3080.87 3512.12 3204.93 0 0 0 0 0 0 0 0 0 0 0 0 0 0 0 0 0 0 0 0 0 0 2325.32 2829.27 3163 3341.06 3327.14 3431.6 3480.29 3538.94 3942.79 3745.54 3642.11 3410.26 3393.77 3319.11 3289.12 3282.17 3225.13 3148.81 3125.52 3066.18 3076.01 3038.91 3067.18 3081.27 2875.92 2653.8 2767.57 2788.27 0 1450 997.389 0 0 0 0 0 0 0 0 0 0 0 0 0 0 0 0 0 0 0 0 0 0 0 0 0 0 0 0 0 0 0 0 0 3016.89 2638.65 2828.65 2877.65 2897.37 2869.62 3098.91 3138.5 2969.84 3167.77 3331.31 3243.78 3235.21 3223.96 3228.61 3248.55 3321.28 3450.73 3341.06 3217.71 3304.41 3273.97 3233.03 3215.68 2971.68 2629.63 2013.55 1587.66 1758.03 0 0 0 0 0 0 0 0 0 0 0 0 0
0 0 0 0 0 0 0 0 0 0 0 0 0 0 0 0 0 0 0 0 0 0 0 0 0 0 0 0 0 0 0 0 0 0 0 0 0 0 0 0 0 0 0 0 0 0 0 0 0 0 0 0 0 0 0 0 0 0 0 0 0 0 0 0 0 0 0 0 0 0 0 0 0 0 0 0 0 0 0 0 0 0 0 0 0 0 0 0 0 0 0 0 0 0 0 0 0 0 0 0 0 0 0 0 0 0 0 0 0 0 0 0 0 0 0 0 0 0 0 0 0 0 0 0 0 0 0 0 0 0 0 0 0 0 0 0 0 0 0 0 0 0 0 0 0 0 0 0 0 0 0 0 0 0 0 0 0 0 0 0 0 0 0 0 0 0 0 0 0 0 0 0 0 0 0 0 0 0 0 0 0 0 0 0 0 0 0 0 0 0 0 0 0 0 0 0 0 2538.98 2617.04 2902.64 3245.35 3321.08 3381.8 3375.81 3141.2 3166.52 3170.11 3165.09 3207.62 3172.81 4004.81 3725.49 3054.9 3296.03 3226.5 3251.01 3369.3 3271.67 3061.31 2640.35 2628.64 0 0 0 0 0 0 0 0 0 0 0 0 0 0 0 0 0 0 0 0 0 0 0 0 0 0 0 0 0 0 0 0 0 0 0 0 0 0 0 0 0 0 0 0 0 0 0 0 0 0 0 0 0 0 0 0 0 0 0 0 0 0 0 0 0 0 0 0 0 0 0 0 0 0 0 0 0 0 0 0 0 0 0 0 0 0 0 0 0 0 0 0 0 0 0 0 0 0 0 0 0 0 0 0 0 0 0 0 0 0 0 0 0 0 0 0 0 0 0 0 0 0 0 0 0 0 0 0 0 0 0 0 0 0 0 0 0 0 0 0 3101.54 3100.74 3351.67 3499.38 3457.34 3461.12 3286.35 3319.44 3245.47 3110.57 3231.66 3165.98 3014.29 2972.68 2773.75 2902.13 2820.94 2830.65 2959.99 2777.92 2838.26 3197.11 2983.78 0 0 0 0 0 0 0 0 0 0 0 0 0 0 0 0 0 0 0 0 0 2147.29 2280.5 2732.77 3040.61 3135.63 3179.12 3349.8 3361.94 3429.29 3851.11 3377.17 3338.66 3321.15 3340.59 3272.06 3232.22 3238.39 3158.83 3108.96 3110.86 3048.35 3043.92 3002.04 3016.94 2964.23 2729.08 2600.61 2603.52 2616.63 2086.98 1548.79 0 0 0 0 0 0 0 0 0 0 0 0 0 0 0 0 0 0 0 0 0 0 0 0 0 0 0 0 0 0 0 0 0 0 2672.44 2292.84 2493.11 2626.01 2661.75 2712.62 2956.86 3009.69 2838.12 3024.99 3274.42 3206.52 3127.97 3182.13 3165.62 3217.4 3300.64 3437.51 3376.29 3257.51 3336.21 3414.98 3357.5 3369.51 3153.9 2785.49 2226.63 1489.82 1424 928.91 0 0 0 0 0 0 0 0 0 0 0 0
0 0 0 0 0 0 0 0 0 0 0 0 0 0 0 0 0 0 0 0 0 0 0 0 0 0 0 0 0 0 0 0 0 0 0 0 0 0 0 0 0 0 0 0 0 0 0 0 0 0 0 0 0 0 0 0 0 0 0 0 0 0 0 0 0 0 0 0 0 0 0 0 0 0 0 0 0 0 0 0 0 0 0 0 0 0 0 0 0 0 0 0 0 0 0 0 0 0 0 0 0 0 0 0 0 0 0 0 0 0 0 0 0 0 0 0 0 0 0 0 0 0 0 0 0 0 0 0 0 0 0 0 0 0 0 0 0 0 0 0 0 0 0 0 0 0 0 0 0 0 0 0 0 0 0 0 0 0 0 0 0 0 0 0 0 0 0 0 0 0 0 0 0 0 0 0 0 0 0 0 0 0 0 0 0 0 0 0 0 0 0 0 0 0 0 0 0 2549.21 2640.97 2821.89 3155.32 3261.94 3358.51 3286.03 3144.5 3185.52 3173.83 3149.34 3174.91 3153.01 3099.42 2958.32 2942.65 3146.86 3021.61 3053.29 3191.15 3118.55 2850.51 0 0 0 0 0 0 0 0 0 0 0 0 0 0 0 0 0 0 0 0 0 0 0 0 0 0 0 0 0 0 0 0 0 0 0 0 0 0 0 0 0 0 0 0 0 0 0 0 0 0 0 0 0 0 0 0 0 0 0 0 0 0 0 0 0 0 0 0 0 0 0 0 0 0 0 0 0 0 0 0 0 0 0 0 0 0 0 0 0 0 0 0 0 0 0 0 0 0 0 0 0 0 0 0 0 0 0 0 0 0 0 0 0 0 0 0 0 0 0 0 0 0 0 0 0 0 0 0 0 0 0 0 0 0 0 0 0 0 0 0 0 0 0 2892.83 3193.76 3499.16 3502.81 3493.48 3391.78 3467.99 3368.42 3202.48 3362.01 3322.79 3171.85 3143.74 3130.83 3259.41 3109.25 3039.07 3352 3235.83 3350.06 0 0 0 0 0 0 0 0 0 0 0 0 0 0 0 0 0 0 0 0 0 0 0 2227.43 2406.7 3001.13 3305.45 3311.25 3371 3500.84 3468.78 3500.91 3933.82 3392.33 3361.61 3357.84 3382 3276.27 3230.54 3235.65 3183.82 3136.98 3176.53 3112.42 3087.67 3032.26 3091.49 3076.24 2932.36 2822.08 3058.24 3249.68 2841.15 1706.84 937.595 0 0 0 0 0 0 0 0 0 0 0 0 0 0 0 0 0 0 0 0 0 0 0 0 0 0 0 0 0 0 0 0 0 0 2029.26 2373.27 2487.41 2616.63 2703.4 3006.24 3094.05 2934.83 3050.62 3161.21 3076.41 3011.63 3049.73 3045.03 3039.84 3063.38 3187.7 4459.9 4296.36 4392.76 4378.09 3268.23 4239.26 3142.32 2933.85 2670.4 1853.38 1784.96 1226.36 0 0 0 0 0 0 0 0 0 0 0 0
0 0 0 0 0 0 0 0 0 0 0 0 0 0 0 0 0 0 0 0 0 0 0 0 0 0 0 0 0 0 0 0 0 0 0 0 0 0 0 0 0 0 0 0 0 0 0 0 0 0 0 0 0 0 0 0 0 0 0 0 0 0 0 0 0 0 0 0 0 0 0 0 0 0 0 0 0 0 0 0 0 0 0 0 0 0 0 0 0 0 0 0 0 0 0 0 0 0 0 0 0 0 0 0 0 0 0 0 0 0 0 0 0 0 0 0 0 0 0 0 0 0 0 0 0 0 0 0 0 0 0 0 0 0 0 0 0 0 0 0 0 0 0 0 0 0 0 0 0 0 0 0 0 0 0 0 0 0 0 0 0 0 0 0 0 0 0 0 0 0 0 0 0 0 0 0 0 0 0 0 0 0 0 0 0 0 0 0 0 0 0 0 0 0 0 0 0 2568.09 2626.17 2867.76 3090.57 3340.46 3412.68 3212.35 3139.79 3221.79 3271.93 3277.49 3261.31 3159.01 3013.26 2817.77 2781.56 2875.52 2720.63 2687.38 2611.42 2381.12 2176.99 0 0 2790.17 0 0 0 0 0 0 0 0 0 0 0 0 0 0 0 0 0 0 0 0 0 0 0 0 0 0 0 0 0 0 0 0 0 0 0 0 0 0 0 0 0 0 0 0 0 0 0 0 0 0 0 0 0 0 0 0 0 0 0 0 0 0 0 0 0 0 0 0 0 0 0 0 0 0 0 0 0 0 0 0 0 0 0 0 0 0 0 0 0 0 0 0 0 0 0 0 0 0 0 0 0 0 0 0 0 0 0 0 0 0 0 0 0 0 0 0 0 0 0 0 0 0 0 0 0 0 0 0 0 0 0 0 0 0 0 0 0 0 0 0 0 0 0 3300.76 3328.79 3238.39 3376.02 3286.15 3233.4 3371.27 3232.22 3108.9 3045.03 3081.49 3207.13 2996.36 2884.92 2845 2812.85 3219.63 0 0 0 0 0 0 0 0 0 0 0 0 0 0 0 0 0 0 0 0 0 0 0 0 0 3372.22 3644.09 3592.67 3521.26 3576.13 3484.55 3453.5 4044.87 3371.33 3318.65 3330.31 3596.29 3235.83 3484.48 3211.18 3197.11 3154.55 3182.74 3137.8 3069.2 3067.69 3143.97 3093.37 3067.91 2888.54 3117.16 3262.32 3167.36 2207.01 1068.22 0 0 0 0 0 0 0 0 0 0 0 0 0 0 0 0 0 0 0 0 0 0 0 0 0 0 0 0 0 0 0 0 0 0 2313.68 2559.78 2671.33 2835.96 2808.94 3076.86 3178.16 3003.55 3015.96 3105.1 3049.12 2974.26 2964.85 3009.42 3002.26 3012.44 3111.32 4391.61 3171.61 4396.33 4474.53 3172.69 4366.12 2991.87 2922.15 2749.92 2269 2021.41 1533.88 1273.66 0 0 0 0 0 0 0 0 0 0 0
0 0 0 0 0 0 0 0 0 0 0 0 0 0 0 0 0 0 0 0 0 0 0 0 0 0 0 0 0 0 0 0 0 0 0 0 0 0 0 0 0 0 0 0 0 0 0 0 0 0 0 0 0 0 0 0 0 0 0 0 0 0 0 0 0 0 0 0 0 0 0 0 0 0 0 0 0 0 0 0 0 0 0 0 0 0 0 0 0 0 0 0 0 0 0 0 0 0 0 0 0 0 0 0 0 0 0 0 0 0 0 0 0 0 0 0 0 0 0 0 0 0 0 0 0 0 0 0 0 0 0 0 0 0 0 0 0 0 0 0 0 0 0 0 0 0 0 0 0 0 0 0 0 0 0 0 0 0 0 0 0 0 0 0 0 0 0 0 0 0 0 0 0 0 0 0 0 0 0 0 0 0 0 0 0 0 0 0 0 0 0 0 0 0 0 0 0 0 0 2933.7 2942.91 3053.29 3226.44 2906.56 2868.35 3030.07 3023.46 2995.72 3054.95 3012.23 2855.51 2684.02 2650.78 2740.98 2381.43 2414.81 2319.15 0 0 0 0 2222.44 0 0 0 0 0 0 0 0 0 0 0 0 0 0 0 0 0 0 0 0 0 0 0 0 0 0 0 0 0 0 0 0 0 0 0 0 0 0 0 0 0 0 0 0 0 0 0 0 0 0 0 0 0 0 0 0 0 0 0 0 0 0 0 0 0 0 0 0 0 0 0 0 0 0 0 0 0 0 0 0 0 0 0 0 0 0 0 0 0 0 0 0 0 0 0 0 0 0 0 0 0 0 0 0 0 0 0 0 0 0 0 0 0 0 0 0 0 0 0 0 0 0 0 0 0 0 0 0 0 0 0 0 0 0 0 0 0 0 0 0 0 0 0 3110.05 3131.36 3184.97 3268.8 3177.43 3028.38 3210.39 3025.81 2933.8 2670.23 2702.83 2760.15 2543.68 2439.56 0 0 0 0 0 0 0 0 0 0 0 0 0 0 0 0 0 0 0 0 0 0 0 0 0 0 0 0 3100.63 3534.77 3443.36 3432.16 3523.11 3428.23 3386.1 4119.05 3857.75 3811.74 3651.23 3671.2 3223.71 3544.1 3197.11 3190.48 3153.72 3185.58 3119.59 3043.76 3070.1 3148.45 3125.7 3116.58 2842.69 2991.71 3089.44 5465.02 1953.37 1059.15 0 0 0 0 0 0 0 0 0 0 0 0 0 0 0 0 0 0 0 0 0 0 0 0 0 0 0 0 0 0 0 0 0 2323.93 2282.83 2465.74 2713.67 2924.65 2870.06 3072.07 3058.3 2943.84 3085.06 3085.06 3055.51 3006.02 2985.7 3059.24 3046.02 3089.49 3157.22 3158.59 4289.55 3439.62 4437.96 3947.42 4302.53 3951.61 3068.36 3035.77 2600.17 2361.52 1838.21 0 0 704.068 0 0 0 0 0 0 0 0 0
0 0 0 0 0 0 0 0 0 0 0 0 0 0 0 0 0 0 0 0 0 0 0 0 0 0 0 0 0 0 0 0 0 0 0 0 0 0 0 0 0 0 0 0 0 0 0 0 0 0 0 0 0 0 0 0 0 0 0 0 0 0 0 0 0 0 0 0 0 0 0 0 0 0 0 0 0 0 0 0 0 0 0 0 0 0 0 0 0 0 0 0 0 0 0 0 0 0 0 0 0 0 0 0 0 0 0 0 0 0 0 0 0 0 0 0 0 0 0 0 0 0 0 0 0 0 0 0 0 0 0 0 0 0 0 0 0 0 0 0 0 0 0 0 0 0 0 0 0 0 0 0 0 0 0 0 0 0 0 0 0 0 0 0 0 0 0 0 0 0 0 0 0 0 0 0 0 0 0 0 0 0 0 0 0 0 0 0 0 0 0 0 0 0 0 0 0 0 0 0 2301.84 2423.78 2563.46 2457.47 2492.22 2835.96 2725.36 2711.57 2916.06 2968.42 2869.67 2698.14 2641.35 2669.72 2299.79 2394.99 2320.69 0 0 0 0 0 0 0 0 0 0 0 0 0 0 0 0 0 0 0 0 0 0 0 0 0 0 0 0 0 0 0 0 0 0 0 0 0 0 0 0 0 0 0 0 0 0 0 0 0 0 0 0 0 0 0 0 0 0 0 0 0 0 0 0 0 0 0 0 0 0 0 0 0 0 0 0 0 0 0 0 0 0 0 0 0 0 0 0 0 0 0 0 0 0 0 0 0 0 0 0 0 0 0 0 0 0 0 0 0 0 0 0 0 0 0 0 0 0 0 0 0 0 0 0 0 0 0 0 0 0 0 0 0 0 0 0 0 0 0 0 0 0 0 0 0 0 0 0 2890.73 2860.08 3071.06 3116.93 3047.02 2939.15 3251.07 3084.72 2994.17 2575.5 2692.73 2514.59 0 0 0 0 0 0 0 0 0 0 0 0 0 0 0 0 0 0 0 0 0 0 0 0 0 0 0 0 0 0 3368.15 3664.47 3529.04 3508.01 3692.04 3554.01 4054.65 4258.19 4071.37 3986.73 3896.91 3817.72 3755.93 3703.45 3902.44 3248.36 3208.67 3161.15 3124.82 3022.32 3089.84 3017.38 3008.02 3056.79 2950.88 3135.98 3411.92 3005.48 0 0 0 0 0 0 0 0 0 0 0 0 0 0 0 0 0 0 0 0 0 0 0 0 0 0 0 0 0 0 0 0 0 0 0 0 0 2628.97 2951.97 3038.19 3031.44 3208.36 3191.09 3063.1 3158 3113.75 3098.11 3029.63 3010.01 3099.83 3081.83 3115.77 3193.64 3210.45 4227.4 4359.54 4408.8 4180.11 4049.56 3188.97 3075.45 2940.43 2610.32 2327.03 2036.23 1600.34 922.648 773.272 0 0 0 0 0 0 0 0 0
0 0 0 0 0 0 0 0 0 0 0 0 0 0 0 0 0 0 0 0 0 0 0 0 0 0 0 0 0 0 0 0 0 0 0 0 0 0 0 0 0 0 0 0 0 0 0 0 0 0 0 0 0 0 0 0 0 0 0 0 0 0 0 0 0 0 0 0 0 0 0 0 0 0 0 0 0 0 0 0 0 0 0 0 0 0 0 0 0 0 0 0 0 0 0 0 0 0 0 0 0 0 0 0 0 0 0 0 0 0 0 0 0 0 0 0 0 0 0 0 0 0 0 0 0 0 0 0 0 0 0 0 0 0 0 0 0 0 0 0 0 0 0 0 0 0 0 0 0 0 0 0 0 0 0 0 0 0 0 0 0 0 0 0 0 0 0 0 0 0 0 0 0 0 0 0 0 0 0 0 0 0 0 0 0 0 0 0 0 0 0 0 0 0 0 0 0 0 0 0 0 0 0 0 2283.95 2734.46 2381.53 2410.99 2563.77 2728.64 2773.75 2646.05 2582.2 0 0 0 0 0 0 0 0 0 0 0 0 0 0 0 0 0 0 0 0 0 0 0 0 0 0 0 0 0 0 0 0 0 0 0 0 0 0 0 0 0 0 0 0 0 0 0 0 0 0 0 0 0 0 0 0 0 0 0 0 0 0 0 0 0 0 0 0 0 0 0 0 0 0 0 0 0 0 0 0 0 0 0 0 0 0 0 0 0 0 0 0 0 0 0 0 0 0 0 0 0 0 0 0 0 0 0 0 0 0 0 0 0 0 0 0 0 0 0 0 0 0 0 0 0 0 0 0 0 0 0 0 0 0 0 0 0 0 0 0 0 0 0 0 0 0 0 0 0 0 0 0 2027.05 2205.9 2837.69 0 2717.98 2513.76 2961.09 2536.91 2632.52 2057.63 2256.88 0 0 0 0 0 0 0 0 0 0 0 0 0 0 0 0 0 0 0 0 0 0 0 0 0 0 0 0 0 0 0 3842.38 3837.19 3573.62 3569.59 3716.25 3529.04 3986.82 4141.42 3965.15 3876.65 3919.48 3870.92 3830.97 3801.12 3847.31 3202.6 3764.95 3746.46 3168.61 3083.65 3143.79 3112.88 3061.64 3085.74 3021.34 3093.71 3224.89 0 0 0 0 0 0 0 0 0 0 0 0 0 0 0 0 0 0 0 0 0 0 0 0 0 0 0 0 0 0 0 0 0 0 0 0 0 0 2763.28 3046.08 3171.79 2974.32 3193.64 3237.64 3182.25 3220.86 3181.17 3179.96 3103.04 3081.66 3239.89 3232.4 3224.58 3276.59 4082.67 4162.28 4222.3 4314.14 4085.25 4047.21 3097.54 3011.09 2902.99 2636.53 2534.11 2357.37 1813.91 1573.19 1417.41 2031.81 0 0 0 0 0 0 0 0
0 0 0 0 0 0 0 0 0 0 0 0 0 0 0 0 0 0 0 0 0 0 0 0 0 0 0 0 0 0 0 0 0 0 0 0 0 0 0 0 0 0 0 0 0 0 0 0 0 0 0 0 0 0 0 0 0 0 0 0 0 0 0 0 0 0 0 0 0 0 0 0 0 0 0 0 0 0 0 0 0 0 0 0 0 0 0 0 0 0 0 0 0 0 0 0 0 0 0 0 0 0 0 0 0 0 0 0 0 0 0 0 0 0 0 0 0 0 0 0 0 0 0 0 0 0 0 0 0 0 0 0 0 0 0 0 0 0 0 0 0 0 0 0 0 0 0 0 0 0 0 0 0 0 0 0 0 0 0 0 0 0 0 0 0 0 0 0 0 0 0 0 0 0 0 0 0 0 0 0 0 0 0 0 0 0 0 0 0 0 0 0 0 0 0 0 0 0 0 0 0 0 0 0 2322.97 3139.97 2888.94 0 2753.49 0 0 2583.27 0 0 0 0 0 0 0 0 0 0 0 0 0 0 0 0 0 0 0 0 0 0 0 0 0 0 0 0 0 0 0 0 0 0 0 0 0 0 0 0 0 0 0 0 0 0 0 0 0 0 0 0 0 0 0 0 0 0 0 0 0 0 0 0 0 0 0 0 0 0 0 0 0 0 0 0 0 0 0 0 0 0 0 0 0 0 0 0 0 0 0 0 0 0 0 0 0 0 0 0 0 0 0 0 0 0 0 0 0 0 0 0 0 0 0 0 0 0 0 0 0 0 0 0 0 0 0 0 0 0 0 0 0 0 0 0 0 0 0 0 0 0 0 0 0 0 0 0 0 0 0 0 0 1721.02 0 2155.24 0 1931 1716.55 0 0 0 0 0 0 0 0 0 0 0 0 0 0 0 0 0 0 0 0 0 0 0 0 0 0 0 0 0 0 0 0 0 0 0 0 0 0 3500.18 3478.77 3672.41 3473.59 3854.91 4158.77 3938.34 3878.62 3983.51 3912.17 3832.29 3804.74 3845.11 3138.21 3102.81 3057.96 3102.23 3006.18 3133.46 3125 3107.69 3224.7 3236.64 0 0 0 0 0 0 0 0 0 0 0 0 0 0 0 0 0 0 0 0 0 0 0 0 0 0 0 0 0 0 0 0 0 0 0 0 0 0 0 2723.9 2977.8 3210.51 3300.64 3165.98 3206.64 3279.92 3268.74 3290.09 3209.83 3242.21 3174.97 3160.32 3266.77 3271.23 3226.13 3222.9 3224.08 3255.93 3162.7 3182.8 3077.71 2978.12 2940.74 2875.18 2829.17 2613.7 2588.81 2583.27 2202.66 2525.61 0 0 0 0 0 0 0 0 0 0
0 0 0 0 0 0 0 0 0 0 0 0 0 0 0 0 0 0 0 0 0 0 0 0 0 0 0 0 0 0 0 0 0 0 0 0 0 0 0 0 0 0 0 0 0 0 0 0 0 0 0 0 0 0 0 0 0 0 0 0 0 0 0 0 0 0 0 0 0 0 0 0 0 0 0 0 0 0 0 0 0 0 0 0 0 0 0 0 0 0 0 0 0 0 0 0 0 0 0 0 0 0 0 0 0 0 0 0 0 0 0 0 0 0 0 0 0 0 0 0 0 0 0 0 0 0 0 0 0 0 0 0 0 0 0 0 0 0 0 0 0 0 0 0 0 0 0 0 0 0 0 0 0 0 0 0 0 0 0 0 0 0 0 0 0 0 0 0 0 0 0 0 0 0 0 0 0 0 0 0 0 0 0 0 0 0 0 0 0 0 0 0 0 0 0 0 0 0 0 0 0 0 0 0 0 0 0 0 0 0 0 0 0 0 0 0 0 0 0 0 0 0 0 0 0 0 0 0 0 0 0 0 0 0 0 0 0 0 0 0 0 0 0 0 0 0 0 0 0 0 0 0 0 0 0 0 0 0 0 0 0 0 0 0 0 0 0 0 0 0 0 0 0 0 0 0 0 0 0 0 0 0 0 0 0 0 0 0 0 0 0 0 0 0 0 0 0 0 0 0 0 0 0 0 0 0 0 0 0 0 0 0 0 0 0 0 0 0 0 0 0 0 0 0 0 0 0 0 0 0 0 0 0 0 0 0 0 0 0 0 0 0 0 0 0 0 0 0 0 0 0 0 0 0 0 0 0 0 0 0 0 0 0 0 0 0 0 0 0 0 0 0 0 0 0 0 0 0 0 0 0 0 0 0 0 0 0 0 0 0 0 0 0 0 0 0 0 0 0 0 0 0 0 0 0 0 0 0 3340.52 3183.22 3256.88 3406.93 3327.54 3325.1 4039.71 3879.43 3866.91 4011.12 3984.55 3889.86 3879.34 3918.75 3111.44 3107.98 3047.96 3150.23 3058.3 3207.56 3204.25 3201.63 3346.99 3477.84 0 0 0 0 0 0 0 0 0 0 0 0 0 0 0 0 0 0 0 0 0 0 0 0 0 0 0 0 0 0 0 0 0 0 0 0 0 0 0 2936.88 3046.91 3156.45 3286.09 3176.29 3198.09 3251.95 3222.72 3199.43 3121.45 3199.18 3133.05 3136.74 3237.39 3214.63 3146.15 3161.86 3178.16 3204.32 3119.83 3162.28 3008.66 2908.52 2909.89 2915.55 2834.71 2630.13 2711.57 2535.07 2189.52 2808.76 0 0 0 0 0 0 0 0 0 0
0 0 0 0 0 0 0 0 0 0 0 0 0 0 0 0 0 0 0 0 0 0 0 0 0 0 0 0 0 0 0 0 0 0 0 0 0 0 0 0 0 0 0 0 0 0 0 0 0 0 0 0 0 0 0 0 0 0 0 0 0 0 0 0 0 0 0 0 0 0 0 0 0 0 0 0 0 0 0 0 0 0 0 0 0 0 0 0 0 0 0 0 0 0 0 0 0 0 0 0 0 0 0 0 0 0 0 0 0 0 0 0 0 0 0 0 0 0 0 0 0 0 0 0 0 0 0 0 0 0 0 0 0 0 0 0 0 0 0 0 0 0 0 0 0 0 0 0 0 0 0 0 0 0 0 0 0 0 0 0 0 0 0 0 0 0 0 0 0 0 0 0 0 0 0 0 0 0 0 0 0 0 0 0 0 0 0 0 0 0 0 0 0 0 0 0 0 0 0 0 0 0 0 0 0 0 0 0 0 0 0 0 0 0 0 0 0 0 0 0 0 0 0 0 0 0 0 0 0 0 0 0 0 0 0 0 0 0 0 0 0 0 0 0 0 0 0 0 0 0 0 0 0 0 0 0 0 0 0 0 0 0 0 0 0 0 0 0 0 0 0 0 0 0 0 0 0 0 0 0 0 0 0 0 0 0 0 0 0 0 0 0 0 0 0 0 0 0 0 0 0 0 0 0 0 0 0 0 0 0 0 0 0 0 0 0 0 0 0 0 0 0 0 0 0 0 0 0 0 0 0 0 0 0 0 0 0 0 0 0 0 0 0 0 0 0 0 0 0 0 0 0 0 0 0 0 0 0 0 0 0 0 0 0 0 0 0 0 0 0 0 0 0 0 0 0 0 0 0 0 0 0 0 0 0 0 0 0 0 0 0 0 0 0 0 0 0 0 0 0 0 0 0 0 0 0 0 0 0 3028.27 3108.21 3278.45 3294.15 3276.59 3974.17 3259.34 3209.83 3911.81 4008.06 3860.5 3813.9 3159.48 3103.49 3080.02 3037.04 3194.37 3083.82 3160.73 3071.9 3114.61 3319.44 3659.75 0 0 0 0 0 0 0 0 0 0 0 0 0 0 0 0 0 0 0 0 0 0 0 0 0 0 0 0 0 0 0 0 0 0 0 0 0 0 0 3344.05 3282.04 3220.8 3268.17 3061.87 3041.66 3075.22 3108.5 3064.61 3019.28 3075.56 3057.85 3094.39 3183.4 3183.1 3131.88 3121.39 3198.82 3221.17 3160.43 3187.21 3051.84 3010.01 3818.16 3846.87 3059.75 2793.51 2816.58 2758.33 2652.46 3052.56 0 0 0 0 0 0 0 0 0 0
0 0 0 0 0 0 0 0 0 0 0 0 0 0 0 0 0 0 0 0 0 0 0 0 0 0 0 0 0 0 0 0 0 0 0 0 0 0 0 0 0 0 0 0 0 0 0 0 0 0 0 0 0 0 0 0 0 0 0 0 0 0 0 0 0 0 0 0 0 0 0 0 0 0 0 0 0 0 0 0 0 0 0 0 0 0 0 0 0 0 0 0 0 0 0 0 0 0 0 0 0 0 0 0 0 0 0 0 0 0 0 0 0 0 0 0 0 0 0 0 0 0 0 0 0 0 0 0 0 0 0 0 0 0 0 0 0 0 0 0 0 0 0 0 0 0 0 0 0 0 0 0 0 0 0 0 0 1430.6 1525.16 1790.81 2229 2317.16 0 2299.35 2578.91 2543.06 2648.52 2931.8 2952.28 2822.17 0 0 0 0 0 0 0 0 0 0 0 0 0 0 0 0 0 0 0 0 0 0 0 0 0 0 0 0 0 0 0 0 0 0 0 0 0 0 0 0 0 0 0 0 0 0 0 0 0 0 0 0 0 0 0 0 0 0 0 0 0 0 0 0 0 0 0 0 0 0 0 0 0 0 0 0 0 0 0 0 0 0 0 0 0 0 0 0 0 0 0 0 0 0 0 0 0 0 0 0 0 0 0 0 0 0 0 0 0 0 0 0 0 0 0 0 0 0 0 0 0 0 0 0 0 0 0 0 0 0 0 0 0 0 0 0 0 0 0 0 0 0 0 0 0 0 0 0 0 0 0 0 0 0 0 0 0 0 0 0 0 0 0 0 0 0 0 0 0 0 0 0 0 0 0 0 0 0 0 0 0 0 0 0 0 0 0 0 0 0 0 0 0 0 0 0 0 0 0 0 0 0 0 0 0 0 0 0 0 0 0 0 0 0 0 0 0 0 0 0 0 0 0 0 0 0 0 0 0 0 0 0 0 0 0 0 0 0 0 3000.22 3153.07 3374.93 3330.18 3264.73 3310.01 3248.11 3238.96 3289.96 3309.29 3284.74 3224.89 3206.64 3178.52 3154.02 3100.46 3194.68 3079.01 3043.32 2843.31 2904.9 3232.16 0 0 0 0 0 0 0 0 0 0 0 0 0 0 0 0 0 0 0 0 0 0 0 0 0 0 0 0 0 0 0 0 0 0 0 0 0 0 0 0 3315.44 3222.72 3204.99 3209.89 2975 2973.63 3033.63 3080.47 3094.62 3003.12 3094.62 3080.98 3085.8 3182.68 3173.11 3102.69 3091.43 3121.74 3165.09 3065.22 3059.75 2956.7 2906.06 3624.65 2991.02 2942.19 2717.19 2751.46 2794.86 2745.87 3113.63 0 0 0 0 0 0 0 0 0 0
0 0 0 0 0 0 0 0 0 0 0 0 0 0 0 0 0 0 0 0 0 0 0 0 0 0 0 0 0 0 0 0 0 0 0 0 0 0 0 0 0 0 0 0 0 0 0 0 0 0 0 0 0 0 0 0 0 0 0 0 0 0 0 0 0 0 0 0 0 0 0 0 0 0 0 0 0 0 0 0 0 0 0 0 0 0 0 0 0 0 0 0 0 0 0 0 0 0 0 0 0 0 0 0 0 0 0 0 0 0 0 0 0 0 0 0 0 0 0 0 0 0 0 0 0 0 0 0 0 0 0 0 0 0 0 0 0 0 0 0 0 0 0 0 0 0 0 0 0 0 0 0 0 0 0 0 2101.28 0 1904.22 2021.94 2570.21 2622.15 2738.43 2526.4 2872.57 2618.8 2714.99 3303.69 3308.12 3145.68 0 3041.94 0 0 0 0 0 0 0 0 0 0 0 0 0 0 0 0 0 0 0 0 0 0 0 0 0 0 0 0 0 0 0 0 0 0 0 0 0 0 0 0 0 0 0 0 0 0 0 0 0 0 0 0 0 0 0 0 0 0 0 0 0 0 0 0 0 0 0 0 0 0 0 0 0 0 0 0 0 0 0 0 0 0 0 0 0 0 0 0 0 0 0 0 0 0 0 0 0 0 0 0 0 0 0 0 0 0 0 0 0 0 0 0 0 0 0 0 0 0 0 0 0 0 0 0 0 0 0 0 0 0 0 0 0 0 0 0 0 0 0 0 0 0 0 0 0 0 0 0 0 0 0 0 0 0 0 0 0 0 0 0 0 0 0 0 0 0 0 0 0 0 0 0 0 0 0 0 0 0 0 0 0 0 0 0 0 0 0 0 0 0 0 0 0 0 0 0 0 0 0 0 0 0 0 0 0 0 0 0 0 0 0 0 0 0 0 0 0 0 0 0 0 0 0 0 0 0 0 0 0 0 0 0 0 0 0 0 0 0 2947.87 3270.65 3356.7 3356.23 3381.19 3457.84 3364.17 3364.44 3373.64 3370.79 3283.32 3265.94 3262.89 3274.03 3086.31 3254.47 3230.54 3274.42 3095.94 3224.27 0 0 0 0 0 0 0 0 0 0 0 0 0 0 0 0 0 0 0 0 0 0 0 0 0 0 0 0 0 0 0 0 0 0 0 0 0 0 0 0 0 3198.94 3175.09 3071.17 3048.13 2867.32 2891.98 3002.85 3023.41 3077.25 3078.04 3168.55 3179.66 3164.97 3250.06 3255.36 3204.99 3218.58 3213.71 3188.54 3085.86 3047.46 3020.8 2976.69 2979.81 3007.37 2943.68 2734.02 2815.17 2902.79 2972.84 3220.92 0 0 0 0 0 0 0 0 0 0
0 0 0 0 0 0 0 0 0 0 0 0 0 0 0 0 0 0 0 0 0 0 0 0 0 0 0 0 0 0 0 0 0 0 0 0 0 0 0 0 0 0 0 0 0 0 0 0 0 0 0 0 0 0 0 0 0 0 0 0 0 0 0 0 0 0 0 0 0 0 0 0 0 0 0 0 0 0 0 0 0 0 0 0 0 0 0 0 0 0 0 0 0 0 0 0 0 0 0 0 0 0 0 0 0 0 0 0 0 0 0 0 0 0 0 0 0 0 0 0 0 0 0 0 0 0 0 0 0 0 0 0 0 0 0 0 0 0 0 0 0 0 0 0 0 0 0 0 0 0 0 0 0 0 0 1627.03 1992.96 2077.17 2044.89 2157.54 2692.38 2799.99 2965.33 2863.45 3218.82 3100.91 3045.91 3602.7 3574.07 3425.29 3296.94 3124.01 0 2996.25 0 0 0 0 0 0 0 0 0 0 0 0 0 0 0 0 0 0 0 0 0 0 0 0 0 0 0 0 0 0 0 0 0 0 0 0 0 0 0 0 0 0 0 0 0 0 0 0 0 0 0 0 0 0 0 0 0 0 0 0 0 0 0 0 0 0 0 0 0 0 0 0 0 0 0 0 0 0 0 0 0 0 0 0 0 0 0 0 0 0 0 0 0 0 0 0 0 0 0 0 0 0 0 0 0 0 0 0 0 0 0 0 0 0 0 0 0 0 0 0 0 0 0 0 0 0 0 0 0 0 0 0 0 0 0 0 0 0 0 0 0 0 0 0 0 0 0 0 0 0 0 0 0 0 0 0 0 0 0 0 0 0 0 0 0 0 0 0 0 0 0 0 0 0 0 0 0 0 0 0 0 0 0 0 0 0 0 0 0 0 0 0 0 0 0 0 0 0 0 0 0 0 0 0 0 0 0 0 0 0 0 0 0 0 0 0 0 0 0 0 0 0 0 0 0 0 0 0 0 0 0 0 0 0 0 0 2603.76 2959.94 3133.34 3086.25 3156.63 3341.86 3232.53 3187.21 3264.03 3223.96 3116.99 3105.62 3039.84 3119.48 2831.37 3002.1 3159.07 3067.3 2878.88 2845.05 0 0 0 0 0 0 0 0 0 0 0 0 0 0 0 0 0 0 0 0 0 0 0 0 0 0 0 0 0 0 0 0 0 0 0 0 0 0 0 0 0 0 3246.04 3102.06 3075.56 2975.9 2984.31 3074.6 3105.97 3136.16 3157.76 3230.85 3243.4 3250.06 3266.96 3279.35 3211.43 3214.51 3229.42 3180.14 3079.34 3070.95 3044.86 3043.98 3740.86 3091.49 3037.09 2801.07 2990.96 3088.41 3082.57 2885.12 2552.46 1712.38 0 0 0 0 0 0 0 0
0 0 0 0 0 0 0 0 0 0 0 0 0 0 0 0 0 0 0 0 0 0 0 0 0 0 0 0 0 0 0 0 0 0 0 0 0 0 0 0 0 0 0 0 0 0 0 0 0 0 0 0 0 0 0 0 0 0 0 0 0 0 0 0 0 0 0 0 0 0 0 0 0 0 0 0 0 0 0 0 0 0 0 0 0 0 0 0 0 0 0 0 0 0 0 0 0 0 0 0 0 0 0 0 0 0 0 0 0 0 0 0 0 0 0 0 0 0 0 0 0 0 0 0 0 0 0 0 0 0 0 0 0 0 0 0 0 0 0 0 0 0 0 0 0 0 0 0 0 0 0 0 0 0 0 2269.55 2400.95 2475.41 2405.08 2428.9 2848.53 2986.55 3107.81 3131.36 3316.16 3294.54 3205.36 3578.49 3653.85 3580.02 3292.22 3124.88 3021.61 2872.18 2787.34 2346.55 1610.66 0 0 0 0 0 0 0 0 0 0 0 0 0 0 0 0 0 0 0 0 0 0 0 0 0 0 0 0 0 0 0 0 0 0 0 0 0 0 0 0 0 0 0 0 0 0 0 0 0 0 0 0 0 0 0 0 0 0 0 0 0 0 0 0 0 0 0 0 0 0 0 0 0 0 0 0 0 0 0 0 0 0 0 0 0 0 0 0 0 0 0 0 0 0 0 0 0 0 0 0 0 0 0 0 0 0 0 0 0 0 0 0 0 0 0 0 0 0 0 0 0 0 0 0 0 0 0 0 0 0 0 0 0 0 0 0 0 0 0 0 0 0 0 0 0 0 0 0 0 0 0 0 0 0 0 0 0 0 0 0 0 0 0 0 0 0 0 0 0 0 0 0 0 0 0 0 0 0 0 0 0 0 0 0 0 0 0 0 0 0 0 0 0 0 0 0 0 0 0 0 0 0 0 0 0 0 0 0 0 0 0 0 0 0 0 0 0 0 0 0 0 0 0 0 0 0 0 0 0 0 0 0 0 2684.58 2871.83 2965.54 0 3031.71 3254.29 2988.41 2836.97 2952.49 2883.83 2867.27 2912.46 2693.63 2749.97 2429.46 2725.36 3033.58 2806.41 2763.97 0 0 0 0 0 0 0 0 0 0 0 0 0 0 0 0 0 0 0 0 0 0 0 0 0 0 0 0 0 0 0 0 0 0 0 0 0 0 0 0 0 0 0 3292.54 3056.12 3052.9 2954.31 2993.95 3075.84 3099.25 3160.14 3213.4 3301.74 3320.56 3293.96 3293.25 3292.34 3222.47 3229.6 3220.18 3136.74 2984.9 2966.79 2964.65 2927.91 3726.49 2969.95 2882.39 2660.19 2886.46 3057.85 3173.53 2998.77 2895.42 2162.77 0 0 0 0 0 0 0 0
0 0 0 0 0 0 0 0 0 0 0 0 0 0 0 0 0 0 0 0 0 0 0 0 0 0 0 0 0 0 0 0 0 0 0 0 0 0 0 0 0 0 0 0 0 0 0 0 0 0 0 0 0 0 0 0 0 0 0 0 0 0 0 0 0 0 0 0 0 0 0 0 0 0 0 0 0 0 0 0 0 0 0 0 0 0 0 0 0 0 0 0 0 0 0 0 0 0 0 0 0 0 0 0 0 0 0 0 0 0 0 0 0 0 0 0 0 0 0 0 0 0 0 0 0 0 0 0 0 0 0 0 0 0 0 0 0 0 0 0 0 0 0 0 0 0 0 0 0 0 0 0 0 2545.8 2641.76 2582.08 2755.7 2839.32 2850.32 2862.91 3122.61 3207.99 3247.86 3224.89 3338.6 3247.17 3202.79 4217.1 4259.82 4107.86 3314.72 3122.32 3139.56 0 0 0 1961.09 0 0 0 0 0 0 0 0 0 0 0 0 0 0 0 0 0 0 0 0 0 0 0 0 0 0 0 0 0 0 0 0 0 0 0 0 0 0 0 0 0 0 0 0 0 0 0 0 0 0 0 0 0 0 0 0 0 0 0 0 0 0 0 0 0 0 0 0 0 0 0 0 0 0 0 0 0 0 0 0 0 0 0 0 0 0 0 0 0 0 0 0 0 0 0 0 0 0 0 0 0 0 0 0 0 0 0 0 0 0 0 0 0 0 0 0 0 0 0 0 0 0 0 0 0 0 0 0 0 0 0 0 0 0 0 0 0 0 0 0 0 0 0 0 0 0 0 0 0 0 0 0 0 0 0 0 0 0 0 0 0 0 0 0 0 0 0 0 0 0 0 0 0 0 0 0 0 0 0 0 0 0 0 0 0 0 0 0 0 0 0 0 0 0 0 0 0 0 0 0 0 0 0 0 0 0 0 0 0 0 0 0 0 0 0 0 0 0 0 0 0 0 0 0 0 0 0 0 0 0 0 0 0 2613.21 2626.38 0 2701.88 2670.57 2941.31 2758.92 2575.9 2642.43 2705.45 2644.55 2766.84 2598.56 2762.06 2439.49 2643.47 0 2862.23 0 0 0 0 0 0 0 0 0 0 0 0 0 0 0 0 0 0 0 0 0 0 0 0 0 0 0 0 0 0 0 0 0 0 0 0 0 0 0 0 0 0 0 0 3208.91 2926.94 2984.26 2852.69 2889.84 3003.87 3025.26 3098.22 3157.46 3249.68 3287.18 3245.35 3208.61 3223.96 3128.9 3146.74 3141.62 3049.85 2911.6 2904.55 2908.68 2959.26 4076.12 3891.48 3570.35 2815.69 3150.29 3354.55 3579.33 0 0 0 0 0 0 0 0 0 0 0
0 0 0 0 0 0 0 0 0 0 0 0 0 0 0 0 0 0 0 0 0 0 0 0 0 0 0 0 0 0 0 0 0 0 0 0 0 0 0 0 0 0 0 0 0 0 0 0 0 0 0 0 0 0 0 0 0 0 0 0 0 0 0 0 0 0 0 0 0 0 0 0 0 0 0 0 0 0 0 0 0 0 0 0 0 0 0 0 0 0 0 0 0 0 0 0 0 0 0 0 0 0 0 0 0 0 0 0 0 0 0 0 0 0 0 0 0 0 0 0 0 0 0 0 0 0 0 0 0 0 0 0 0 0 0 0 0 0 0 0 0 0 0 0 0 0 0 0 0 0 0 0 2559.9 2888.59 2893.33 2802.99 2986.12 3040.06 3062.03 3055.45 4106.95 4298.67 4240.87 4225.91 4437.37 4312.7 4334.32 4364.65 4406.72 4272.29 3243.34 3080.02 3185.4 3037.53 2660.87 2588.38 2302 0 0 0 0 0 0 0 0 0 0 0 0 0 0 0 0 0 0 0 0 0 0 0 0 0 0 0 0 0 0 0 0 0 0 0 0 0 0 0 0 0 0 0 0 0 0 0 0 0 0 0 0 0 0 0 0 0 0 0 0 0 0 0 0 0 0 0 0 0 0 0 0 0 0 0 0 0 0 0 0 0 0 0 0 0 0 0 0 0 0 0 0 0 0 0 0 0 0 0 0 0 0 0 0 0 0 0 0 0 0 0 0 0 0 0 0 0 0 0 0 0 0 0 0 0 0 0 0 0 0 0 0 0 0 0 0 0 0 0 0 0 0 0 0 0 0 0 0 0 0 0 0 0 0 0 0 0 0 0 0 0 0 0 0 0 0 0 0 0 0 0 0 0 0 0 0 0 0 0 0 0 0 0 0 0 0 0 0 0 0 0 0 0 0 0 0 0 0 0 0 0 0 0 0 0 0 0 0 0 0 0 0 0 0 0 0 0 0 0 0 0 0 0 0 0 0 0 0 0 0 0 0 0 0 0 0 0 2465.52 2712.18 2449.47 2125.05 2350.4 2411.41 2263.21 2545.22 2423.01 2277.96 2067.18 0 0 0 0 0 0 0 0 0 0 0 0 0 0 0 0 0 0 0 0 0 0 0 0 0 0 0 0 0 0 0 0 0 0 0 0 0 0 0 0 0 0 0 0 0 0 0 0 2757.11 2841.63 2818.48 2801.02 2885.37 2942.6 3058.13 3149.22 3232.03 3292.54 3251.07 3186.06 3238.02 3121.39 3112.19 3088.3 2991.12 2909.68 2882.74 2899.88 2908.22 3603.78 3106.77 3133.52 2936.83 3270.01 3429 3751.57 0 0 0 0 0 0 0 0 0 0 0
0 0 0 0 0 0 0 0 0 0 0 0 0 0 0 0 0 0 0 0 0 0 0 0 0 0 0 0 0 0 0 0 0 0 0 0 0 0 0 0 0 0 0 0 0 0 0 0 0 0 0 0 0 0 0 0 0 0 0 0 0 0 0 0 0 0 0 0 0 0 0 0 0 0 0 0 0 0 0 0 0 0 0 0 0 0 0 0 0 0 0 0 0 0 0 0 0 0 0 0 0 0 0 0 0 0 0 0 0 0 0 0 0 0 0 0 0 0 0 0 0 0 0 0 0 0 0 0 0 0 0 0 0 0 0 0 0 0 0 0 0 0 0 0 0 0 0 0 0 0 0 0 2884.03 3142.68 3021.78 2899.88 3021.29 3104.18 3062.93 3015.59 3148.63 3242.15 3203.64 4373.29 4842.74 4795.4 4834.09 4294.82 4374.43 4388.62 3076.24 2985.59 3079.57 2978.27 2601.42 0 0 0 0 0 0 0 0 0 0 0 0 0 0 0 0 0 0 0 0 0 0 0 0 0 0 0 0 0 0 0 0 0 0 0 0 0 0 0 0 0 0 0 0 0 0 0 0 0 0 0 0 0 0 0 0 0 0 0 0 0 0 0 0 0 0 0 0 0 0 0 0 0 0 0 0 0 0 0 0 0 0 0 0 0 0 0 0 0 0 0 0 0 0 0 0 0 0 0 0 0 0 0 0 0 0 0 0 0 0 0 0 0 0 0 0 0 0 0 0 0 0 0 0 0 0 0 0 0 0 0 0 0 0 0 0 0 0 0 0 0 0 0 0 0 0 0 0 0 0 0 0 0 0 0 0 0 0 0 0 0 0 0 0 0 0 0 0 0 0 0 0 0 0 0 0 0 0 0 0 0 0 0 0 0 0 0 0 0 0 0 0 0 0 0 0 0 0 0 0 0 0 0 0 0 0 0 0 0 0 0 0 0 0 0 0 0 0 0 0 0 0 0 0 0 0 0 0 0 0 0 0 0 0 0 0 0 0 0 0 0 2123.92 1984.73 2380.55 2672.86 2203.79 0 2366.58 0 0 0 0 0 0 0 0 0 0 0 0 0 0 0 0 0 0 0 0 0 0 0 0 0 0 0 0 0 0 0 0 0 0 0 0 0 0 0 0 0 0 0 0 0 0 0 0 0 0 2683.9 2770.95 2575.46 2607.73 2742.24 2762.65 2922.2 3043.43 3125.41 3180.69 3124.47 3141.32 3190.48 3092.51 3134.4 3126.57 3089.32 3047.63 3055.62 3119.94 3144.03 3922.51 3981.9 3913.91 3211.12 3479.21 3589.21 3885 0 0 0 0 0 0 0 0 0 0 0
0 0 0 0 0 0 0 0 0 0 0 0 0 0 0 0 0 0 0 0 0 0 0 0 0 0 0 0 0 0 0 0 0 0 0 0 0 0 0 0 0 0 0 0 0 0 0 0 0 0 0 0 0 0 0 0 0 0 0 0 0 0 0 0 0 0 0 0 0 0 0 0 0 0 0 0 0 0 0 0 0 0 0 0 0 0 0 0 0 0 0 0 0 0 0 0 0 0 0 0 0 0 0 0 0 0 0 0 0 0 0 0 0 0 0 0 0 0 0 0 0 0 0 0 0 0 0 0 0 0 0 0 0 0 0 0 0 0 0 0 0 0 0 0 0 0 0 0 0 0 0 0 3224.45 3387.74 3219.69 3060.92 3148.63 3317.67 3257.25 3206.03 4234.87 4258.3 4331.07 4375.92 4051.42 3982.94 3953 3719.88 4382.89 4412.63 3102.98 3027.39 3168.37 2952.39 2571.51 2264.16 0 0 0 0 0 0 0 0 0 0 0 0 0 0 0 0 0 0 0 0 0 0 0 0 0 0 0 0 0 0 0 0 0 0 0 0 0 0 0 0 0 0 0 0 0 0 0 0 0 0 0 0 0 0 0 0 0 0 0 0 0 0 0 0 0 0 0 0 0 0 0 0 0 0 0 0 0 0 0 0 0 0 0 0 0 0 0 0 0 0 0 0 0 0 0 0 0 0 0 0 0 0 0 0 0 0 0 0 0 0 0 0 0 0 0 0 0 0 0 0 0 0 0 0 0 0 0 0 0 0 0 0 0 0 0 0 0 0 0 0 0 0 0 0 0 0 0 0 0 0 0 0 0 0 0 0 0 0 0 0 0 0 0 0 0 0 0 0 0 0 0 0 0 0 0 0 0 0 0 0 0 0 0 0 0 0 0 0 0 0 0 0 0 0 0 0 0 0 0 0 0 0 0 0 0 0 0 0 0 0 0 0 0 0 0 0 0 0 0 0 0 0 0 0 0 0 0 0 0 0 0 0 0 0 0 0 0 0 0 0 1856.39 1567.81 2039.52 2338.12 1616.28 0 1456.17 0 0 0 0 0 0 0 0 0 0 0 0 0 0 0 0 0 0 0 0 0 0 0 0 0 0 0 0 0 0 0 0 0 0 0 0 0 0 0 0 0 0 0 0 0 0 0 0 0 0 0 2509.93 2323.42 2324.19 2525.87 2580.85 2888.84 3037.31 3056.23 3109.19 3087.05 3115.02 3191.7 3100.46 3142.85 3121.16 3004.62 2956.23 2956.39 3103.72 3181.65 3145.21 3391.09 3460.91 3037.26 3412.96 3789.78 4254.09 0 0 0 0 0 0 0 0 0 0 0
0 0 0 0 0 0 0 0 0 0 0 0 0 0 0 0 0 0 0 0 0 0 0 0 0 0 0 0 0 0 0 0 0 0 0 0 0 0 0 0 0 0 0 0 0 0 0 0 0 0 0 0 0 0 0 0 0 0 0 0 0 0 0 0 0 0 0 0 0 0 0 0 0 0 0 0 0 0 0 0 0 0 0 0 0 0 0 0 0 0 0 0 0 0 0 0 0 0 0 0 0 0 0 0 0 0 0 0 0 0 0 0 0 0 0 0 0 0 0 0 0 0 0 0 0 0 0 0 0 0 0 0 0 0 0 0 0 0 0 0 0 0 0 0 0 0 0 0 0 0 3368.42 3361.88 3190.06 3330.25 3133.17 2987.93 3076.41 3180.14 3186.97 3114.96 3163.53 3262 4233.27 4269.25 4349.26 3691.07 3659.67 3443.43 4464.29 4510.74 3175.21 3166.1 3225.07 2966.74 2548.51 2432.07 0 0 0 0 0 0 0 0 0 0 0 0 0 0 0 0 0 0 0 0 0 0 0 0 0 0 0 0 0 0 0 0 0 0 0 0 0 0 0 0 0 0 0 0 0 0 0 0 0 0 0 0 0 0 0 0 0 0 0 0 0 0 0 0 0 0 0 0 0 0 0 0 0 0 0 0 0 0 0 0 0 0 0 0 0 0 0 0 0 0 0 0 0 0 0 0 0 0 0 0 0 0 0 0 0 0 0 0 0 0 0 0 0 0 0 0 0 0 0 0 0 0 0 0 0 0 0 0 0 0 0 0 0 0 0 0 0 0 0 0 0 0 0 0 0 0 0 0 0 0 0 0 0 0 0 0 0 0 0 0 0 0 0 0 0 0 0 0 0 0 0 0 0 0 0 0 0 0 0 0 0 0 0 0 0 0 0 0 0 0 0 0 0 0 0 0 0 0 0 0 0 0 0 0 0 0 0 0 0 0 0 0 0 0 0 0 0 0 0 0 0 0 0 0 0 0 0 0 0 0 0 0 0 0 0 0 0 0 0 0 1524.46 1427.64 1720.21 1733.61 1347.32 0 0 0 0 0 0 0 0 0 0 0 0 0 0 0 0 0 0 0 0 0 0 0 0 0 0 0 0 0 0 0 0 0 0 0 0 0 0 0 0 0 0 0 0 0 0 0 0 0 0 0 0 0 2542.33 2502.44 2293.12 2617.2 2613.13 2949.74 3100.34 3124.82 3155.44 3071.23 3140.73 3326.55 4148.38 4035.34 3187.21 3021.12 2911.45 2920.98 3101.43 3021.83 2936.98 3030.95 3113.57 2748.26 3419.92 3877.63 4534.63 0 0 0 0 0 0 0 0 0 0 0
0 0 0 0 0 0 0 0 0 0 0 0 0 0 0 0 0 0 0 0 0 0 0 0 0 0 0 0 0 0 0 0 0 0 0 0 0 0 0 0 0 0 0 0 0 0 0 0 0 0 0 0 0 0 0 0 0 0 0 0 0 0 0 0 0 0 0 0 0 0 0 0 0 0 0 0 0 0 0 0 0 0 0 0 0 0 0 0 0 0 0 0 0 0 0 0 0 0 0 0 0 0 0 0 0 0 0 0 0 0 0 0 0 0 0 0 0 0 0 0 0 0 0 0 0 0 0 0 0 0 0 0 0 0 0 0 0 0 0 0 0 0 0 0 0 1043.3 0 0 0 2900.58 3206.34 3390.27 3193.28 3276.72 3108.32 3080.76 3173.35 3252.9 3264.99 3198.09 3203.76 4205.78 3582.24 4214.02 4261.98 3701.25 3698.47 4350.61 4362.49 4382.2 3184.31 3169.69 3131.65 2885.07 2499.9 2345.47 2366.25 1691.9 0 0 0 0 0 0 0 0 0 0 0 0 0 0 0 0 0 0 0 0 0 0 0 0 0 0 0 0 0 0 0 0 0 0 0 0 0 0 0 0 0 0 0 0 0 0 0 0 0 0 0 0 0 0 0 0 0 0 0 0 0 0 0 0 0 0 0 0 0 0 0 0 0 0 0 0 0 0 0 0 0 0 0 0 0 0 0 0 0 0 0 0 0 0 0 0 0 0 0 0 0 0 0 0 0 0 0 0 0 0 0 0 0 0 0 0 0 0 0 0 0 0 0 0 0 0 0 0 0 0 0 0 0 0 0 0 0 0 0 0 0 0 0 0 0 0 0 0 0 0 0 0 0 0 0 0 0 0 0 0 0 0 0 0 0 0 0 0 0 0 0 0 0 0 0 0 0 0 0 0 0 0 0 0 0 0 0 0 0 0 0 0 0 0 0 0 0 0 0 0 0 0 0 0 0 0 0 0 0 0 0 0 0 0 0 0 0 0 0 0 0 0 0 0 0 0 0 0 0 0 0 0 0 0 0 0 0 0 0 0 0 0 0 0 0 0 0 0 0 0 0 0 0 0 0 0 0 0 0 0 0 0 0 0 0 0 0 0 0 0 0 0 0 0 0 0 0 0 0 0 0 0 0 0 0 0 0 0 0 0 0 0 0 0 0 0 0 2164.08 2007.77 2447.79 2585.82 2934.62 3206.83 3142.62 3227.99 3200.4 3251.64 3509.04 4240.22 3422.5 3435.25 3221.67 3213.4 3259.15 3426.06 3432.23 3188 3211.74 3413.45 2872.32 3547.62 3853.32 4179.7 3372.01 0 1584.26 0 0 0 0 0 0 0 0
0 0 0 0 0 0 0 0 0 0 0 0 0 0 0 0 0 0 0 0 0 0 0 0 0 0 0 0 0 0 0 0 0 0 0 0 0 0 0 0 0 0 0 0 0 0 0 0 0 0 0 0 0 0 0 0 0 0 0 0 0 0 0 0 0 0 0 0 0 0 0 0 0 0 0 0 0 0 0 0 0 0 0 0 0 0 0 0 0 0 0 0 0 0 0 0 0 0 0 0 0 0 0 0 0 0 0 0 0 0 0 0 0 0 0 0 0 0 0 0 0 0 0 0 0 0 0 0 0 0 0 0 0 0 0 0 0 0 0 0 0 0 0 0 0 1363.82 2687.64 3016.78 3080.08 2959.36 3279.22 3344.99 3135.74 3184.73 3038.19 3015.42 3077.65 3115.94 3166.22 3095.14 3119.25 3227.31 3281.91 3627.7 3354.28 4110.17 4192.44 4193.59 3210.82 4128.38 3030.67 3018.3 3026.36 2832.56 2521.92 2325.54 2328.25 1863.47 1843.58 2264.37 1816.93 1736.36 0 0 0 0 0 0 0 0 0 0 0 0 0 0 0 0 0 0 0 0 0 0 0 0 0 0 0 0 0 0 0 0 0 0 0 0 0 0 0 0 0 0 0 0 0 0 0 0 0 0 0 0 0 0 0 0 0 0 0 0 0 0 0 0 0 0 0 0 0 0 0 0 0 0 0 0 0 0 0 0 0 0 0 0 0 0 0 0 0 0 0 0 0 0 0 0 0 0 0 0 0 0 0 0 0 0 0 0 0 0 0 0 0 0 0 0 0 0 0 0 0 0 0 0 0 0 0 0 0 0 0 0 0 0 0 0 0 0 0 0 0 0 0 0 0 0 0 0 0 0 0 0 0 0 0 0 0 0 0 0 0 0 0 0 0 0 0 0 0 0 0 0 0 0 0 0 0 0 0 0 0 0 0 0 0 0 0 0 0 0 0 0 0 0 0 0 0 0 0 0 0 0 0 0 0 0 0 0 0 0 0 0 0 0 0 0 0 0 0 0 0 0 0 0 0 0 0 0 0 0 0 0 0 0 0 0 0 0 0 0 0 0 0 0 0 0 0 0 0 0 0 0 0 0 0 0 0 0 0 0 0 0 0 0 0 0 0 0 0 0 0 0 0 0 0 0 0 0 0 0 0 0 0 0 0 0 0 0 0 0 0 0 0 0 1804 2310.17 2522 2830.17 3085.74 2967.9 3002.31 3072.3 3135.69 3419.36 3293.9 3269.63 3298.95 3110.86 3162.58 3312.56 3485.06 3510.73 3307.53 3509.7 3787.05 3368.63 4021.31 4599.52 4823.66 3794.84 4328.17 2540.75 1957.63 1805.67 0 0 0 0 0 0
0 0 0 0 0 0 0 0 0 0 0 0 0 0 0 0 0 0 0 0 0 0 0 0 0 0 0 0 0 0 0 0 0 0 0 0 0 0 0 0 0 0 0 0 0 0 0 0 0 0 0 0 0 0 0 0 0 0 0 0 0 0 0 0 0 0 0 0 0 0 0 0 0 0 0 0 0 0 0 0 0 0 0 0 0 0 0 0 0 0 0 0 0 0 0 0 0 0 0 0 0 0 0 0 0 0 0 0 0 0 0 0 0 0 0 0 0 0 0 0 0 0 0 0 0 0 0 0 0 0 0 0 0 0 0 0 0 0 0 0 0 0 0 0 0 1972.71 3279.41 3333.62 3394.66 3195.95 3418.94 3525.7 3267.28 3313.8 3150.64 3126.63 3165.03 3183.16 3225.44 3156.04 3161.63 3244.78 3191.45 3246.6 3974.35 3207.26 3187.33 4113.8 4004.81 3167.59 3026.03 3075.34 3044.53 2892.28 2533.23 2329.26 2359.19 1814.71 1771.93 1942.88 1590.04 1613.2 1712.14 0 0 0 0 0 0 0 0 0 0 0 0 0 0 0 0 0 0 0 0 0 0 0 0 0 0 0 0 0 0 0 0 0 0 0 0 0 0 0 0 0 0 0 0 0 0 0 0 0 0 0 0 0 0 0 0 0 0 0 0 0 0 0 0 0 0 0 0 0 0 0 0 0 0 0 0 0 0 0 0 0 0 0 0 0 0 0 0 0 0 0 0 0 0 0 0 0 0 0 0 0 0 0 0 0 0 0 0 0 0 0 0 0 0 0 0 0 0 0 0 0 0 0 0 0 0 0 0 0 0 0 0 0 0 0 0 0 0 0 0 0 0 0 0 0 0 0 0 0 0 0 0 0 0 0 0 0 0 0 0 0 0 0 0 0 0 0 0 0 0 0 0 0 0 0 0 0 0 0 0 0 0 0 0 0 0 0 0 0 0 0 0 0 0 0 0 0 0 0 0 0 0 0 0 0 0 0 0 0 0 0 0 0 0 0 0 0 0 0 0 0 0 0 0 0 0 0 0 0 0 0 0 0 0 0 0 0 0 0 0 0 0 0 0 0 0 0 0 0 0 0 0 0 0 0 0 0 0 0 0 0 0 0 0 0 0 0 0 0 0 0 0 0 0 0 0 0 0 0 0 0 0 0 0 0 0 0 0 0 0 0 0 0 1498.27 2145.02 2415.71 2830.51 2982.83 2916.97 2955.45 3017.75 3186.61 3535.81 3428.86 3392.12 3305.12 3075.34 3070.95 3113.46 3332.5 3210.88 3009.36 2998.13 0 0 0 4211.91 4906.18 4885.32 0 4333.53 3188.3 2534.99 0 0 0 0 0 0
0 0 0 0 0 0 0 0 0 0 0 0 0 0 0 0 0 0 0 0 0 0 0 0 0 0 0 0 0 0 0 0 0 0 0 0 0 0 0 0 0 0 0 0 0 0 0 0 0 0 0 0 0 0 0 0 0 0 0 0 0 0 0 0 0 0 0 0 0 0 0 0 0 0 0 0 0 0 0 0 0 0 0 0 0 0 0 0 0 0 0 0 0 0 0 0 0 0 0 0 0 0 0 0 0 0 0 0 0 0 0 0 0 0 0 0 0 0 0 0 0 0 0 0 0 0 0 0 0 0 0 0 0 0 0 0 0 0 0 0 0 0 0 0 0 2191.7 3222.9 3463.26 3494.28 3318.92 5554.03 3649.48 3339.26 3370.18 3220.8 3174.01 3177.49 3180.63 3221.05 3144.91 3136.8 3206.03 3171.31 3204.5 3198.7 3168.19 3187.76 3133.11 3123.83 3111.84 3012.66 3085.18 3125.46 2951.97 2626.3 2211.22 2306.81 1823.71 1838.74 0 0 1295.35 0 0 0 0 0 0 0 0 0 0 0 0 0 0 0 0 0 0 0 0 0 0 0 0 0 0 0 0 0 0 0 0 0 0 0 0 0 0 0 0 0 0 0 0 0 0 0 0 0 0 0 0 0 0 0 0 0 0 0 0 0 0 0 0 0 0 0 0 0 0 0 0 0 0 0 0 0 0 0 0 0 0 0 0 0 0 0 0 0 0 0 0 0 0 0 0 0 0 0 0 0 0 0 0 0 0 0 0 0 0 0 0 0 0 0 0 0 0 0 0 0 0 0 0 0 0 0 0 0 0 0 0 0 0 0 0 0 0 0 0 0 0 0 0 0 0 0 0 0 0 0 0 0 0 0 0 0 0 0 0 0 0 0 0 0 0 0 0 0 0 0 0 0 0 0 0 0 0 0 0 0 0 0 0 0 0 0 0 0 0 0 0 0 0 0 0 0 0 0 0 0 0 0 0 0 0 0 0 0 0 0 0 0 0 0 0 0 0 0 0 0 0 0 0 0 0 0 0 0 0 0 0 0 0 0 0 0 0 0 0 0 0 0 0 0 0 0 0 0 0 0 0 0 0 0 0 0 0 0 0 0 0 0 0 0 0 0 0 0 0 0 0 0 0 0 0 0 0 0 0 0 0 0 0 0 0 0 0 0 0 0 0 0 0 1388.64 0 2274.78 2487.93 2638.03 2602.02 2606.59 2730.01 2982.88 3470.5 3271.23 3296.48 3317.54 3084.61 3237.21 3347.79 3651.78 3620.5 3458.05 0 0 0 0 3887.43 4034.47 3889.32 3559.44 3059.35 2794.53 2650.7 0 0 0 0 0 0
0 0 0 0 0 0 0 0 0 0 0 0 0 0 0 0 0 0 0 0 0 0 0 0 0 0 0 0 0 0 0 0 0 0 0 0 0 0 0 0 0 0 0 0 0 0 0 0 0 0 0 0 0 0 0 0 0 0 0 0 0 0 0 0 0 0 0 0 0 0 0 0 0 0 0 0 0 0 0 0 0 0 0 0 0 0 0 0 0 0 0 0 0 0 0 0 0 0 0 0 0 0 0 0 0 0 0 0 0 0 0 0 0 0 0 0 0 0 0 0 0 0 0 0 0 0 0 0 0 0 0 0 0 0 0 0 0 0 0 0 0 0 0 0 0 2582.84 3297.78 3386.24 3347.99 3282.55 3470.43 3528.52 3281.91 3286.54 3169.51 3178.34 3149.7 3174.97 3207.32 3146.8 3135.92 3190.73 3156.87 3199.73 3158.35 3146.98 3165.92 3108.61 3103.55 3094.74 2983.09 3116.75 3090.92 2993.31 2678.75 2257.03 2231.87 0 1649 1685.19 0 1290.97 0 0 0 0 0 0 0 0 0 0 0 0 0 0 0 0 0 0 0 0 0 0 0 0 0 0 0 0 0 0 0 0 0 0 0 0 0 0 0 0 0 0 0 0 0 0 0 0 0 0 0 0 0 0 0 0 0 0 0 0 0 0 0 0 0 0 0 0 0 0 0 0 0 0 0 0 0 0 0 0 0 0 0 0 0 0 0 0 0 0 0 0 0 0 0 0 0 0 0 0 0 0 0 0 0 0 0 0 0 0 0 0 0 0 0 0 0 0 0 0 0 0 0 0 0 0 0 0 0 0 0 0 0 0 0 0 0 0 0 0 0 0 0 0 0 0 0 0 0 0 0 0 0 0 0 0 0 0 0 0 0 0 0 0 0 0 0 0 0 0 0 0 0 0 0 0 0 0 0 0 0 0 0 0 0 0 0 0 0 0 0 0 0 0 0 0 0 0 0 0 0 0 0 0 0 0 0 0 0 0 0 0 0 0 0 0 0 0 0 0 0 0 0 0 0 0 0 0 0 0 0 0 0 0 0 0 0 0 0 0 0 0 0 0 0 0 0 0 0 0 0 0 0 0 0 0 0 0 0 0 0 0 0 0 0 0 0 0 0 0 0 0 0 0 0 0 0 0 0 0 0 0 0 0 0 0 0 0 0 0 0 0 0 0 0 0 0 2374.21 2589.49 2641.89 2596.23 2729.21 2995.29 3582.62 3429.29 3422.15 3424.18 3035.33 3055.07 3095.76 3404.58 3174.55 2939.15 2766.34 0 0 0 0 0 2649.98 0 2822.08 3067.63 2985.7 0 0 0 0 0 0
0 0 0 0 0 0 0 0 0 0 0 0 0 0 0 0 0 0 0 0 0 0 0 0 0 0 0 0 0 0 0 0 0 0 0 0 0 0 0 0 0 0 0 0 0 0 0 0 0 0 0 0 0 0 0 0 0 0 0 0 0 0 0 0 0 0 0 0 0 0 0 0 0 0 0 0 0 0 0 0 0 0 0 0 0 0 0 0 0 0 0 0 0 0 0 0 0 0 0 0 0 0 0 0 0 0 0 0 0 0 0 0 0 0 0 0 0 0 0 0 0 0 0 0 0 0 0 0 0 0 0 0 0 0 0 0 0 0 0 0 0 0 0 0 0 2855.02 3324.7 3417.34 3471.79 3326.62 3505.45 3570.27 3396.66 3333.22 3234.15 3247.55 3210.32 3198.15 3232.65 3170.53 3182.37 3214.51 3197.84 3249.81 3201.75 3192.12 3216.91 3183.52 3194.49 3132.82 3061.59 4357.96 4623.61 3018.19 2772.6 2255.45 2193.88 1750.16 1581.27 1580.6 1120.85 1138.25 0 0 0 0 0 0 0 0 0 0 0 0 0 0 0 0 0 0 0 0 0 0 0 0 0 0 0 0 0 0 0 0 0 0 0 0 0 0 0 0 0 0 0 0 0 0 0 0 0 0 0 0 0 0 0 0 0 0 0 0 0 0 0 0 0 0 0 0 0 0 0 0 0 0 0 0 0 0 0 0 0 0 0 0 0 0 0 0 0 0 0 0 0 0 0 0 0 0 0 0 0 0 0 0 0 0 0 0 0 0 0 0 0 0 0 0 0 0 0 0 0 0 0 0 0 0 0 0 0 0 0 0 0 0 0 0 0 0 0 0 0 0 0 0 0 0 0 0 0 0 0 0 0 0 0 0 0 0 0 0 0 0 0 0 0 0 0 0 0 0 0 0 0 0 0 0 0 0 0 0 0 0 0 0 0 0 0 0 0 0 0 0 0 0 0 0 0 0 0 0 0 0 0 0 0 0 0 0 0 0 0 0 0 0 0 0 0 0 0 0 0 0 0 0 0 0 0 0 0 0 0 0 0 0 0 0 0 0 0 0 0 0 0 0 0 0 0 0 0 0 0 0 0 0 0 0 0 0 0 0 0 0 0 0 0 0 0 0 0 0 0 0 0 0 0 0 0 0 0 0 0 0 0 0 0 0 0 0 0 0 0 0 0 0 0 0 0 0 0 2223.09 2177.02 2412.45 2693.03 3170.17 3198.27 0 0 0 0 0 0 0 0 0 0 0 0 0 0 0 0 3355.49 3393.98 0 2622.03 0 0 0 0 0
0 0 0 0 0 0 0 0 0 0 0 0 0 0 0 0 0 0 0 0 0 0 0 0 0 0 0 0 0 0 0 0 0 0 0 0 0 0 0 0 0 0 0 0 0 0 0 0 0 0 0 0 0 0 0 0 0 0 0 0 0 0 0 0 0 0 0 0 0 0 0 0 0 0 0 0 0 0 0 0 0 0 0 0 0 0 0 0 0 0 0 0 0 0 0 0 0 0 0 0 0 0 0 0 0 0 0 0 0 0 0 0 0 0 0 0 0 0 0 0 0 0 0 0 0 0 0 0 0 0 0 0 0 0 0 0 0 0 0 0 0 0 0 0 0 2631.61 3007.32 3049.96 3196.5 3136.04 3332.83 3413.93 3275.38 3271.54 3196.01 3211.86 3190.18 3164.55 3248.8 3186.85 3219.01 3270.52 3237.71 3276.34 3259.72 3244.03 3271.1 3187.7 3224.33 3135.28 3083.14 3109.88 3086.03 2824.41 2653.71 2139.74 2060.18 1629.86 1620.37 1441.96 1020.76 692.244 0 0 0 0 0 0 0 0 0 0 0 0 0 0 0 0 0 0 0 0 0 0 0 0 0 0 0 0 0 0 0 0 0 0 0 0 0 0 0 0 0 0 0 0 0 0 0 0 0 0 0 0 0 0 0 0 0 0 0 0 0 0 0 0 0 0 0 0 0 0 0 0 0 0 0 0 0 0 0 0 0 0 0 0 0 0 0 0 0 0 0 0 0 0 0 0 0 0 0 0 0 0 0 0 0 0 0 0 0 0 0 0 0 0 0 0 0 0 0 0 0 0 0 0 0 0 0 0 0 0 0 0 0 0 0 0 0 0 0 0 0 0 0 0 0 0 0 0 0 0 0 0 0 0 0 0 0 0 0 0 0 0 0 0 0 0 0 0 0 0 0 0 0 0 0 0 0 0 0 0 0 0 0 0 0 0 0 0 0 0 0 0 0 0 0 0 0 0 0 0 0 0 0 0 0 0 0 0 0 0 0 0 0 0 0 0 0 0 0 0 0 0 0 0 0 0 0 0 0 0 0 0 0 0 0 0 0 0 0 0 0 0 0 0 0 0 0 0 0 0 0 0 0 0 0 0 0 0 0 0 0 0 0 0 0 0 0 0 0 0 0 0 0 0 0 0 0 0 0 0 0 0 0 0 0 0 0 0 0 0 0 0 0 0 0 0 0 0 0 0 2256.64 2503.19 2628.48 3064.94 3086.31 0 0 0 0 0 0 0 0 0 0 0 0 0 3883.83 3445.27 3626.68 3853.59 3818.59 3848.64 3328.07 3024.88 3003.39 2898.27 2963.13 2765.47
0 0 0 0 0 0 0 0 0 0 0 0 0 0 0 0 0 0 0 0 0 0 0 0 0 0 0 0 0 0 0 0 0 0 0 0 0 0 0 0 0 0 0 0 0 0 0 0 0 0 0 0 0 0 0 0 0 0 0 0 0 0 0 0 0 0 0 0 0 0 0 0 0 0 0 0 0 0 0 0 0 0 0 0 0 0 0 0 0 0 0 0 0 0 0 0 0 0 0 0 0 0 0 0 0 0 0 0 0 0 0 0 0 0 0 0 0 0 0 0 0 0 0 0 0 0 0 0 0 0 0 0 0 0 0 0 0 0 0 0 0 0 0 0 2622.4 2945.44 3059.86 2907.06 3054.12 2973.95 3156.45 3221.67 3086.03 3106.31 3094.11 3122.26 3125.99 3082.51 3167.89 3098.05 3156.27 3218.51 3167.36 3200.71 3196.44 3171.67 3196.87 3122.03 3195.34 3114.44 3072.18 3097.36 3055.01 2868.84 2763.19 2316.04 2171.05 1837.18 1671.21 1286.72 625.468 258.703 0 0 0 0 0 0 0 0 0 0 0 0 0 0 0 0 0 0 0 0 0 0 0 0 0 0 0 0 0 0 0 0 0 0 0 0 0 0 0 0 0 0 0 0 0 0 0 0 0 0 0 0 0 0 0 0 0 0 0 0 0 0 0 0 0 0 0 0 0 0 0 0 0 0 0 0 0 0 0 0 0 0 0 0 0 0 0 0 0 0 0 0 0 0 0 0 0 0 0 0 0 0 0 0 0 0 0 0 0 0 0 0 0 0 0 0 0 0 0 0 0 0 0 0 0 0 0 0 0 0 0 0 0 0 0 0 0 0 0 0 0 0 0 0 0 0 0 0 0 0 0 0 0 0 0 0 0 0 0 0 0 0 0 0 0 0 0 0 0 0 0 0 0 0 0 0 0 0 0 0 0 0 0 0 0 0 0 0 0 0 0 0 0 0 0 0 0 0 0 0 0 0 0 0 0 0 0 0 0 0 0 0 0 0 0 0 0 0 0 0 0 0 0 0 0 0 0 0 0 0 0 0 0 0 0 0 0 0 0 0 0 0 0 0 0 0 0 0 0 0 0 0 0 0 0 0 0 0 0 0 0 0 0 0 0 0 0 0 0 0 0 0 0 0 0 0 0 0 0 0 0 0 0 0 0 0 0 0 0 0 0 0 0 0 0 0 0 0 0 0 0 0 0 0 0 0 0 0 0 0 0 0 2984.16 3160.97 0 0 0 3680.54 3971.72 3778.77 3951.33 4163 3998.6 3998.6 3470.21 3350.73 3409.63 3338.73 3387.74 3273.84
0 0 0 0 0 0 0 0 0 0 0 0 0 0 0 0 0 0 0 0 0 0 0 0 0 0 0 0 0 0 0 0 0 0 0 0 0 0 0 0 0 0 0 0 0 0 0 0 0 0 0 0 0 0 0 0 0 0 0 0 0 0 0 0 0 0 0 0 0 0 0 0 0 0 0 0 0 0 0 0 0 0 0 0 0 0 0 0 0 0 0 0 0 0 0 0 0 0 0 0 0 0 0 0 0 0 0 0 0 0 0 0 0 0 0 0 0 0 0 0 0 0 0 0 0 0 0 0 0 0 0 0 0 0 0 0 0 0 0 0 0 0 0 0 2676.53 2713.06 2836.54 2830.55 2955.45 2984.37 3174.79 3234.96 3148.16 3148.87 3176.23 3229.98 3212.97 3165.2 3206.21 3125.99 3171.67 3419.29 3153.37 3164.67 3131.06 3086.48 3124.77 3041.17 3107 3015.42 2966.64 3001.18 2999.73 2830.6 2870.7 2249.62 2211.16 2032.43 1661.66 1288.1 898.809 972.698 1121.77 0 0 0 0 0 0 0 0 0 0 0 0 0 0 0 0 0 0 0 0 0 0 0 0 0 0 0 0 0 0 0 0 0 0 0 0 0 0 0 0 0 0 0 0 0 2200.95 0 0 0 0 1884.76 0 1402.39 0 0 0 0 0 0 0 0 0 0 0 0 0 0 0 0 0 0 0 0 0 0 0 0 0 0 0 0 0 0 0 0 0 0 0 0 0 0 0 0 0 0 0 0 0 0 0 0 0 0 0 0 0 0 0 0 0 0 0 0 0 0 0 0 0 0 0 0 0 0 0 0 0 0 0 0 0 0 0 0 0 0 0 0 0 0 0 0 0 0 0 0 0 0 0 0 0 0 0 0 0 0 0 0 0 0 0 0 0 0 0 0 0 0 0 0 0 0 0 0 0 0 0 0 0 0 0 0 0 0 0 0 0 0 0 0 0 0 0 0 0 0 0 0 0 0 0 0 0 0 0 0 0 0 0 0 0 0 0 0 0 0 0 0 0 0 0 0 0 0 0 0 0 0 0 0 0 0 0 0 0 0 0 0 0 0 0 0 0 0 0 0 0 0 0 0 0 0 0 0 0 0 0 0 0 0 0 0 0 0 0 0 0 0 0 0 0 0 0 0 0 0 0 0 0 0 0 0 0 0 0 0 0 0 0 0 0 0 0 0 0 0 0 0 0 0 0 0 0 0 0 0 0 0 0 0 0 0 2868.3 3126.75 0 0 0 3645.44 3775.12 3625.59 3911.62 4005.57 3917.2 4017.94 3605.41 3551.53 3562.31 3567.23 3634.07 3445.77
0 0 0 0 0 0 0 0 0 0 0 0 0 0 0 0 0 0 0 0 0 0 0 0 0 0 0 0 0 0 0 0 0 0 0 0 0 0 0 0 0 0 0 0 0 0 0 0 0 0 0 0 0 0 0 0 0 0 0 0 0 0 0 0 0 0 0 0 0 0 0 0 0 0 0 0 0 0 0 0 0 0 0 0 0 0 0 0 0 0 0 0 0 0 0 0 0 0 0 0 0 0 0 0 0 0 0 0 0 0 0 0 0 0 0 0 0 0 0 0 0 0 0 0 0 0 0 0 0 0 0 0 0 0 0 0 0 0 0 0 0 0 0 2275.71 2535.41 2578.23 2772.97 2792.63 2869.72 2971.26 3119.94 3133.46 3110.17 3118.55 3155.44 3207.99 3192.91 3157.94 3180.32 3120.7 3152.06 3191.58 3140.15 3138.38 3090.4 3046.25 3076.46 3011.31 3096.16 3048.79 3000.49 3001.77 3022.32 2862.43 2908.83 2316.2 2227.99 2080.2 1751.86 1199.11 692.362 970.139 0 0 0 0 0 0 0 0 0 0 0 0 0 0 0 0 0 0 0 0 0 0 0 0 0 0 0 0 0 0 0 0 0 0 0 0 0 0 0 0 0 2475.6 2378.73 2336 2547.89 0 2372.47 2561.43 2568.92 2214.99 2133.31 2174.23 2399.55 1802.64 1364.42 1266.44 0 0 0 0 0 0 0 0 0 0 0 0 0 0 0 0 0 0 0 0 0 0 0 0 0 0 0 0 0 0 0 0 0 0 0 0 0 0 0 0 0 0 0 0 0 0 0 0 0 0 0 0 0 0 0 0 0 0 0 0 0 0 0 0 0 0 0 0 0 0 0 0 0 0 0 0 0 0 0 0 0 0 0 0 0 0 0 0 0 0 0 0 0 0 0 0 0 0 0 0 0 0 0 0 0 0 0 0 0 0 0 0 0 0 0 0 0 0 0 0 0 0 0 0 0 0 0 0 0 0 0 0 0 0 0 0 0 0 0 0 0 0 0 0 0 0 0 0 0 0 0 0 0 0 0 0 0 0 0 0 0 0 0 0 0 0 0 0 0 0 0 0 0 0 0 0 0 0 0 0 0 0 0 0 0 0 0 0 0 0 0 0 0 0 0 0 0 0 0 0 0 0 0 0 0 0 0 0 0 0 0 0 0 0 0 0 0 0 0 0 0 0 0 0 0 0 0 0 0 0 0 0 0 0 0 0 0 0 0 0 0 0 0 0 0 0 0 0 0 0 0 0 0 0 0 0 2576.25 2508.39 0 0 0 3712.55 3970.12 3874.23 4057.59 4060.93 4057.79 3979.82 3722.35 3682.08 3692.37 3687.58 3706.56 3569.21
0 0 0 0 0 0 0 0 0 0 0 0 0 0 0 0 0 0 0 0 0 0 0 0 0 0 0 0 0 0 0 0 0 0 0 0 0 0 0 0 0 0 0 0 0 0 0 0 0 0 0 0 0 0 0 0 0 0 0 0 0 0 0 0 0 0 0 0 0 0 0 0 0 0 0 0 0 0 0 0 0 0 0 0 0 0 0 0 0 0 0 0 0 0 0 0 0 0 0 0 0 0 0 0 0 0 0 0 0 0 0 0 0 0 0 0 0 0 0 0 0 0 0 0 0 0 0 0 0 0 0 0 0 0 0 0 0 0 0 0 0 0 0 2548.82 2751.77 2752.49 2812.95 2875.28 2924.6 2975.84 3063.32 3142.5 3175.99 3183.7 3207.75 3272.63 3237.96 3217.71 3243.03 3192.37 3205.36 3206.09 3142.79 3154.43 3127.44 3108.32 3124.47 3031.77 3150.46 3109.82 4747.37 3096.79 3096.39 2902.24 2888.79 2397.66 2326.93 2047.03 1509.77 1202.24 1186.48 1375.67 0 0 0 0 0 0 0 0 0 0 0 0 0 0 0 0 0 0 0 0 0 0 0 0 0 0 0 0 0 0 0 0 0 0 0 0 0 0 0 2211.43 2468.2 2806.83 2609.47 2728.72 2911.5 3033.52 2886.81 3127.15 3174.13 2990.43 2712.58 2998.55 3187.03 2790.68 2365.74 2131.04 1702.58 1540.53 1149.89 0 0 0 0 0 0 0 0 0 0 0 0 0 0 0 0 0 0 0 0 0 0 0 0 0 0 0 0 0 0 0 0 0 0 0 0 0 0 0 0 0 0 0 0 0 0 0 0 0 0 0 0 0 0 0 0 0 0 0 0 0 0 0 0 0 0 0 0 0 0 0 0 0 0 0 0 0 0 0 0 0 0 0 0 0 0 0 0 0 0 0 0 0 0 0 0 0 0 0 0 0 0 0 0 0 0 0 0 0 0 0 0 0 0 0 0 0 0 0 0 0 0 0 0 0 0 0 0 0 0 0 0 0 0 0 0 0 0 0 0 0 0 0 0 0 0 0 0 0 0 0 0 0 0 0 0 0 0 0 0 0 0 0 0 0 0 0 0 0 0 0 0 0 0 0 0 0 0 0 0 0 0 0 0 0 0 0 0 0 0 0 0 0 0 0 0 0 0 0 0 0 0 0 0 0 0 0 0 0 0 0 0 0 0 0 0 0 0 0 0 0 0 0 0 0 0 0 0 0 0 0 0 0 0 0 0 0 0 0 0 0 0 0 0 0 0 0 0 0 0 0 0 0 0 0 0 3226.75 3512.49 3618.16 4030.98 4014.68 4086.85 4127.77 4476.08 4364.65 3945.57 3884.46 3849.61 3812.34 3812.69 3754.76
0 0 0 0 0 0 0 0 0 0 0 0 0 0 0 0 0 0 0 0 0 0 0 0 0 0 0 0 0 0 0 0 0 0 0 0 0 0 0 0 0 0 0 0 0 0 0 0 0 0 0 0 0 0 0 0 0 0 0 0 0 0 0 0 0 0 0 0 0 0 0 0 0 0 0 0 0 0 0 0 0 0 0 0 0 0 0 0 0 0 0 0 0 0 0 0 0 0 0 0 0 0 0 0 0 0 0 0 0 0 0 0 0 0 0 0 0 0 0 0 0 0 0 0 0 0 0 0 0 0 0 0 0 0 0 0 0 0 0 0 0 0 0 2915.3 3066.34 2987.02 2958.22 3027.06 2939.76 3016.83 3078.78 3111.21 3144.21 3123.19 3169.51 3236.77 3193.7 3198.33 3220.99 3168.61 3197.78 3199.37 4366.69 4450.79 4550.99 4751.94 4935.04 3046.97 3180.5 3159.54 3149.16 3137.27 3152.36 2955.3 3055.96 2619.37 2724.51 2229.88 1621.98 941.557 871.054 383.218 449.715 0 0 0 0 0 0 0 0 0 0 0 0 0 0 0 0 0 0 0 0 0 0 0 0 0 0 0 0 0 0 0 0 0 0 0 1332.93 1940.31 2118.74 2292.12 2463.24 2717.85 2570.37 2741.97 2913.88 3126.16 2917.83 2995.61 3022.05 2978.22 2838.41 3063.32 3205.48 2897.27 2580.18 2566.83 2232.41 2075.42 1575.17 0 0 0 0 0 0 0 0 0 0 0 0 0 0 0 0 0 0 0 0 0 0 0 0 0 0 0 0 0 0 0 0 0 0 0 0 0 0 0 0 0 0 0 0 0 0 0 0 0 0 0 0 0 0 0 0 0 0 0 0 0 0 0 0 0 0 0 0 0 0 0 0 0 0 0 0 0 0 0 0 0 0 0 0 0 0 0 0 0 0 0 0 0 0 0 0 0 0 0 0 0 0 0 0 0 0 0 0 0 0 0 0 0 0 0 0 0 0 0 0 0 0 0 0 0 0 0 0 0 0 0 0 0 0 0 0 0 0 0 0 0 0 0 0 0 0 0 0 0 0 0 0 0 0 0 0 0 0 0 0 0 0 0 0 0 0 0 0 0 0 0 0 0 0 0 0 0 0 0 0 0 0 0 0 0 0 0 0 0 0 0 0 0 0 0 0 0 0 0 0 0 0 0 0 0 0 0 0 0 0 0 0 0 0 0 0 0 0 0 0 0 0 0 0 0 0 0 0 0 0 0 0 0 0 0 0 0 0 0 0 0 0 0 0 0 0 0 0 0 0 0 0 0 0 0 2068.92 0 3755.6 3737.28 3889.77 3844.76 3869.67 3927.37 4029.33 4352.42 4110.78 3704.6 3685.72 3684.83 3718.23 3679.66
0 0 0 0 0 0 0 0 0 0 0 0 0 0 0 0 0 0 0 0 0 0 0 0 0 0 0 0 0 0 0 0 0 0 0 0 0 0 0 0 0 0 0 0 0 0 0 0 0 0 0 0 0 0 0 0 0 0 0 0 0 0 0 0 0 0 0 0 0 0 0 0 0 0 0 0 0 0 0 0 0 0 0 0 0 0 0 0 0 0 0 0 0 0 0 0 0 0 0 0 0 0 0 0 0 0 0 0 0 0 0 0 0 0 0 0 0 0 0 0 0 0 0 0 0 0 0 0 0 0 0 0 0 0 0 0 0 0 0 0 0 0 0 2909.28 3105.16 3001.13 2940.9 2944.41 2840.09 2956.03 3038.47 3041.55 3103.04 3101.72 3139.15 3202.24 3166.76 3211.31 3324.05 3133.23 3162.82 3166.94 3093.2 3469.49 3107.46 3118.03 3128.38 2995.45 3136.51 3141.5 3099.14 3093.54 3009.96 2804.48 2902.74 2738.61 2780.18 2300.2 1513.5 724.429 946.353 0 0 0 0 0 0 0 0 0 0 0 0 0 0 0 0 0 0 0 0 0 0 0 0 0 0 0 0 0 0 0 0 0 0 0 0 0 1559.95 1990.21 2211.75 2364.98 2411.1 2633.59 2650.57 2724.6 2952.59 3074.38 2960.88 3050.62 3121.8 3242.21 3151.12 3197.66 3320.76 3132.23 2938.42 2847.75 2591.85 2423.43 1876.05 2258.98 2388.07 0 0 0 0 0 0 0 0 0 0 0 0 0 0 0 0 0 0 0 0 0 0 0 0 0 0 0 0 0 0 0 0 0 0 0 0 0 0 0 0 0 0 0 0 0 0 0 0 0 0 0 0 0 0 0 0 0 0 0 0 0 0 0 0 0 0 0 0 0 0 0 0 0 0 0 0 0 0 0 0 0 0 0 0 0 0 0 0 0 0 0 0 0 0 0 0 0 0 0 0 0 0 0 0 0 0 0 0 0 0 0 0 0 0 0 0 0 0 0 0 0 0 0 0 0 0 0 0 0 0 0 0 0 0 0 0 0 0 0 0 0 0 0 0 0 0 0 0 0 0 0 0 0 0 0 0 0 0 0 0 0 0 0 0 0 0 0 0 0 0 0 0 0 0 0 0 0 0 0 0 0 0 0 0 0 0 0 0 0 0 0 0 0 0 0 0 0 0 0 0 0 0 0 0 0 0 0 0 0 0 0 0 0 0 0 0 0 0 0 0 0 0 0 0 0 0 0 0 0 0 0 0 0 0 0 0 0 0 0 0 0 0 0 0 0 0 0 0 0 0 0 0 0 2331.46 3682.08 3881.13 3994.98 4054.06 4004.9 4013.33 4021.03 4390.57 4389.43 4235.83 4237.01 4181.15 4150.54 4103.24 4018.62
0 0 0 0 0 0 0 0 0 0 0 0 0 0 0 0 0 0 0 0 0 0 0 0 0 0 0 0 0 0 0 0 0 0 0 0 0 0 0 0 0 0 0 0 0 0 0 0 0 0 0 0 0 0 0 0 0 0 0 0 0 0 0 0 0 0 0 0 0 0 0 0 0 0 0 0 0 0 0 0 0 0 0 0 0 0 0 0 0 0 0 0 0 0 0 0 0 0 0 0 0 0 0 0 0 0 0 0 0 0 0 0 0 0 0 0 0 0 0 0 0 0 0 0 0 0 0 0 0 0 0 0 0 0 0 0 0 0 0 0 0 0 0 2769.99 3089.49 2926.02 2949.27 2993.15 2962.24 3048.4 3097.71 3092 3147.63 3173.77 3199.79 3246.1 3214.14 3259.79 3246.1 3158.53 3217.84 3254.66 3150.29 3182.86 3177.85 3196.81 3174.31 3063.66 3192.12 3143.62 3024.12 3015.1 2944.1 2593.26 2685.18 2636.24 2933.95 2577.72 1697.98 656.82 0 0 0 0 0 0 0 0 0 0 0 0 0 0 0 0 0 0 0 0 0 0 0 0 0 0 0 0 0 0 0 0 0 0 0 0 0 0 2154.85 2282.77 2591.09 2579.7 2594.38 2734.86 2813.14 2789.56 2967.11 3008.88 3024.06 3054.23 3127.79 3148.34 3110.11 3106.02 3155.2 2997.48 3011.53 2895.47 2832.61 2764.15 2350.24 2525.91 2567.85 0 0 0 0 0 0 0 0 0 0 0 0 0 0 0 0 0 0 0 0 0 0 0 0 0 0 0 0 0 0 0 0 0 0 0 0 0 0 0 0 0 0 0 0 0 0 0 0 0 0 0 0 0 0 0 0 0 0 0 0 0 0 0 0 0 0 0 0 0 0 0 0 0 0 0 0 0 0 0 0 0 0 0 0 0 0 0 0 0 0 0 0 0 0 0 0 0 0 0 0 0 0 0 0 0 0 0 0 0 0 0 0 0 0 0 0 0 0 0 0 0 0 0 0 0 0 0 0 0 0 0 0 0 0 0 0 0 0 0 0 0 0 0 0 0 0 0 0 0 0 0 0 0 0 0 0 0 0 0 0 0 0 0 0 0 0 0 0 0 0 0 0 0 0 0 0 0 0 0 0 0 0 0 0 0 0 0 0 0 0 0 0 0 0 0 0 0 0 0 0 0 0 0 0 0 0 0 0 0 0 0 0 0 0 0 0 0 0 0 0 0 0 0 0 0 0 0 0 0 0 0 0 0 0 0 0 0 0 0 0 0 0 0 0 0 0 0 0 0 0 0 0 2515.31 2834.52 3830.1 4017.85 4176.89 4158.87 4136.83 4009.97 4009.21 4196.53 4460.97 4334.2 4295.59 4209.9 4179.9 4122.49 4006.24
0 0 0 0 0 0 0 0 0 0 0 0 0 0 0 0 0 0 0 0 0 0 0 0 0 0 0 0 0 0 0 0 0 0 0 0 0 0 0 0 0 0 0 0 0 0 0 0 0 0 0 0 0 0 0 0 0 0 0 0 0 0 0 0 0 0 0 0 0 0 0 0 0 0 0 0 0 0 0 0 0 0 0 0 0 0 0 0 0 0 0 0 0 0 0 0 0 0 0 0 0 0 0 0 0 0 0 0 0 0 0 0 0 0 0 0 0 0 0 0 0 0 0 0 0 0 0 0 0 0 0 0 0 0 0 0 0 0 0 0 0 0 0 2792.95 2983.68 2876.36 2889.69 2948.75 2894.47 2996.25 3036.05 3025.15 3086.65 3136.33 3147.45 3209.96 3174.13 3236.46 3411.57 3124.24 3492.82 3200.04 3099.71 3158.77 3134.98 3133.4 3089.95 2976.8 3168.73 3177.49 3000.54 2955.04 2808.62 2556.66 2803.17 2744.84 2934.57 2092.74 1377.99 0 0 0 0 0 0 0 0 0 0 0 0 0 0 0 0 0 0 0 0 0 0 0 0 0 0 0 0 0 0 0 0 0 0 0 0 0 0 0 2366.61 2441.66 2649.82 2651.87 2684.33 2914.54 2981.29 3002.79 3162.22 3153.43 3177.85 3234.83 3232.84 3281.98 3222.72 3171.19 3202.85 3063.88 3070.55 2994.38 2916.11 2851.82 2536.22 2507.94 2085.04 0 0 0 0 0 0 0 0 0 0 0 0 0 0 0 0 0 0 0 0 0 0 0 0 0 0 0 0 0 0 0 0 0 0 0 0 0 0 0 0 0 0 0 0 0 0 0 0 0 0 0 0 0 0 0 0 0 0 0 0 0 0 0 0 0 0 0 0 0 0 0 0 0 0 0 0 0 0 0 0 0 0 0 0 0 0 0 0 0 0 0 0 0 0 0 0 0 0 0 0 0 0 0 0 0 0 0 0 0 0 0 0 0 0 0 0 0 0 0 0 0 0 0 0 0 0 0 0 0 0 0 0 0 0 0 0 0 0 0 0 0 0 0 0 0 0 0 0 0 0 0 0 0 0 0 0 0 0 0 0 0 0 0 0 0 0 0 0 0 0 0 0 0 0 0 0 0 0 0 0 0 0 0 0 0 0 0 0 0 0 0 0 0 0 0 0 0 0 0 0 0 0 0 0 0 0 0 0 0 0 0 0 0 0 0 0 0 0 0 0 0 0 0 0 0 0 0 0 0 0 0 0 0 0 0 0 0 0 0 0 0 0 0 0 0 0 0 0 0 0 0 0 2308.11 2689.92 3596.83 3852.61 4080.68 4122.9 4188.88 4047.41 3998.7 4204.2 4315.03 3649.8 3677.56 3596.75 3590.29 3492.17 3506.47
0 0 0 0 0 0 0 0 0 0 0 0 0 0 0 0 0 0 0 0 0 0 0 0 0 0 0 0 0 0 0 0 0 0 0 0 0 0 0 0 0 0 0 0 0 0 0 0 0 0 0 0 0 0 0 0 0 0 0 0 0 0 0 0 0 0 0 0 0 0 0 0 0 0 0 0 0 0 0 0 0 0 0 0 0 0 0 0 0 0 0 0 0 0 0 0 0 0 0 0 0 0 0 0 0 0 0 0 0 0 0 0 0 0 0 0 0 0 0 0 0 0 0 0 0 0 0 0 0 0 0 0 0 0 0 0 0 0 0 0 0 0 0 2948.03 4596.5 2978.7 2955.45 2981.45 2869.62 2974.1 2991.44 2991.34 3095.08 3128.79 3149.76 3247.42 3218.95 3378.8 3308.05 3168.43 3558.53 3193.46 3110.63 3191.76 3111.67 3097.71 3050.57 3002.63 3184.07 3149.22 3039.9 3110.28 2774.25 2820.47 3135.86 3614.96 3908.71 2508.8 0 0 0 0 0 0 0 0 0 0 0 0 0 0 0 0 0 0 0 0 0 0 0 0 0 0 0 0 0 0 0 0 0 0 0 0 0 0 0 2470.24 2758.6 2676.87 2867.27 2805.05 2870.75 3063.04 3086.03 3048.35 3204.74 3242.21 3282.94 3362.89 3402.17 3369.17 3335.41 3310.6 4360.22 3257.25 3292.8 3286.54 3255.17 3179.06 3213.46 3287.76 0 0 0 0 0 0 0 0 0 0 0 0 0 0 0 0 0 0 0 0 0 0 0 0 0 0 0 0 0 0 0 0 0 0 0 0 0 0 0 0 0 0 0 0 0 0 0 0 0 0 0 0 0 0 0 0 0 0 0 0 0 0 0 0 0 0 0 0 0 0 0 0 0 0 0 0 0 0 0 0 0 0 0 0 0 0 0 0 0 0 0 0 0 0 0 0 0 0 0 0 0 0 0 0 0 0 0 0 0 0 0 0 0 0 0 0 0 0 0 0 0 0 0 0 0 0 0 0 0 0 0 0 0 0 0 0 0 0 0 0 0 0 0 0 0 0 0 0 0 0 0 0 0 0 0 0 0 0 0 0 0 0 0 0 0 0 0 0 0 0 0 0 0 0 0 0 0 0 0 0 0 0 0 0 0 0 0 0 0 0 0 0 0 0 0 0 0 0 0 0 0 0 0 0 0 0 0 0 0 0 0 0 0 0 0 0 0 0 0 0 0 0 0 0 0 0 0 0 0 0 0 0 0 0 0 0 0 0 0 0 0 0 0 0 0 0 0 0 0 0 0 0 0 2612.8 2890.39 3596.06 3706.07 3902.16 3923.06 4029.14 3971.25 3956.08 3960.84 4209.16 3631.08 3673.37 3618.16 3625.04 3531.72 3506.69
0 0 0 0 0 0 0 0 0 0 0 0 0 0 0 0 0 0 0 0 0 0 0 0 0 0 0 0 0 0 0 0 0 0 0 0 0 0 0 0 0 0 0 0 0 0 0 0 0 0 0 0 0 0 0 0 0 0 0 0 0 0 0 0 0 0 0 0 0 0 0 0 0 0 0 0 0 0 0 0 0 0 0 0 0 0 0 0 0 0 0 0 0 0 0 0 0 0 0 0 0 0 0 0 0 0 0 0 0 0 0 0 0 0 0 0 0 0 0 0 0 0 0 0 0 0 0 0 0 0 0 0 0 0 0 0 0 0 0 0 0 0 0 2657.54 2840.91 2860.33 2935.49 3024.99 2895.77 3006.18 3031.22 3070.22 3141.03 3126.8 3132.93 3230.47 3185.46 3248.99 3192.91 3160.08 3233.21 3199.43 3172.21 3259.6 3160.97 3145.44 3066.23 2995.08 3178.88 3061.59 2984.95 3055.4 2566.36 2535.68 2747.63 3251.64 3725.66 0 0 0 0 0 0 0 0 0 0 0 0 0 0 0 0 0 0 0 0 0 0 0 0 0 0 0 0 0 0 0 0 0 0 0 0 0 0 0 0 2807.68 2956.55 2880.16 3032.59 2856.68 2870.51 3029.58 3055.45 2938.48 3066.62 3187.94 3207.38 3277.42 3366.46 3347.52 3338.53 3364.03 4299.99 3409.29 3402.23 3463.05 3414.14 3447.96 3646.15 3636.9 3442.23 3027.01 0 0 0 0 0 0 0 0 0 0 0 0 0 0 0 0 0 0 0 0 0 0 0 0 0 0 0 0 0 0 0 0 0 0 0 0 0 0 0 0 0 0 0 0 0 0 0 0 0 0 0 0 0 0 0 0 0 0 0 0 0 0 0 0 0 0 0 0 0 0 0 0 0 0 0 0 0 0 0 0 0 0 0 0 0 0 0 0 0 0 0 0 0 0 0 0 0 0 0 0 0 0 0 0 0 0 0 0 0 0 0 0 0 0 0 0 0 0 0 0 0 0 0 0 0 0 0 0 0 0 0 0 0 0 0 0 0 0 0 0 0 0 0 0 0 0 0 0 0 0 0 0 0 0 0 0 0 0 0 0 0 0 0 0 0 0 0 0 0 0 0 0 0 0 0 0 0 0 0 0 0 0 0 0 0 0 0 0 0 0 0 0 0 0 0 0 0 0 0 0 0 0 0 0 0 0 0 0 0 0 0 0 0 0 0 0 0 0 0 0 0 0 0 0 0 0 0 0 0 0 0 0 0 0 0 0 0 0 0 0 0 0 0 0 0 0 0 0 0 0 0 2830.08 3009.8 3468.99 3663.19 3959.72 3941.58 3986.73 3886.98 3878.44 3906.43 4129.09 3666.23 3706.56 3608.35 3609.21 3527.11 3501.42
0 0 0 0 0 0 0 0 0 0 0 0 0 0 0 0 0 0 0 0 0 0 0 0 0 0 0 0 0 0 0 0 0 0 0 0 0 0 0 0 0 0 0 0 0 0 0 0 0 0 0 0 0 0 0 0 0 0 0 0 0 0 0 0 0 0 0 0 0 0 0 0 0 0 0 0 0 0 0 0 0 0 0 0 0 0 0 0 0 0 0 0 0 0 0 0 0 0 0 0 0 0 0 0 0 0 0 0 0 0 0 0 0 0 0 0 0 0 0 0 0 0 0 0 0 0 0 0 0 0 0 0 0 0 0 0 0 0 0 0 0 0 0 2997.22 3063.15 3184.91 3215.86 5062.5 3011.15 3105.62 3085.63 3148.1 3174.25 3166.64 3129.6 3223.15 3197.66 3254.41 3202.85 3190.18 3259.15 3243.09 3210.45 3303.49 3198.21 3210.57 3140.97 3057.96 3173.65 3057.01 2904.7 2926.74 2465.92 2442.3 2492.11 3028.54 3098.91 1628.07 0 0 0 0 0 0 0 0 0 0 0 0 0 0 0 0 0 0 0 0 0 0 0 0 0 0 0 0 0 0 0 0 0 0 0 0 0 0 1917.06 2467.22 2814.55 2918.69 3175.81 2964.17 3055.84 3198.94 3157.7 3014.56 3059.24 3146.45 3122.21 3188.12 3305.84 3264.8 3248.36 3311.25 3448.81 3526.22 3537.45 3689.77 3615.27 3672.17 4033.79 4201.36 4324.15 4228.15 3628.09 0 0 0 0 0 0 0 0 0 0 0 0 0 0 0 0 0 0 0 0 0 0 0 0 0 0 0 0 0 0 0 0 0 0 0 0 0 0 0 0 0 0 0 0 0 0 0 649.917 498.51 415.022 0 0 0 0 0 0 0 0 0 0 0 0 0 0 0 0 0 0 0 0 0 0 0 0 0 0 0 0 0 0 0 0 0 0 0 0 0 0 0 0 0 0 0 0 0 0 0 0 0 0 0 0 0 0 0 0 0 0 0 0 0 0 0 0 0 0 0 0 0 0 0 0 0 0 0 0 0 0 0 0 0 0 0 0 0 0 0 0 0 0 0 0 0 0 0 0 0 0 0 0 0 0 0 0 0 0 0 0 0 0 0 0 0 0 0 0 0 0 0 0 0 0 0 0 0 0 0 0 0 0 0 0 0 0 0 0 0 0 0 0 0 0 0 0 0 0 0 0 0 0 0 0 0 0 0 0 0 0 0 0 0 0 0 0 0 0 0 0 0 0 0 0 0 0 0 0 0 0 0 0 0 0 0 0 0 0 0 0 0 0 0 0 0 0 0 0 0 0 0 0 3155.8 3341.59 3552.05 3769.35 3967.68 3976.61 4018.71 3857.4 3839.74 3979.35 3889.68 3583.38 3595.98 3513.6 3490.72 3368.15 3369.51
0 0 0 0 0 0 0 0 0 0 0 0 0 0 0 0 0 0 0 0 0 0 0 0 0 0 0 0 0 0 0 0 0 0 0 0 0 0 0 0 0 0 0 0 0 0 0 0 0 0 0 0 0 0 0 0 0 0 0 0 0 0 0 0 0 0 0 0 0 0 0 0 0 0 0 0 0 0 0 0 0 0 0 0 0 0 0 0 0 0 0 0 0 0 0 0 0 0 0 0 0 0 0 0 0 0 0 0 0 0 0 0 0 0 0 0 0 0 0 0 0 0 0 0 0 0 0 0 0 0 0 0 0 0 0 0 0 0 0 0 0 0 0 0 3462.55 3949.65 4366.24 4522.53 4186.79 4259.49 4309.6 3201.75 3163.18 3120.58 3088.47 3165.56 3124.82 3197.17 3163 3149.16 3237.89 3241.27 3204.87 3298.43 3212.6 3246.67 3156.15 3107.29 3206.83 2985.22 2868.59 3179.36 2686.73 2880.36 2949.27 3574.83 3674.34 1818.01 0 0 0 0 0 0 0 0 0 0 0 0 0 0 0 0 0 0 0 0 0 0 0 0 0 0 0 0 0 0 0 0 0 0 0 0 0 0 2230.12 2780.46 2925.82 3024.55 3238.83 3057.79 3090.57 3185.88 3193.09 3043.98 3086.82 3123.89 3132.23 3189.39 3295 3317.47 3286.99 3339.99 3479.21 3538.42 4008.44 3733.7 4157.22 3757.28 3977.09 4404.64 4294.6 4280.79 3721.11 0 0 0 0 0 0 0 0 0 0 0 0 0 0 0 0 0 0 0 0 0 0 0 0 0 0 0 0 0 0 0 0 0 0 0 0 0 0 0 0 0 0 0 0 0 0 0 1251.63 1144.89 911.223 0 0 0 0 0 0 0 0 0 0 0 0 0 0 0 0 0 0 0 0 0 0 0 0 0 0 0 0 0 0 0 0 0 0 0 0 0 0 0 0 0 0 0 0 0 0 0 0 0 0 0 0 0 0 0 0 0 0 0 0 0 0 0 0 0 0 0 0 0 0 0 0 0 0 0 0 0 0 0 0 0 0 0 0 0 0 0 0 0 0 0 0 0 0 0 0 0 0 0 0 0 0 0 0 0 0 0 0 0 0 0 0 0 0 0 0 0 0 0 0 0 0 0 0 0 0 0 0 0 0 0 0 0 0 0 0 0 0 0 0 0 0 0 0 0 0 0 0 0 0 0 0 0 0 0 0 0 0 0 0 0 0 0 0 0 0 0 0 0 0 0 0 0 0 0 0 0 0 0 0 0 0 0 0 0 0 0 0 0 0 0 0 0 0 0 0 0 0 0 0 3187.45 3352.74 3482.6 3652.58 3804.65 3780.05 3901.07 3761.15 3796.21 3775.03 3831.06 3550.47 3541.33 3469.56 3470.93 3346.05 3358.71
0 0 0 0 0 0 0 0 0 0 0 0 0 0 0 0 0 0 0 0 0 0 0 0 0 0 0 0 0 0 0 0 0 0 0 0 0 0 0 0 0 0 0 0 0 0 0 0 0 0 0 0 0 0 0 0 0 0 0 0 0 0 0 0 0 0 0 0 0 0 0 0 0 0 0 0 0 0 0 0 0 0 0 0 0 0 0 0 0 0 0 0 0 0 0 0 0 0 0 0 0 0 0 0 0 0 0 0 0 0 0 0 0 0 0 0 0 0 0 0 0 0 0 0 0 0 0 0 0 0 0 0 0 0 0 0 0 0 0 0 0 0 0 0 3174.79 3297.72 3332.89 4364.08 3139.68 3199.31 3154.97 3189.51 3154.67 3112.13 3102.58 3173.95 3151.65 3222.72 3158.59 3138.33 3256.5 3248.8 3215.43 3260.67 3139.03 3149.58 3058.74 3111.61 3090.97 2798.08 2792.07 3142.09 2727.35 2850.03 2721.38 3356.5 3515.8 319.545 0 0 0 0 0 0 0 0 0 0 0 0 0 0 0 0 0 0 0 0 0 0 0 0 0 0 0 0 0 0 0 0 0 0 0 0 0 0 0 2779.12 3008.02 3162.76 3343.72 3144.8 3160.26 3169.63 3195.22 3031.55 3103.49 3110.98 3124.65 3139.62 3236.71 3238.83 3237.64 3274.42 3414.35 3429.57 3982.18 3546.5 4211.38 3602.93 3846.69 4205.47 4163.72 4073.35 0 0 0 0 0 0 0 0 0 0 0 0 0 0 0 0 0 0 0 0 0 0 0 0 0 0 0 0 0 0 0 0 0 2665.39 2919.35 2940.23 2821.13 2700.7 3038.47 3054.29 0 2824.36 2583.47 2145.43 1879.67 0 0 0 0 1050.97 711.755 0 0 0 0 0 0 0 0 0 0 0 0 0 0 0 0 0 0 0 0 0 0 0 0 0 0 0 0 0 0 0 0 0 0 0 0 0 0 0 0 0 0 0 0 0 0 0 0 0 0 0 0 0 0 0 0 0 0 0 0 0 0 0 0 0 0 0 0 0 0 0 0 0 0 0 0 0 0 0 0 0 0 0 0 0 0 0 0 0 0 0 0 0 0 0 0 0 0 0 0 0 0 0 0 0 0 0 0 0 0 0 0 0 0 0 0 0 0 0 0 0 0 0 0 0 0 0 0 0 0 0 0 0 0 0 0 0 0 0 0 0 0 0 0 0 0 0 0 0 0 0 0 0 0 0 0 0 0 0 0 0 0 0 0 0 0 0 0 0 0 0 0 0 0 0 0 0 0 0 0 0 0 0 0 0 0 0 0 0 0 0 0 0 0 0 0 0 0 0 0 0 3660.55 3658.07 3762.59 3852.61 3738.03 3820.85 4049.07 3710.01 3641.8 3518.83 3434.27 3453.57 3394.11 3413.38 3305.25 3270.27
0 0 0 0 0 0 0 0 0 0 0 0 0 0 0 0 0 0 0 0 0 0 0 0 0 0 0 0 0 0 0 0 0 0 0 0 0 0 0 0 0 0 0 0 0 0 0 0 0 0 0 0 0 0 0 0 0 0 0 0 0 0 0 0 0 0 0 0 0 0 0 0 0 0 0 0 0 0 0 0 0 0 0 0 0 0 0 0 0 0 0 0 0 0 0 0 0 0 0 0 0 0 0 0 0 0 0 0 0 0 0 0 0 0 0 0 0 0 0 0 0 0 0 0 0 0 0 0 0 0 0 0 0 0 0 0 0 0 0 0 0 0 0 0 2747.22 2892.03 3013.53 3040.34 3061.48 3125.58 3082.34 3141.15 3112.48 3074.44 3095.59 3173.77 3194.25 3186.12 3138.74 3105.85 3202.91 3199.49 3165.62 3196.56 3062.48 2940.95 2816.39 2856.43 2758.42 2433.3 2327.06 2544.91 1995.04 1463.93 0 0 0 0 0 0 0 0 0 0 0 0 0 0 0 0 0 0 0 0 0 0 0 0 0 0 0 0 0 0 0 0 0 0 0 0 0 0 0 0 1533.87 1543.22 2541.52 2727.04 3080.31 3181.83 3292.6 3089.15 3160.26 3225.44 3278.71 3151.29 3193.52 3153.37 3229.48 3278.64 3399.06 3395.49 3367.27 3371.74 3469.13 3910.8 4115.21 4155.37 4302.97 3665.03 3829.31 4110.07 4048.68 4000.32 3509.77 1602.45 0 873.935 414.381 0 0 0 0 0 0 0 0 0 0 0 0 0 0 0 0 0 0 0 0 0 0 0 0 0 0 2370.12 2480.79 2518.52 2767.34 2695.11 2628.68 2519.73 2835.86 2957.33 2801.91 2795.09 2663.66 2283.64 2155.93 2177.02 0 0 1429.25 1366.22 1126.42 1114.11 1089.71 0 0 0 0 0 0 0 0 0 0 0 0 0 0 0 0 0 0 0 0 0 0 0 0 0 0 0 0 0 0 0 0 0 0 0 0 0 0 0 0 0 0 0 0 0 0 0 0 0 0 0 0 0 0 0 0 0 0 0 0 0 0 0 0 0 0 0 0 0 0 0 0 0 0 0 0 0 0 0 0 0 0 0 0 0 0 0 0 0 0 0 0 0 0 0 0 0 0 0 0 0 0 0 0 0 0 0 0 0 0 0 0 0 0 0 0 0 0 0 0 0 0 0 0 0 0 0 0 0 0 0 0 0 0 0 0 0 0 0 0 0 0 0 0 0 0 0 0 0 0 0 0 0 0 0 0 0 0 0 0 0 0 0 0 0 0 0 0 0 0 0 0 0 0 0 0 0 0 0 0 0 0 0 0 0 0 0 0 0 0 0 0 0 0 0 0 0 0 0 3408.04 3522.08 3599.07 3749.22 3709.27 3822.59 4068.31 3737.86 3685.48 3581.32 3441.95 3477.55 3422.22 3424.81 3313.8 3263.21
0 0 0 0 0 0 0 0 0 0 0 0 0 0 0 0 0 0 0 0 0 0 0 0 0 0 0 0 0 0 0 0 0 0 0 0 0 0 0 0 0 0 0 0 0 0 0 0 0 0 0 0 0 0 0 0 0 0 0 0 0 0 0 0 0 0 0 0 0 0 0 0 0 0 0 0 0 0 1416.33 1605.05 1577.48 1649.7 1492.77 0 0 0 0 0 0 0 0 0 0 0 0 0 0 0 0 0 0 0 0 0 0 0 0 0 0 0 0 0 0 0 0 0 0 0 0 0 0 0 0 0 0 0 0 0 0 0 0 0 0 0 0 0 0 0 0 0 0 0 0 0 0 2903.59 3078.1 3098.17 3165.32 3203.83 3104.24 3179.48 3142.85 3098.57 3152.54 3269.82 3300.05 3274.03 3215.31 3212.91 3356.09 3327.28 3296.61 3270.59 3097.14 2932.26 2821.23 2936.57 2954.93 2489.07 2366.65 2620.8 2218.06 1798.08 0 0 0 0 0 0 0 0 0 0 0 0 0 0 0 0 0 0 0 0 0 0 0 0 0 0 0 0 0 0 0 0 0 0 0 0 0 0 0 0 0 0 2373.95 2699.75 2951.09 3167 3276.34 3092.11 3212.72 3328.79 3325.82 3205.66 3241.84 3202.36 3250.12 3289.57 3422.08 3367.27 3333.36 3392.95 3494.93 3881.67 4164.24 4218.69 4321.48 3624.8 3810.87 4084.26 3912.17 3778.09 3180.44 1633.19 1167.51 995.956 387.397 0 0 0 0 0 0 0 0 0 0 0 0 0 0 0 0 0 0 0 0 0 0 0 3045.64 2650.4 2482.11 2517.27 2595.1 2607.28 2723.14 2796.03 2666.96 2530.18 2767.07 2913.37 2798.73 2826.22 2704.36 2537.72 2348.26 2570.14 2591.89 2236.04 2027.32 2235.29 1868.34 2148.94 2079.1 0 0 0 0 0 0 0 0 0 0 0 0 0 0 0 0 0 0 0 0 0 0 0 0 0 0 0 0 0 0 0 0 0 0 0 0 0 0 0 0 0 0 0 0 0 0 0 0 0 0 0 0 0 0 0 0 0 0 0 0 0 0 0 0 0 0 0 0 0 0 0 0 0 0 0 0 0 0 0 0 0 0 0 0 0 0 0 0 0 0 0 0 0 0 0 0 0 0 0 0 0 0 0 0 0 0 0 0 0 0 0 0 0 0 0 0 0 0 0 0 0 0 0 0 0 0 0 0 0 0 0 0 0 0 0 0 0 0 0 0 0 0 0 0 0 0 0 0 0 0 0 0 0 0 0 0 0 0 0 0 0 0 0 0 0 0 0 0 0 0 0 0 0 0 0 0 0 0 0 0 0 0 0 0 0 0 0 0 0 0 0 0 0 0 0 0 0 0 3464.34 3180.5 3323.72 3495.37 3655.29 3668.23 3785.59 3708.86 3711.81 3648.13 3594.13 3468.06 3451.22 3388.56 3378.94 3250.63 3198.94
0 0 0 0 0 0 0 0 0 0 0 0 0 0 0 0 0 0 0 0 0 0 0 0 0 0 0 0 0 0 0 0 0 0 0 0 0 0 0 0 0 0 0 0 0 0 0 0 0 0 0 0 0 0 0 0 0 0 0 0 0 0 0 0 0 0 0 0 0 0 0 0 0 0 0 0 0 2379.37 0 2288.53 2046.46 2079.02 0 0 0 0 0 0 0 0 0 0 0 0 0 0 0 0 0 0 0 0 0 0 0 0 0 0 0 0 0 0 0 0 0 0 0 0 0 0 0 0 0 0 0 0 0 0 0 0 0 0 0 0 0 0 0 0 0 0 0 0 0 0 0 2805.33 2918.39 2918.34 2960.09 2990.48 2911 3032.54 3022.32 2890.83 2996.04 3085.12 3166.16 3156.99 3126.51 3112.53 3217.65 3148.16 3238.58 3171.67 3062.03 2820.47 2723.81 2812.57 2866.39 2395.5 2423.99 2502.03 0 0 0 0 0 0 0 0 0 0 0 0 0 0 0 0 0 0 0 0 0 0 0 0 0 0 0 0 0 0 0 0 0 0 0 0 0 0 0 0 0 0 0 1552.59 2055.13 2400.78 2753.22 3191.27 3237.02 3061.76 3155.92 3326.55 3321.15 3219.69 3248.05 3230.72 3217.71 3263.59 3415.95 3417.62 3353.01 3406.79 3770.2 3954.87 4108.56 4196.32 4319.36 3545.6 3682.4 3956.83 3731.96 3351.74 2701.14 0 0 967.549 518.097 473.472 443.844 0 0 0 0 0 0 0 0 0 0 0 0 0 0 0 0 0 0 0 0 0 2889.49 2676.28 2561.43 2594.98 2581.76 2601.86 2712.84 2814.03 2712.45 2742.1 2867.56 2939.92 2820.7 2933.19 2864.43 2678.37 2419.3 2607.16 2537.22 2206.69 0 0 0 0 0 0 0 0 0 0 0 0 0 0 0 0 0 0 0 0 0 0 0 0 0 0 0 0 0 0 0 0 0 0 0 0 0 0 0 0 0 0 0 0 0 0 0 0 0 0 0 0 0 0 0 0 0 0 0 0 0 0 0 0 0 0 0 0 0 0 0 0 0 0 0 0 0 0 0 0 0 0 0 0 0 0 0 0 0 0 0 0 0 0 0 0 0 0 0 0 0 0 0 0 0 0 0 0 0 0 0 0 0 0 0 0 0 0 0 0 0 0 0 0 0 0 0 0 0 0 0 0 0 0 0 0 0 0 0 0 0 0 0 0 0 0 0 0 0 0 0 0 0 0 0 0 0 0 0 0 0 0 0 0 0 0 0 0 0 0 0 0 0 0 0 0 0 0 0 0 0 0 0 0 0 0 0 0 0 0 0 0 0 0 0 0 0 0 0 0 0 0 0 0 3333.62 3355.42 3525.93 3617.53 3629.82 3693.1 3686.93 3685.64 3684.75 3619.8 3483.68 3474.95 3416.65 3409.36 3354.68 3285.83
0 0 0 0 0 0 0 0 0 0 0 0 0 0 0 0 0 0 0 0 0 0 0 0 0 0 0 0 0 0 0 0 0 0 0 0 0 0 0 0 0 0 0 0 0 0 0 0 0 0 0 0 0 0 0 0 0 0 0 0 0 0 0 0 0 0 0 0 0 0 0 0 0 0 0 2929.09 2751.82 2523.29 2526.29 2332.88 2054.35 2096.4 1954.9 0 0 1856.52 2055.84 0 0 0 0 0 0 0 0 0 0 0 0 0 0 0 0 0 0 0 0 0 0 0 0 0 0 0 0 0 0 0 0 0 0 0 0 0 0 0 0 0 0 0 0 0 0 0 0 0 0 0 0 0 0 0 0 0 0 2788.78 2884.03 2927.3 2975.11 2966.85 2863.89 3036.49 2982.14 2792.81 2996.47 3044.09 3129.43 3162.16 3115.77 3139.73 3236.89 3175.21 3266.32 4774.39 3090.46 2921.64 2690.83 2688.71 2538.64 2111.91 2289.84 0 0 0 0 0 0 0 0 0 0 0 0 0 0 0 0 0 0 0 0 0 0 0 0 0 0 0 0 0 0 0 0 0 0 0 0 0 0 0 0 0 0 0 0 0 2402.81 2678.54 2833.95 3356.9 3382.21 3176.47 3239.21 3333.69 3329.39 3175.45 3204.07 3208.91 3170.29 3197.35 3363.02 3334.42 3305.25 3348.06 3509.48 3919.12 4124.52 3680.62 4271.31 3508.75 3720.37 3928.2 3839.65 3668.07 3257.38 1822.46 0 1114.68 532.11 508.801 410.277 0 0 0 0 0 0 0 0 0 0 0 0 0 0 0 0 0 0 0 0 2789.19 2703.97 2584.79 2519.88 2646.31 2681.67 2746.68 2906.51 3008.18 2970.47 2983.68 3085.86 3208.42 3095.19 3164.19 3112.01 2905.15 2674.44 2712.58 2674.61 2278.02 2154.96 0 1962.33 1958.59 1936.64 1918.42 0 0 0 0 0 0 0 0 0 0 0 0 0 0 0 0 0 0 0 0 0 0 0 0 0 0 0 0 0 0 0 0 0 0 0 0 0 0 0 0 0 0 0 0 0 0 0 0 0 0 0 0 0 0 0 0 0 0 0 0 0 0 0 0 0 0 0 0 0 0 0 0 0 0 0 0 0 0 0 0 0 0 0 0 0 0 0 0 0 0 0 0 0 0 0 0 0 0 0 0 0 0 0 0 0 0 0 0 0 0 0 0 0 0 0 0 0 0 0 0 0 0 0 0 0 0 0 0 0 0 0 0 0 0 0 0 0 0 0 0 0 0 0 0 0 0 0 0 0 0 0 0 0 0 0 0 0 0 0 0 0 0 0 0 0 0 0 0 0 0 0 0 0 0 0 0 0 0 0 0 0 0 0 0 0 0 0 0 0 0 0 0 0 0 0 0 0 0 3412.89 3306.1 3466.27 3499.23 3529.56 3592.75 3585.61 3614.96 3612.71 3623.55 3589.36 4006.91 3946.59 3542.6 3508.01 3476.11
0 0 0 0 0 0 0 0 0 0 0 0 0 0 0 0 0 0 0 0 0 0 0 0 0 0 0 0 0 0 0 0 0 0 0 0 0 0 0 0 0 0 0 0 0 0 0 0 0 0 0 0 0 0 0 0 0 0 0 0 0 0 0 0 0 0 0 0 0 0 0 0 2528.77 2642.14 2844.28 3078.84 2806.6 2613.13 2752.81 2524.24 2318.92 2428.34 2143.21 2076.06 2103.36 2265.14 2741.21 0 0 0 0 0 0 0 0 0 0 0 0 0 0 0 0 0 0 0 0 0 0 0 0 0 0 0 0 0 0 0 0 0 0 0 0 0 0 0 0 0 0 0 0 0 0 0 0 0 0 0 0 0 0 0 0 0 0 0 2723.67 2873.7 3020.53 2945.13 2857.89 3075.73 2974.16 2761.37 3020.91 2988.73 3038.91 3035.94 3027.06 3046.69 3055.79 3085.35 4108.66 4858.3 3879.34 2985.64 2813.09 2800.83 2642.01 2195.17 0 0 0 0 0 0 0 0 0 0 0 0 0 0 0 0 0 0 0 0 0 0 0 0 0 0 0 0 0 0 0 0 0 0 0 0 0 0 0 0 0 0 0 0 0 0 2444.08 2681.92 2736.69 3269.19 3294.87 3160.55 3222.16 3312.23 3313.8 3187.03 3197.66 3206.21 3158.65 3196.32 3311.84 3306.36 3257 3311.58 3446.33 3516.1 3606.96 3611.38 3586.83 3455.06 3595.75 3816.07 3504.86 0 0 0 0 1095.78 617.181 646.987 549.398 0 0 0 0 0 0 0 0 0 0 0 0 0 0 0 0 0 0 0 0 0 2737.58 2684.24 2615.45 2776.36 2816.92 2837.69 2973.58 3056.85 3026.96 3036.6 3113 3160.49 3051.68 3048.18 3026.19 2905.95 2714.99 2719.08 2697.57 2325.16 2244.53 2211.43 2120.96 1974.2 1746.95 1958.09 0 0 0 0 0 0 0 0 0 0 0 0 0 0 0 0 0 0 0 0 0 0 0 0 0 0 0 0 0 0 0 0 0 0 0 0 0 0 0 0 0 0 0 0 0 0 0 0 0 0 0 0 0 0 0 0 0 0 0 0 0 0 0 0 0 0 0 0 0 0 0 0 0 0 0 0 0 0 0 0 0 0 0 0 0 0 0 0 0 0 0 0 0 0 0 0 0 0 0 0 0 0 0 0 0 0 0 0 0 0 0 0 0 0 0 0 0 0 0 0 0 0 0 0 0 0 0 0 0 0 0 0 0 0 0 0 0 0 0 0 0 0 0 0 0 0 0 0 0 0 0 0 0 0 0 0 0 0 0 0 0 0 0 0 0 0 0 0 0 0 0 0 0 0 0 0 0 0 0 0 0 0 0 0 0 0 0 0 0 0 0 0 0 0 0 0 0 0 3402.3 3358.45 3592.21 3655.36 3606.73 3568.3 3492.68 3526 3537.67 3500.25 3451.79 3438.21 3394.66 3414.63 3407.9 3444.42
0 0 0 0 0 0 0 0 0 0 0 0 0 0 0 0 0 0 0 0 0 0 0 0 0 0 0 0 0 0 0 0 0 0 0 0 0 0 0 0 0 0 0 0 0 0 0 0 0 0 0 0 0 0 0 0 0 0 0 0 0 0 0 0 0 0 0 0 0 0 2242.85 2622.81 2444.68 2535.18 2628.4 2941.72 2830.98 2758.97 2849.64 2666.28 2639.1 2835.43 2579.82 2443.72 2401.16 2564.56 0 0 0 0 0 0 0 0 0 0 0 0 0 0 0 0 0 0 0 0 0 0 0 0 0 0 0 0 0 0 0 0 0 0 0 0 0 0 0 0 0 0 0 0 0 0 0 0 0 0 0 0 0 0 0 0 0 0 0 0 2751.28 3021.12 3294.35 3241.9 3076.35 3176.71 3175.87 3000.06 3235.71 3182.56 3226 3175.69 3112.19 3104.47 3120.64 3061.87 3855.89 4774.11 2985.06 2778.94 2674.1 2714.42 0 0 0 0 0 0 0 0 0 0 0 0 0 0 0 0 0 0 0 0 0 0 0 0 0 0 0 0 0 0 0 0 0 0 0 0 0 0 0 0 0 0 0 0 0 0 0 0 2455.78 2620.15 2688.67 3236.46 3228.73 3190.61 3296.16 3390.96 3380.5 3266.32 3288.22 3256.05 3194.61 3207.75 3303.17 3276.02 3205.91 3220.31 3339.79 3408.87 4051.51 3499.38 3532.01 3378.39 3460.69 3750.98 3525.04 0 0 0 0 0 0 0 0 0 0 0 0 0 0 0 0 0 0 0 0 0 0 0 0 0 0 0 0 0 3195.41 2992.4 2952.96 2975.11 3037.31 3042.77 3116.81 3153.43 3129.78 3111.44 3147.16 3119.36 3045.69 3005.38 2940.33 2764.6 2647.6 2615.78 2626.87 2447.36 2562.21 2633.18 2677.21 2429.67 2509.93 2652.12 2912.16 0 0 0 0 0 0 0 0 0 0 0 0 0 0 0 0 0 0 0 0 0 0 0 0 0 0 0 0 0 0 0 0 0 0 0 0 0 0 0 0 0 0 0 0 0 0 0 0 0 0 0 0 0 0 0 0 0 0 0 0 0 0 0 0 0 0 0 0 0 0 0 0 0 0 0 0 0 0 0 0 0 0 0 0 0 0 0 0 0 0 0 0 0 0 0 0 0 0 0 0 0 0 0 0 0 0 0 0 0 0 0 0 0 0 0 0 0 0 0 0 0 0 0 0 0 0 0 0 0 0 0 0 0 0 0 0 0 0 0 0 0 0 0 0 0 0 0 0 0 0 0 0 0 0 0 0 0 0 0 0 0 0 0 0 0 0 0 0 0 0 0 0 0 0 0 0 0 0 0 0 0 0 0 0 0 0 0 0 0 0 0 0 0 0 0 0 0 3464.76 3387.26 3393.56 3456.48 3387.12 3385.42 3344.39 3478.56 3513.45 3446.9 3369.91 3373.44 3361.27 3403.75 4390 3842.29
0 0 0 0 0 0 0 0 0 0 0 0 0 0 0 0 0 0 0 0 0 0 0 0 0 0 0 0 0 0 0 0 0 0 0 0 0 0 0 0 0 0 0 0 0 0 0 0 0 0 0 0 0 0 0 0 0 0 0 0 0 0 0 0 0 0 0 0 0 0 2539.64 2804.3 2592.01 2665.56 2816.82 3108.04 2952.54 2913.32 3132.35 2973.63 3037.15 3231.22 2994.81 2834.62 2826.88 2972.21 3299.34 3068.7 3481.44 2949.63 0 0 0 0 0 0 0 0 0 0 0 0 0 0 0 0 0 0 0 0 0 0 0 0 0 0 0 0 0 0 0 0 0 0 0 0 0 0 0 0 0 0 0 0 0 0 0 0 0 0 0 0 0 0 0 0 0 2637.32 3028.43 2812.29 2622.07 2762.74 2873.01 2649.1 3004.19 2969 3004.46 2984.47 3002.85 3030.62 3091.49 2970.84 3089.21 2864.97 2929.04 2696.06 2545.69 0 0 0 0 0 0 0 0 0 0 0 0 0 0 0 0 0 0 0 0 0 0 0 0 0 0 0 0 0 0 0 0 0 0 0 0 0 0 0 0 0 0 0 0 0 0 0 0 0 2720.89 2822.93 2814.32 3294.15 3147.57 3199.49 3246.54 3336.47 3349.86 3285.32 3361.34 3871.82 3798.53 3892.48 3907.16 3823.73 3808.19 3301.22 4060.93 3909.8 4082.07 4015.64 3999.94 3253.84 3251.38 3318.59 0 0 0 0 0 0 0 0 0 0 0 0 0 0 0 0 0 0 0 0 0 0 0 0 0 0 0 0 0 3441.24 3348.46 3082.51 3045.42 3104.64 3161.15 3130.89 3166.16 3216.97 3155.26 3112.07 3124.01 3101.54 3024.06 2955.25 2955.61 2800.65 2676.02 2673.8 2708.9 2646.47 2725.18 2788.91 3135.74 2869.97 3524.52 3534.17 3741.03 2662.9 0 0 0 0 0 0 0 0 0 0 0 0 0 0 0 0 0 0 0 0 0 0 0 0 0 0 0 0 0 0 0 0 0 0 0 0 0 0 0 0 0 0 0 0 0 0 0 0 0 0 0 0 0 0 0 0 0 0 0 0 0 0 0 0 0 0 0 0 0 0 0 0 0 0 0 0 0 0 0 0 0 0 0 0 0 0 0 0 0 0 0 0 0 0 0 0 0 0 0 0 0 0 0 0 0 0 0 0 0 0 0 0 0 0 0 0 0 0 0 0 0 0 0 0 0 0 0 0 0 0 0 0 0 0 0 0 0 0 0 0 0 0 0 0 0 0 0 0 0 0 0 0 0 0 0 0 0 0 0 0 0 0 0 0 0 0 0 0 0 0 0 0 0 0 0 0 0 0 0 0 0 0 0 0 0 0 0 0 0 0 0 0 0 0 0 0 3128.44 3177.07 3062.65 3204.07 3177.91 3147.27 3152.06 3427.6 3551.15 3476.9 3412.89 3441.24 3416.23 3514.04 4523.87 3941.49
0 0 0 0 0 0 0 0 0 0 0 0 0 0 0 0 0 0 0 0 0 0 0 0 0 0 0 0 0 0 0 0 0 0 0 0 0 0 0 0 0 0 0 0 0 0 0 0 0 0 0 0 0 0 0 0 0 0 0 0 0 0 0 0 0 0 0 0 0 2692.99 2760.15 2913.12 2821.94 2901.38 2932.57 3120.58 3016.72 2995.02 3184.67 3112.42 3173.29 3273.52 3128.55 3096.56 3109.02 3139.79 3406.45 3254.6 3574.07 0 0 0 0 0 0 0 0 0 0 0 0 0 0 0 0 0 0 0 0 0 0 0 0 0 0 0 0 0 0 0 0 0 0 0 0 0 0 0 0 0 0 0 0 0 0 0 0 0 0 0 0 0 0 0 0 0 0 2005.73 2595.98 2537.14 2484.87 2609.1 2881.8 2698.36 3105.56 3090.35 3193.22 3098.34 3055.29 3103.15 3279.22 2987.18 3049.62 2873.95 2964.96 2740.71 2580.1 0 0 0 0 0 0 0 0 0 0 0 0 0 0 0 0 0 0 0 0 0 0 0 0 0 0 0 0 0 0 0 0 0 0 0 0 0 0 0 0 0 0 0 0 0 0 0 0 0 2199.48 2418.08 2563.03 3039.02 2940.23 3012.88 3137.03 3303.49 3289.18 3262.77 3342.85 3990.33 3964.59 4013.52 4049.66 3993.65 3732.29 4030.69 4099.13 3970.59 4167.65 4231.45 4088.94 4013.33 3872.71 3036.32 2783.73 1758.71 1463.48 0 0 0 0 0 0 0 0 0 0 0 0 0 0 0 0 0 0 0 0 0 0 0 0 0 0 3801.37 3490.42 3332.23 3217.53 3190.91 3261.81 3187.82 3234.52 3266.26 3227.8 3211.86 3168.43 3205.97 3191.27 3101.09 3123.19 3059.75 2967.79 2968.16 2992.62 3075.39 3079.8 3042.99 3507.43 3390.2 3620.58 3909.8 3957.11 3720.21 3762.33 4888.6 0 0 0 0 0 0 0 0 0 0 0 0 0 0 0 0 0 0 0 0 0 0 0 0 0 0 0 0 0 0 0 0 0 0 0 0 0 0 0 0 0 0 0 0 0 0 0 0 0 0 0 0 0 0 0 0 0 0 0 0 0 0 0 0 0 0 0 0 0 0 0 0 0 0 0 0 0 0 0 0 0 0 0 0 0 0 0 0 0 0 0 0 0 0 0 0 0 0 0 0 0 0 0 0 0 0 0 0 0 0 0 0 0 0 0 0 0 0 0 0 0 0 0 0 0 0 0 0 0 0 0 0 0 0 0 0 0 0 0 0 0 0 0 0 0 0 0 0 0 0 0 0 0 0 0 0 0 0 0 0 0 0 0 0 0 0 0 0 0 0 0 0 0 0 0 0 0 0 0 0 0 0 0 0 0 0 0 0 0 0 0 0 0 2833.57 2804.63 2884.67 2835.91 3039.29 3255.86 3165.98 3253.09 3400.1 3507.28 3537.6 3445.41 3525.85 3505.15 3573.39 3628.33 3655.44
0 0 0 0 0 0 0 0 0 0 0 0 0 0 0 0 0 0 0 0 0 0 0 0 0 0 0 0 0 0 0 0 0 0 0 0 0 0 0 0 0 0 0 0 0 0 0 0 0 0 0 0 0 0 0 0 0 0 0 0 0 0 0 0 0 0 0 0 2726.11 2662.05 2655.31 2879.87 2834.14 2843.94 2901.08 3118.26 3060.47 3078.78 3176.29 3116.12 3120.41 3184.13 3129.54 3088.19 3043.32 3095.08 3194.61 3058.46 3348.39 3188.36 2893.43 3017.32 2600.09 989.343 515.468 361.174 0 0 0 0 0 0 0 0 0 0 0 0 0 0 0 0 0 0 0 0 0 0 0 0 0 0 0 0 0 0 0 0 0 0 0 0 0 0 0 0 0 0 0 0 0 0 0 0 0 0 0 0 0 0 0 2489 2732.5 2439.71 2842.74 2908.78 2985.54 2945.03 2938.42 2954.88 3069.09 2748.93 2856.53 2749.56 2855.75 2706.71 2530.71 0 0 0 0 0 0 0 0 0 0 0 0 0 0 0 0 0 0 0 0 0 0 0 0 0 0 0 0 0 0 0 0 0 0 0 0 0 0 0 0 0 0 0 0 0 0 0 0 0 0 2383.15 2429.46 2922.05 2866.53 2822.98 2911.3 3169.93 3160.14 3149.87 3199.43 4035.24 3226.75 3957.95 4127.97 4035.34 4068.71 4116.83 4097.32 3430.2 3402.1 4241.83 4079.09 3965.99 3144.85 2831.27 2444.01 1473.87 1222.37 0 0 0 0 0 0 0 0 0 0 0 0 0 0 0 0 0 0 0 0 0 0 0 0 0 3667.19 3739.94 3453.43 3336.54 3215.43 3200.71 3257.25 3218.89 3266.32 3697.5 3320.43 3628.57 3554.54 3593.9 3626.29 3528.97 3603.7 3150.76 3080.02 3067.69 3045.31 3130.54 3152.48 3021.78 3491.73 3423.41 3746.87 3753.24 3702.31 3366.13 3391.37 3444.49 0 0 0 0 0 0 0 0 0 0 0 0 0 0 0 0 0 0 0 0 0 0 0 0 0 0 0 0 0 0 0 0 0 0 0 0 0 0 0 0 0 0 0 0 0 0 0 0 0 0 0 0 0 0 0 0 0 0 0 0 0 0 0 0 0 0 0 0 0 0 0 0 0 0 0 0 0 0 0 0 0 0 0 0 0 0 0 0 0 0 0 0 0 0 0 0 0 0 0 0 0 0 0 0 0 0 0 0 0 0 0 0 0 0 0 0 0 0 0 0 0 0 0 0 0 0 0 0 0 0 0 0 0 0 0 0 0 0 0 0 0 0 0 0 0 0 0 0 0 0 0 0 0 0 0 0 0 0 0 0 0 0 0 0 0 0 0 0 0 0 0 0 0 0 0 0 0 0 0 0 0 0 0 0 0 0 0 0 0 0 0 0 0 0 1935.59 2206.13 2224.59 2402.53 3042.38 2907.67 3118.49 3453 3544.17 3604.4 3498.14 3559.29 3495.15 4406.02 3595.67 3694.4
0 0 0 0 0 0 0 0 0 0 0 0 0 0 0 0 0 0 0 0 0 0 0 0 0 0 0 0 0 0 0 0 0 0 0 0 0 0 0 0 0 0 0 0 0 0 0 0 0 0 0 0 0 0 0 0 0 0 0 0 0 0 0 0 0 0 2155.85 2598.07 2613.78 2559.67 2693.59 2867.71 2851.77 2892.53 2977.8 3211.61 3157.05 3141.09 3209.4 3131.71 3120.35 3179.42 3083.59 2964.7 2853.08 2937.19 3100.8 2988.41 3193.64 3107.35 2731.48 2781.66 2749.97 1310.72 698.472 517.647 0 0 0 0 0 0 0 0 0 0 0 0 0 0 0 0 0 0 0 0 0 0 0 0 0 0 0 0 0 0 0 0 0 0 0 0 0 0 0 0 0 0 0 0 0 0 0 0 0 0 0 0 0 0 0 2496.04 2848.14 2567.3 2850.22 2842.4 2846.69 2994.86 2905.9 3009.91 3165.92 2627.37 2762.33 2607.24 0 0 0 0 0 0 0 0 0 0 0 0 0 0 0 0 0 0 0 0 0 0 0 0 0 0 0 0 0 0 0 0 0 0 0 0 0 0 0 0 0 0 0 0 0 0 0 0 0 0 0 0 0 2545.03 2476.98 3113.86 3059.58 3015.15 3118.72 3318.59 3237.33 3154.91 3219.81 4136.72 3138.21 3122.9 3992.42 3149.81 3136.04 3179.36 3236.52 3186.91 3117.28 3225.01 3262.45 3133.81 3145.68 2609.43 0 0 0 0 0 0 0 0 0 0 0 0 0 0 0 0 0 0 0 0 0 0 0 0 0 0 0 0 3503.25 4944.49 3384.25 3310.93 3247.23 3217.28 3866.11 3877.9 3755.34 3793.47 3659.35 3693.1 3623.71 3564.88 3585.91 3236.96 3234.59 3235.46 3138.74 3113.46 3114.67 3203.76 3253.02 3110.8 3610.22 3524.15 3599.76 3859.7 3795.36 0 0 0 0 0 0 0 0 0 0 0 0 0 0 0 0 0 0 0 0 0 0 0 0 0 0 0 0 0 0 0 0 0 0 0 0 0 0 0 0 0 0 0 0 0 0 0 0 0 0 0 0 0 0 0 0 0 0 0 0 0 0 0 0 0 0 0 0 0 0 0 0 0 0 0 0 0 0 0 0 0 0 0 0 0 0 0 0 0 0 0 0 0 0 0 0 0 0 0 0 0 0 0 0 0 0 0 0 0 0 0 0 0 0 0 0 0 0 0 0 0 0 0 0 0 0 0 0 0 0 0 0 0 0 0 0 0 0 0 0 0 0 0 0 0 0 0 0 0 0 0 0 0 0 0 0 0 0 0 0 0 0 0 0 0 0 0 0 0 0 0 0 0 0 0 0 0 0 0 0 0 0 0 0 0 0 0 0 0 0 0 0 0 0 0 0 0 0 0 0 0 3251.7 3117.91 3190.12 3599.53 3481.15 3409.42 3530.3 3599.22 3497.19 3600.07 3641.01 3858.46
0 0 0 0 0 0 0 0 0 0 0 0 0 0 0 0 0 0 0 0 0 0 0 0 0 0 0 0 0 0 0 0 0 0 0 0 0 0 0 0 0 0 0 0 0 0 0 0 0 0 0 0 0 0 0 0 0 0 0 0 0 0 0 0 0 0 0 2617.77 2619.7 2580.29 2696.45 2888.99 2917.73 2922.61 3043.26 3167.53 3118.03 3121.16 3188.54 3129.84 3091.2 3136.62 3053.84 2934.88 2896.02 2976.69 3069.49 2963.96 3120.23 3035.83 2491.74 2318.12 2432.21 1365.28 662.235 401.464 0 0 0 0 0 0 0 0 0 0 0 0 0 0 0 0 0 0 0 0 0 0 0 0 0 0 0 0 0 0 0 0 0 0 0 0 0 0 0 0 0 0 0 0 0 0 0 0 0 0 0 0 0 0 0 0 0 0 2373.44 2341.94 0 2718.16 2640.23 2788.08 0 0 0 2724.12 0 0 0 0 0 0 0 0 0 0 0 0 0 0 0 0 0 0 0 0 0 0 0 0 0 0 0 0 0 0 0 0 0 0 0 0 0 0 0 0 0 0 0 0 0 0 0 0 0 0 0 0 0 0 2448.29 2876.12 3069.6 3009.36 3128.96 3267.28 3214.57 3111.67 3177.37 4309.38 3187.27 3120.81 3152.42 3083.65 3080.53 3066.74 3153.84 3057.18 2861.01 2906.41 2954.57 3032.7 2851.96 2157.46 0 0 0 0 0 0 0 0 0 0 0 0 0 0 0 0 0 0 0 0 0 0 0 0 0 0 0 3121.45 3373.44 3697.41 3403.34 3329.19 3204.5 3941.95 3918.57 3954.5 3264.16 3313.74 3302.58 3586.37 3313.93 3281.78 3297 3229.36 3216.66 3220.12 3135.39 3077.08 3105.74 3176.17 3273.2 3104.99 3534.84 3404.58 3587.91 3738.03 3795.1 0 0 0 0 0 0 0 0 0 0 0 0 0 0 0 0 0 0 0 0 0 0 0 0 0 0 0 0 0 0 0 0 0 0 0 0 0 0 0 0 0 0 0 0 0 0 0 0 0 0 0 0 0 0 0 0 0 0 0 0 0 0 0 0 0 0 0 0 0 0 0 0 0 0 0 0 0 0 0 0 0 0 0 0 0 0 0 0 0 0 0 0 0 0 0 0 0 0 0 0 0 0 0 0 0 0 0 0 0 0 0 0 0 0 0 0 0 0 0 0 0 0 0 0 0 0 0 0 0 0 0 0 0 0 0 0 0 0 0 0 0 0 0 0 0 0 0 0 0 0 0 0 0 0 0 0 0 0 0 0 0 0 0 0 0 0 0 0 0 0 0 0 0 0 0 0 0 0 0 0 0 0 0 0 0 0 0 0 0 0 0 0 0 0 0 0 0 0 0 0 0 0 0 3195.59 3603.7 3424.11 3307.34 3449.17 3639.98 3524 3726.98 0 0
0 0 0 0 0 0 0 0 0 0 0 0 0 0 0 0 0 0 0 0 0 0 0 0 0 0 0 0 0 0 0 0 0 0 0 0 0 0 0 0 0 0 0 0 0 0 0 0 0 0 0 0 0 0 0 0 0 0 0 0 0 0 0 0 0 0 2220.97 2702.7 2566.01 2579.54 2728.15 2869.13 2936.47 2965.8 3084.1 3213.71 3143.5 3176.35 3223.83 3163.06 3144.03 3210.88 3138.5 3003.39 2916.61 2992.56 3052.95 2871.93 2982.4 2879.97 2365.34 2021.75 1933.18 1512.03 681.875 359.129 0 0 0 0 0 0 0 0 0 0 0 0 0 0 0 0 0 0 0 0 0 0 0 0 0 0 0 0 0 0 0 0 0 0 0 0 0 0 0 0 0 0 0 0 0 0 0 0 0 0 0 0 0 0 0 0 0 0 0 0 0 0 0 0 0 0 0 0 0 0 0 0 0 0 0 0 0 0 0 0 0 0 0 0 0 0 0 0 0 0 0 0 0 0 0 0 0 0 0 0 0 0 0 0 0 0 0 0 0 0 0 0 0 0 0 0 0 0 0 0 0 0 2417.56 2786.23 3063.1 3034.02 3219.07 3303.3 3226.44 3055.73 3190.67 3402.44 3276.85 3161.86 3123.54 2990.75 3044.42 3061.87 3202.79 3115.42 2960.72 2937.76 2981.82 3229.73 3162.04 0 0 0 0 0 0 0 0 0 0 0 0 0 0 0 0 0 0 0 0 0 0 0 0 0 0 0 0 0 3482.89 3723.43 3551.98 3490.13 3367.88 4085.25 4141.01 4093.13 3346.45 3696.68 3356.09 3605.56 3342.65 3319.11 3510.07 3205.05 3188.73 3212.97 3146.62 3064.38 3072.75 3140.21 3148.69 2910.69 3225.13 3144.15 0 3009.85 3058.85 1257 1284.32 381.451 0 0 0 0 0 0 0 0 0 0 0 0 0 0 0 0 0 0 0 0 0 0 0 0 0 0 0 0 0 0 0 0 0 0 0 0 0 0 0 0 0 0 0 0 0 0 0 0 0 0 0 0 0 0 0 0 0 0 0 0 0 0 0 0 0 0 0 0 0 0 0 0 0 0 0 0 0 0 0 0 0 0 0 0 0 0 0 0 0 0 0 0 0 0 0 0 0 0 0 0 0 0 0 0 0 0 0 0 0 0 0 0 0 0 0 0 0 0 0 0 0 0 0 0 0 0 0 0 0 0 0 0 0 0 0 0 0 0 0 0 0 0 0 0 0 0 0 0 0 0 0 0 0 0 0 0 0 0 0 0 0 0 0 0 0 0 0 0 0 0 0 0 0 0 0 0 0 0 0 0 0 0 0 0 0 0 0 0 0 0 0 0 0 0 0 0 0 0 0 0 0 0 0 3119.07 0 0 0 0 0 0
0 0 0 0 0 0 0 0 0 0 0 0 0 0 0 0 0 0 0 0 0 0 0 0 0 0 0 0 0 0 0 0 0 0 0 0 0 0 0 0 0 0 0 0 0 0 0 0 0 0 0 0 0 0 0 0 0 0 0 0 0 0 0 0 0 0 2424.48 2692.25 2648.19 2594.22 2748.93 2809.04 2812.57 2888.3 3059.97 3136.98 3076.75 3154.49 3195.22 3153.31 3141.91 3274.29 3196.56 3076.58 2960.15 3080.08 3039.24 2953.32 3016.51 3017.27 2681.75 2201.88 2127.88 2241.44 0 0 0 0 0 0 0 0 0 0 0 0 0 0 0 0 0 0 0 0 0 0 0 0 0 0 0 0 0 0 0 0 0 0 0 0 0 0 0 0 0 0 0 0 0 0 0 0 0 0 0 0 0 0 0 0 0 0 0 0 0 0 0 0 0 0 0 0 0 0 0 0 0 0 0 0 0 0 0 0 0 0 0 0 0 0 0 0 0 0 0 0 0 0 0 0 0 0 0 0 0 0 0 0 0 0 921.012 0 0 0 0 0 0 0 0 0 0 0 0 0 0 0 1789.87 1995.61 2035.98 2257.52 2648.52 2625.93 2991.87 3253.91 3148.57 3024.28 3217.22 3470.93 3351.74 3223.46 3183.28 3059.08 3079.34 3138.62 3211.37 3169.21 2952.28 2976.8 2925.56 3274.48 2830.27 0 0 0 0 0 0 0 0 0 0 0 0 0 0 0 0 0 0 0 0 0 0 0 0 0 0 0 0 3370.66 3594.67 3946.03 3706.81 3624.41 3500.4 4037.48 4113.3 4080.38 3333.89 3336.41 3334.68 3352.81 3332.23 3305.71 3347.99 3220.74 3205.54 3291.05 3226.81 3158.77 3163 3221.67 3292.99 3099.25 3528.82 3510.07 0 0 0 0 0 0 0 0 0 0 0 0 0 0 0 0 0 0 0 0 0 0 0 0 0 0 0 0 0 0 0 0 0 0 0 0 0 0 0 0 0 0 0 0 0 0 0 0 0 0 0 0 0 0 0 0 0 0 0 0 0 0 0 0 0 0 0 0 0 0 0 0 0 0 0 0 0 0 0 0 0 0 0 0 0 0 0 0 0 0 0 0 0 0 0 0 0 0 0 0 0 0 0 0 0 0 0 0 0 0 0 0 0 0 0 0 0 0 0 0 0 0 0 0 0 0 0 0 0 0 0 0 0 0 0 0 0 0 0 0 0 0 0 0 0 0 0 0 0 0 0 0 0 0 0 0 0 0 0 0 0 0 0 0 0 0 0 0 0 0 0 0 0 0 0 0 0 0 0 0 0 0 0 0 0 0 0 0 0 0 0 0 0 0 0 0 0 0 0 0 0 0 0 0 0 0 0 0 0 0 0 0 0 0 0 0
0 0 0 0 0 0 0 0 0 0 0 0 0 0 0 0 0 0 0 0 0 0 0 0 0 0 0 0 0 0 0 0 0 0 0 0 0 0 0 0 0 0 0 0 0 0 0 0 0 0 0 0 0 0 0 0 0 0 0 0 0 0 0 0 0 0 2603.36 2718.78 2739.95 2708.68 2768.48 2848.67 2833.33 2943.43 3118.96 3159.42 3140.15 3204.87 3233.4 3232.16 3167.12 3280.37 3215 3111.73 3042.93 3134.69 3059.52 2995.72 3030.89 3144.5 2918.03 2117.59 2006.23 1983.02 997.798 341.629 140.821 0 0 0 0 0 0 0 0 0 0 0 0 0 0 0 0 0 0 0 0 0 0 0 0 0 0 0 0 0 0 0 0 0 0 0 0 0 0 0 0 0 0 0 0 0 0 0 0 0 0 0 0 0 0 0 0 0 0 0 0 0 0 0 0 0 0 0 0 0 0 0 0 0 0 0 0 0 0 0 0 0 0 0 0 0 0 0 0 0 0 0 0 0 0 0 0 0 0 0 0 0 690.873 743.544 751.446 742.912 0 0 0 0 0 0 0 0 0 0 0 0 0 0 2068.82 1890.87 2044.61 2248.17 2633.88 2437.01 2679.78 3176.23 3255.11 3068.25 3408.04 3628.8 3483.18 3281.27 3299.99 3213.03 3254.22 3244.78 3359.45 3375.88 3143.32 3178.64 3349.93 3608.12 0 0 0 0 0 0 0 0 0 0 0 0 0 0 0 0 0 0 0 0 0 0 0 0 0 0 0 0 0 3296.36 3569.81 4013.43 3736.61 3607.35 3466.77 3507.28 4121.48 4096.82 3359.12 3391.3 3386.92 3402.79 3379.48 3397.62 3430.55 3335.08 3299.99 3362.48 3243.28 3159.6 3155.03 3249.68 3251.51 3024.01 3291.05 3395.76 0 0 0 0 0 0 0 0 0 0 0 0 0 0 0 0 0 0 0 0 0 0 0 0 0 0 0 0 0 0 0 0 0 0 0 0 0 0 0 0 0 0 0 0 0 0 0 0 0 0 0 0 0 0 0 0 0 0 0 0 0 0 0 0 0 0 0 0 0 0 0 0 0 0 0 0 0 0 0 0 0 0 0 0 0 0 0 0 0 0 0 0 0 0 0 0 0 0 0 0 0 0 0 0 0 0 0 0 0 0 0 0 0 0 0 0 0 0 0 0 0 0 0 0 0 0 0 0 0 0 0 0 0 0 0 0 0 0 0 0 0 0 0 0 0 0 0 0 0 0 0 0 0 0 0 0 0 0 0 0 0 0 0 0 0 0 0 0 0 0 0 0 0 0 0 0 0 0 0 0 0 0 0 0 0 0 0 0 0 0 0 0 0 0 0 0 0 0 0 0 0 0 0 0 0 0 0 0 0 0 0 0 0 0 0 0
0 0 0 0 0 0 0 0 0 0 0 0 0 0 0 0 0 0 0 0 0 0 0 0 0 0 0 0 0 0 0 0 0 0 0 0 0 0 0 0 0 0 0 0 0 0 0 0 0 0 0 0 0 0 0 0 0 0 0 0 0 0 0 0 0 2377.04 2495 2760.6 2777.92 2741.43 2750.74 2856.38 2854.34 2950.93 3147.51 3164.79 3132.12 3197.6 3243.21 3256.18 3141.26 3225.57 3167.59 3067.02 3013.53 3103.95 3034.4 2939.56 2973.26 3174.25 3087.79 2503.45 2333.69 0 0 0 0 0 0 0 0 0 0 0 0 0 0 0 0 0 0 0 0 0 0 0 0 0 0 0 0 0 0 0 0 0 0 0 0 0 0 0 0 0 0 0 0 0 0 0 0 0 0 0 0 0 0 0 0 0 0 0 0 0 0 0 0 0 0 0 0 0 0 0 0 0 0 0 0 0 0 0 0 0 0 0 0 0 0 0 0 0 0 0 0 0 0 0 0 0 0 0 0 521.191 0 0 0 0 905.831 726.657 643.156 639.625 0 0 0 0 0 0 0 0 0 0 0 2468.93 0 2160.34 2513.16 2243.21 2260.77 2387.39 2711.88 2379.33 2627.24 3274.48 3370.25 2999.68 3495.37 3694.08 3620.66 3449.59 3468.2 3435.6 3504.72 3538.05 3832.46 3705.33 3522 3477.62 0 0 0 0 0 0 0 0 0 0 0 0 0 0 0 0 0 0 0 0 0 0 0 0 0 0 0 0 0 0 0 2856.14 3340.06 3993.56 3861.21 3815.9 3578.04 3628.33 4260.36 4230.71 3407.56 3868.25 3821.03 3376.9 3354.22 3427.46 3484.77 3405.48 3350.67 3477.69 3327.08 3226.13 3282.94 3356.7 3268.61 2938.73 3206.46 3289.7 0 0 0 0 0 0 0 0 0 0 0 0 0 0 0 0 0 0 0 0 0 0 0 0 0 0 0 0 0 0 0 0 0 0 0 0 0 0 0 0 0 0 0 0 0 0 0 0 0 0 0 0 0 0 0 0 0 0 0 0 0 0 0 0 0 0 0 0 0 0 0 0 0 0 0 0 0 0 0 0 0 0 0 0 0 0 0 0 0 0 0 0 0 0 0 0 0 0 0 0 0 0 0 0 0 0 0 0 0 0 0 0 0 0 0 0 0 0 0 0 0 0 0 0 0 0 0 0 0 0 0 0 0 0 0 0 0 0 0 0 0 0 0 0 0 0 0 0 0 0 0 0 0 0 0 0 0 0 0 0 0 0 0 0 0 0 0 0 0 0 0 0 0 0 0 0 0 0 0 0 0 0 0 0 0 0 0 0 0 0 0 0 0 0 0 0 0 0 0 0 0 0 0 0 0 0 0 0 0 0 0 0 0 0 0 0
0 0 0 0 0 0 0 0 0 0 0 0 0 0 0 0 0 0 0 0 0 0 0 0 0 0 0 0 0 0 0 0 0 0 0 0 0 0 0 0 0 0 0 0 0 0 0 0 0 0 0 0 0 0 0 0 0 0 0 0 0 0 0 0 0 2119.49 2256.82 2548.82 2640.1 2680.81 2745.92 2811.02 2855.9 2980.44 3147.33 3151.65 3105.22 3164.79 3172.93 3174.43 3033.63 3103.44 3022.97 2935.8 2869.18 2958.95 2904.04 2825.74 2839.27 3103.27 2961.51 2430.31 2404.19 3162.76 0 0 0 0 0 0 0 0 0 0 0 0 0 0 0 0 0 0 0 0 0 0 0 0 0 0 0 0 0 0 0 0 0 0 0 0 0 0 0 0 0 0 0 0 0 0 0 0 0 0 0 0 0 0 0 0 0 0 0 0 0 0 0 0 0 0 0 0 0 0 0 0 0 0 0 0 0 0 0 0 0 0 0 0 0 0 0 0 0 0 0 0 0 0 0 0 0 0 0 2415.99 0 3040.67 3076.92 2619.37 2239.14 963.537 939.706 756.515 0 0 0 0 0 0 0 0 0 0 0 0 0 0 0 0 0 2658.72 2829.84 2491.59 2616.39 3092.45 3196.99 2790.26 3291.57 3547.77 3272.69 3026.57 3154.49 3061.25 3107.58 3178.52 3582.54 3382.96 0 0 0 0 0 0 0 0 0 0 0 0 0 0 0 0 0 0 0 0 0 0 0 0 0 0 0 0 0 0 0 0 0 2473.73 2971.05 3727.89 3653.93 3665.11 3489.77 3534.17 3559.44 4206 3443.79 3889.05 3874.14 3448.53 3463.33 3541.48 3595.9 3534.77 3402.17 3520.6 3375.81 3262.96 3289.12 3908.89 3148.87 2844.04 3075.11 3292.99 0 2881.9 0 0 0 0 0 0 0 0 0 0 0 0 0 0 0 0 0 0 0 0 0 0 0 0 0 0 0 0 0 0 0 0 0 0 0 0 0 0 0 0 0 0 0 0 0 0 0 0 0 0 0 0 0 0 0 0 0 0 0 0 0 0 0 0 0 0 0 0 0 0 0 0 0 0 0 0 0 0 0 0 0 0 0 0 0 0 0 0 0 0 0 0 0 0 0 0 0 0 0 0 0 0 0 0 0 0 0 0 0 0 0 0 0 0 0 0 0 0 0 0 0 0 0 0 0 0 0 0 0 0 0 0 0 0 0 0 0 0 0 0 0 0 0 0 0 0 0 0 0 0 0 0 0 0 0 0 0 0 0 0 0 0 0 0 0 0 0 0 0 0 0 0 0 0 0 0 0 0 0 0 0 0 0 0 0 0 0 0 0 0 0 0 0 0 0 0 0 0 0 0 0 0 0 0 0 0 0 0 0 0 0 0 0 0
0 0 0 0 0 0 0 0 0 0 0 0 0 0 0 0 0 0 0 0 0 0 0 0 0 0 0 0 0 0 0 0 0 0 0 0 0 0 0 0 0 0 0 0 0 0 0 0 0 0 0 0 0 0 0 0 0 0 0 0 0 0 0 0 0 2078.94 2164.86 2384.64 2535.53 2611.78 2778.11 2828.12 2924.6 3027.88 3208.18 3204.38 3152.48 3219.19 3262.96 3237.77 3089.38 3129.31 3036.76 2917.98 2843.94 2961.56 2886.41 2697.84 2691.04 2895.67 2709.82 2233.42 2248.14 2577.16 1230.67 867.07 0 0 0 0 0 0 0 0 0 0 0 0 0 0 0 0 0 0 0 0 0 0 0 0 0 0 0 0 0 0 0 0 0 0 0 0 0 0 0 0 0 0 0 0 0 0 0 0 0 0 0 0 0 0 0 0 0 0 0 0 0 0 0 0 0 0 0 0 0 0 0 0 0 0 0 0 0 0 0 0 0 0 0 0 0 0 0 0 0 0 0 0 0 0 0 0 2616.88 2467.95 2512.03 2683.68 2843.6 2546.11 2482 1602.17 1289.49 750.351 835.79 873.389 851.048 790.803 0 0 0 0 0 0 0 0 2613.86 2945.18 2953.22 0 0 2958.53 3033.08 2686.3 2718.16 3333.95 3439.2 2920.37 3505.67 3765.12 3161.03 2870.56 3052.51 2681.62 2820.32 2611.34 3076.3 2933.44 0 0 0 0 0 0 0 0 0 0 0 0 0 0 0 0 0 0 0 0 0 0 0 0 0 0 0 0 0 0 0 0 0 2680.47 3331.83 3934.19 3833.42 3748.72 3569.97 3556.72 3513.6 3540.58 3353.08 3370.59 3380.71 3300.18 3316.03 3360.26 3426.9 3379.55 3246.6 3349.46 3178.28 3030.02 3078.84 3048.96 2947.15 2726.51 2939.4 2938.99 0 2580.49 0 0 0 0 0 0 0 0 0 0 0 0 0 0 0 0 0 0 0 0 0 0 0 0 0 0 0 0 0 0 0 0 0 0 0 0 0 0 0 0 0 0 0 0 0 0 0 0 0 0 0 0 0 0 0 0 0 0 0 0 0 0 0 0 0 0 0 0 0 0 0 0 0 0 0 0 0 0 0 0 0 0 0 0 0 0 0 0 0 0 0 0 0 0 0 0 0 0 0 0 0 0 0 0 0 0 0 0 0 0 0 0 0 0 0 0 0 0 0 0 0 0 0 0 0 0 0 0 0 0 0 0 0 0 0 0 0 0 0 0 0 0 0 0 0 0 0 0 0 0 0 0 0 0 0 0 0 0 0 0 0 0 0 0 0 0 0 0 0 0 0 0 0 0 0 0 0 0 0 0 0 0 0 0 0 0 0 0 0 0 0 0 0 0 0 0 0 0 0 0 0 0 0 0 0 0 0 0 0 0 0 0 0 0
0 0 0 0 0 0 0 0 0 0 0 0 0 0 0 0 0 0 0 0 0 0 0 0 0 0 0 0 0 0 0 0 0 0 0 0 0 0 0 0 0 0 0 0 0 0 0 0 0 0 0 0 0 0 0 0 0 0 0 0 0 0 0 0 0 0 2234.87 2453.94 2583.91 2597.83 2774.25 2793.84 2921.03 3032.87 3224.45 3206.4 3138.97 3217.53 3276.14 3263.46 3150.94 3172.75 3059.63 2958.42 2911.4 3032.65 2957.12 2816.54 2796.07 2969.89 2815.07 2242.58 2335.94 2667.55 1568.59 0 0 0 0 0 0 0 0 0 0 0 0 0 0 0 0 0 0 0 0 0 0 0 0 0 0 0 0 0 0 0 0 0 0 0 0 0 0 0 0 0 0 0 0 0 0 0 0 0 0 0 0 0 0 0 0 0 0 0 0 0 0 0 0 0 0 0 0 0 0 0 0 0 0 0 0 0 0 0 0 0 0 0 0 0 0 0 0 0 0 0 0 0 0 0 3000.27 2592.69 2654.09 2398.48 2470.27 2486.38 2416.38 2155.32 2153.14 1902.82 2063.68 1783.71 1165.64 1157.19 1229.08 1240.65 1467.65 1425.63 0 0 0 2350.83 0 0 0 2786.64 2808.9 2691.6 2830.03 3100.23 3230.29 3108.61 3292.34 3929.58 4169.62 3469.28 4065.65 4199.05 3481.37 2924.7 2959.36 2300.61 0 0 0 0 0 0 0 0 0 0 0 0 0 0 0 0 0 0 0 0 0 0 0 0 0 0 0 0 0 0 0 0 0 0 0 0 0 0 3004.41 3573.84 3702.31 3714.69 3616.99 3582.85 3496.39 3477.98 3316.23 3325.43 3343.85 3243.97 3206.4 3274.03 3372.83 3321.22 3239.33 3399.89 3218.27 3075.45 3127.04 3118.61 2952.91 2771.41 3052.73 2911.4 0 0 0 0 0 0 0 0 0 0 0 0 0 0 0 0 0 0 0 0 0 0 0 0 0 0 0 0 0 0 0 0 0 0 0 0 0 0 0 0 0 0 0 0 0 0 0 0 0 0 0 0 0 0 0 0 0 0 0 0 0 0 0 0 0 0 0 0 0 0 0 0 0 0 0 0 0 0 0 0 0 0 0 0 0 0 0 0 0 0 0 0 0 0 0 0 0 0 0 0 0 0 0 0 0 0 0 0 0 0 0 0 0 0 0 0 0 0 0 0 0 0 0 0 0 0 0 0 0 0 0 0 0 0 0 0 0 0 0 0 0 0 0 0 0 0 0 0 0 0 0 0 0 0 0 0 0 0 0 0 0 0 0 0 0 0 0 0 0 0 0 0 0 0 0 0 0 0 0 0 0 0 0 0 0 0 0 0 0 0 0 0 0 0 0 0 0 0 0 0 0 0 0 0 0 0 0 0 0 0 0 0 0 0 0 0
0 0 0 0 0 0 0 0 0 0 0 0 0 0 0 0 0 0 0 0 0 0 0 0 0 0 0 0 0 0 0 0 0 0 0 0 0 0 0 0 0 0 0 0 0 0 0 0 0 0 0 0 0 0 0 0 0 0 0 0 0 0 0 0 0 0 2192.56 2405.19 2561.39 2579.86 2714.77 2761.46 2902.34 2980.5 3187.03 3097.54 3042.1 3143.79 3241.27 3242.34 3122.56 3139.73 3081.1 3020.58 3030.73 3140.73 3036.6 2876.12 2802.8 2933.6 2848.33 0 2289.81 0 0 0 0 0 0 0 0 0 0 0 0 0 0 0 0 0 0 0 0 0 0 0 0 0 0 0 0 0 0 0 0 0 0 0 0 0 0 0 0 0 0 0 0 0 0 0 0 0 0 0 0 0 0 0 0 0 0 0 0 0 0 0 0 0 0 0 0 0 0 0 0 0 0 0 0 0 0 0 0 0 0 0 0 0 0 0 0 0 0 0 0 0 0 0 3610.3 3502.01 3174.13 2995.61 3140.68 2725.49 2799.52 2726.95 2658.42 2378.59 2317.64 2214.35 2283.39 2055.01 1876.32 1879.73 1660.49 1650.96 1817.29 1920.77 0 0 2243.15 2376.54 2599.93 2799.06 2540.79 2744.48 2749.74 2593.46 2754.35 2964.07 3055.01 2811.25 2845.82 3323.52 3619.56 2840.28 3679.33 3875.21 3464.05 2959.26 0 0 0 0 0 0 0 0 0 0 0 0 0 0 0 0 0 0 0 0 0 0 0 0 0 0 0 0 0 0 0 0 0 0 0 0 0 0 0 0 0 3518.53 3718.64 3690.83 3630.37 3607.81 3465.12 3412.82 3347.72 3372.76 3365.52 3253.91 3201.14 3264.35 3315.05 3278.71 3204.56 3217.84 3000.11 2861.3 4914.23 4970.13 2707.98 2682.99 2837.02 2687.51 0 0 0 0 0 0 0 0 0 0 0 0 0 0 0 0 0 0 0 0 0 0 0 0 0 0 0 0 0 0 0 0 0 0 0 0 0 0 0 0 0 0 0 0 0 0 0 0 0 0 0 0 0 0 0 0 0 0 0 0 0 0 0 0 0 0 0 0 0 0 0 0 0 0 0 0 0 0 0 0 0 0 0 0 0 0 0 0 0 0 0 0 0 0 0 0 0 0 0 0 0 0 0 0 0 0 0 0 0 0 0 0 0 0 0 0 0 0 0 0 0 0 0 0 0 0 0 0 0 0 0 0 0 0 0 0 0 0 0 0 0 0 0 0 0 0 0 0 0 0 0 0 0 0 0 0 0 0 0 0 0 0 0 0 0 0 0 0 0 0 0 0 0 0 0 0 0 0 0 0 0 0 0 0 0 0 0 0 0 0 0 0 0 0 0 0 0 0 0 0 0 0 0 0 0 0 0 0 0 0 0 0 0 0 0 0
0 0 0 0 0 0 0 0 0 0 0 0 0 0 0 0 0 0 0 0 0 0 0 0 0 0 0 0 0 0 0 0 0 0 0 0 0 0 0 0 0 0 0 0 0 0 0 0 0 0 0 0 0 0 0 0 0 0 0 0 0 0 0 0 0 0 0 2383.56 2538.29 2505.13 2552.73 2625.8 2760.15 2862.96 3052.4 3043.92 2986.76 3097.54 3220.68 3304.41 3182.37 3210.32 3142.91 3081.1 3007.26 3134.28 3047.52 2880.41 2729.97 2866.19 2774.39 0 2340.43 2852.21 1352.48 0 0 0 0 0 0 0 0 0 0 0 0 0 0 0 0 0 0 0 0 0 0 0 0 0 0 0 0 0 0 0 0 0 0 0 0 0 0 0 0 0 0 0 0 0 0 0 0 0 0 0 0 0 0 0 0 0 0 0 0 0 0 0 0 0 0 0 0 0 0 0 0 0 0 0 0 0 0 0 0 0 0 0 0 0 0 0 0 2397.66 2734.86 0 0 3296.68 3450.8 3502.01 3155.03 3102.58 3229.17 3109.65 3093.6 2889.79 2870.56 2629.59 2465.66 2492.22 2386.1 2263.27 2056.82 2144.36 2052.34 1893.99 2051.06 2170.12 2375.22 2300.01 2335.42 2490 2641.26 2810.12 2643.01 2673.38 2615.98 2471.33 2691.39 2853.52 2860.28 2709.38 2662.81 2840.91 3189.57 2832.13 3632.49 3446.61 3031.11 2480.87 3006.67 0 0 0 0 0 0 0 0 0 0 0 0 0 0 0 0 0 0 0 0 0 0 0 0 0 0 0 0 0 0 0 0 0 0 0 0 0 0 0 0 0 3545.07 3588.44 3776.39 3792.87 3703.21 3568.14 3572.17 3616.91 3615.35 3472.01 3362.28 3444.7 3448.24 3307.6 3251.01 3178.94 2851.14 2638.4 4661.76 4816.74 2328.87 2218.03 2423.25 0 0 0 0 0 0 0 0 0 0 0 0 0 0 0 0 0 0 0 0 0 0 0 0 0 0 0 0 0 0 0 0 0 0 0 0 0 0 0 0 0 0 0 0 0 0 0 0 0 0 0 0 0 0 0 0 0 0 0 0 0 0 0 0 0 0 0 0 0 0 0 0 0 0 0 0 0 0 0 0 0 0 0 0 0 0 0 0 0 0 0 0 0 0 0 0 0 0 0 0 0 0 0 0 0 0 0 0 0 0 0 0 0 0 0 0 0 0 0 0 0 0 0 0 0 0 0 0 0 0 0 0 0 0 0 0 0 0 0 0 0 0 0 0 0 0 0 0 0 0 0 0 0 0 0 0 0 0 0 0 0 0 0 0 0 0 0 0 0 0 0 0 0 0 0 0 0 0 0 0 0 0 0 0 0 0 0 0 0 0 0 0 0 0 0 0 0 0 0 0 0 0 0 0 0 0 0 0 0 0 0 0 0 0 0 0 0
0 0 0 0 0 0 0 0 0 0 0 0 0 0 0 0 0 0 0 0 0 0 0 0 0 0 0 0 0 0 0 0 0 0 0 0 0 0 0 0 0 0 0 0 0 0 0 0 0 0 0 0 0 0 0 0 0 0 0 0 0 0 0 0 0 0 0 2362.01 2561.19 2507 2529.3 2616.88 2761.46 2851.33 3054.79 3033.74 2992.4 3108.15 3240.52 3337.2 3215.68 3228.61 3153.6 3101.54 3075 3195.28 3079.23 2955.25 2868.4 2978.65 2931.54 2882.04 2913.68 3227.62 1887.15 0 0 0 0 0 0 0 0 0 0 0 0 0 0 0 0 0 0 0 0 0 0 0 0 0 0 0 0 0 0 0 0 0 0 0 0 0 0 0 0 0 0 0 0 0 0 0 0 0 0 0 0 0 0 0 0 0 0 0 0 0 0 0 0 0 0 0 0 0 0 0 0 0 0 0 0 0 0 0 0 0 0 0 0 0 0 0 0 3031.6 3369.3 3316.95 3324.05 3424.95 3519.05 3483.47 3140.32 3048.9 3188.6 3009.58 3057.13 2823.36 2765.88 2503.15 2363.98 2530.33 2504.01 2333.89 2276.97 2406.7 2479.95 2284.26 2402.53 2643.1 2890.93 2597.55 2633.06 2723.28 2940.95 3058.13 2872.42 2938.63 2819.61 2713.19 2979.44 3054.01 3068.42 2853.66 2774.66 3082 3163.53 3017.92 3667.99 3146.51 2708.42 2391.13 2927.86 2238.84 0 0 0 0 0 0 0 0 0 0 0 0 0 0 0 0 0 0 0 0 0 0 0 0 0 0 0 0 0 0 0 0 0 0 0 0 0 0 0 0 0 2990.48 3402.65 3538.2 3357.3 3328.73 3502.89 3611.93 3532.68 3391.03 3321.35 3358.24 3363.76 3241.65 3202.05 3067.63 2660.4 2541.64 2286.09 2367.41 2150.87 0 0 0 0 0 0 0 0 0 0 0 0 0 0 0 0 0 0 0 0 0 0 0 0 0 0 0 0 0 0 0 0 0 0 0 0 0 0 0 0 0 0 0 0 0 0 0 0 0 0 0 0 0 0 0 0 0 0 0 0 0 0 0 0 0 0 0 0 0 0 0 0 0 0 0 0 0 0 0 0 0 0 0 0 0 0 0 0 0 0 0 0 0 0 0 0 0 0 0 0 0 0 0 0 0 0 0 0 0 0 0 0 0 0 0 0 0 0 0 0 0 0 0 0 0 0 0 0 0 0 0 0 0 0 0 0 0 0 0 0 0 0 0 0 0 0 0 0 0 0 0 0 0 0 0 0 0 0 0 0 0 0 0 0 0 0 0 0 0 0 0 0 0 0 0 0 0 0 0 0 0 0 0 0 0 0 0 0 0 0 0 0 0 0 0 0 0 0 0 0 0 0 0 0 0 0 0 0 0 0 0 0 0 0 0 0 0 0 0
0 0 0 0 0 0 0 0 0 0 0 0 0 0 0 0 0 0 0 0 0 0 0 0 0 0 0 0 0 0 0 0 0 0 0 0 0 0 0 0 0 0 0 0 0 0 0 0 0 0 0 0 0 0 0 0 0 0 0 0 0 0 0 0 0 0 0 0 2478.41 2496.85 2486.27 2651.91 4237.01 4043.02 4881.48 4791.57 3050.68 3175.27 3312.69 3419.22 3294.67 3228.86 3169.99 3109.07 3112.88 3184.85 3119.19 2904.7 2783.04 2776.55 2576.13 2582.08 2820.8 0 0 0 0 0 0 0 0 0 0 0 0 0 0 0 0 0 0 0 0 0 0 0 0 0 0 0 0 0 0 0 0 0 0 0 0 0 0 0 0 0 0 0 0 0 0 0 0 0 0 0 0 0 0 0 0 0 0 0 0 0 0 0 0 0 0 0 0 0 0 0 0 0 0 0 0 0 0 0 0 0 0 0 0 0 0 0 2417.38 2900.58 3043.21 3045.36 3380.23 3325.96 3379.62 3505.3 3585.53 3604.32 3350.13 3315.7 3355.89 3186.97 3205.05 2924.19 2772.65 2505.77 2319.05 2431.33 2342.66 2284.35 2239.74 2332.4 2509.81 2327.32 2323.16 2493.51 2739.37 2509.96 2520.37 2696.27 2882.34 2946.94 2803.83 2994.97 2882.34 2792.63 3096.05 3183.04 3136.68 2983.47 2981.34 3330.31 3274.93 3222.04 3568.75 2910.39 2487.78 2383.12 3027.17 2053.75 0 0 0 0 0 0 0 0 0 0 0 0 0 0 0 0 0 0 0 0 0 0 0 0 0 0 0 0 0 0 0 0 0 0 0 0 0 0 0 0 0 0 0 3434.76 3149.99 3148.81 3516.98 3686.77 3502.01 3342.25 3163.71 3179.78 3089.21 2992.46 2937.5 2683.81 2270.96 2194.82 1986.91 2039.47 1833.39 0 0 0 0 0 0 0 0 0 0 0 0 0 0 0 0 0 0 0 0 0 0 0 0 0 0 0 0 0 0 0 0 0 0 0 0 0 0 0 0 0 0 0 0 0 0 0 0 0 0 0 0 0 0 0 0 0 0 0 0 0 0 0 0 0 0 0 0 0 0 0 0 0 0 0 0 0 0 0 0 0 0 0 0 0 0 0 0 0 0 0 0 0 0 0 0 0 0 0 0 0 0 0 0 0 0 0 0 0 0 0 0 0 0 0 0 0 0 0 0 0 0 0 0 0 0 0 0 0 0 0 0 0 0 0 0 0 0 0 0 0 0 0 0 0 0 0 0 0 0 0 0 0 0 0 0 0 0 0 0 0 0 0 0 0 0 0 0 0 0 0 0 0 0 0 0 0 0 0 0 0 0 0 0 0 0 0 0 0 0 0 0 0 0 0 0 0 0 0 0 0 0 0 0 0 0 0 0 0 0 0 0 0 0 0 0 0 0 0
0 0 0 0 0 0 0 0 0 0 0 0 0 0 0 0 0 0 0 0 0 0 0 0 0 0 0 0 0 0 0 0 0 0 0 0 0 0 0 0 0 0 0 0 0 0 0 0 0 0 0 0 0 0 0 0 0 0 0 0 0 0 0 0 0 0 0 0 2360.15 2392.63 2418.12 2572.3 3925.9 2762.28 4872.84 4878.79 2876.02 3017.81 3168.55 3285.58 3197.96 3115.08 3062.48 2983.09 2996.73 3103.84 3000.65 2724.51 2622.19 2532.54 2173.5 2185.67 2392.74 0 0 0 0 0 0 0 0 0 0 0 0 0 0 0 0 0 0 0 0 0 0 0 0 0 0 0 0 0 0 0 0 0 0 0 0 0 0 0 0 0 0 0 0 0 0 0 0 0 0 0 0 0 0 0 0 0 0 0 0 0 0 0 0 0 0 0 0 0 0 0 0 0 0 0 0 0 0 0 0 0 0 0 0 0 0 0 2702.57 3092.97 3249.56 3278.38 3377.85 3301.41 3328.86 3473.88 3552.05 3594.59 3446.69 3445.91 3442.44 3392.26 3452.86 3296.81 3210.57 3060.47 2866.68 2955.09 2814.79 2651.87 2665.48 2677.51 2717.5 2614.67 2571.91 2756.7 2862.28 2702.96 2669.84 2790.35 2933.39 2938.84 2834.71 3023.19 2881.9 2825.69 3036.76 3142.85 3088.64 2992.56 2991.28 3272.5 3147.33 3173.65 3478.41 2944.04 2743.09 2834.86 2962.29 0 0 0 2549.24 0 0 0 0 0 0 0 0 0 0 0 0 0 0 0 0 0 0 0 0 0 0 0 0 0 0 0 0 0 0 0 0 0 0 0 0 0 0 0 0 0 2867.27 3139.32 3459.91 3479.93 3195.34 3131.59 2907.06 2889.49 2812.24 2768.21 2717.06 2570.37 2274.38 2225.15 1992.08 2063.68 1898.12 0 0 0 0 0 0 0 0 0 0 0 0 0 0 0 0 0 0 0 0 0 0 0 0 0 0 0 0 0 0 0 0 0 0 0 0 0 0 0 0 0 0 0 0 0 0 0 0 0 0 0 0 0 0 0 0 0 0 0 0 0 0 0 0 0 0 0 0 0 0 0 0 0 0 0 0 0 0 0 0 0 0 0 0 0 0 0 0 0 0 0 0 0 0 0 0 0 0 0 0 0 0 0 0 0 0 0 0 0 0 0 0 0 0 0 0 0 0 0 0 0 0 0 0 0 0 0 0 0 0 0 0 0 0 0 0 0 0 0 0 0 0 0 0 0 0 0 0 0 0 0 0 0 0 0 0 0 0 0 0 0 0 0 0 0 0 0 0 0 0 0 0 0 0 0 0 0 0 0 0 0 0 0 0 0 0 0 0 0 0 0 0 0 0 0 0 0 0 0 0 0 0 0 0 0 0 0 0 0 0 0 0 0 0 0 0 0 0 0
0 0 0 0 0 0 0 0 0 0 0 0 0 0 0 0 0 0 0 0 0 0 0 0 0 0 0 0 0 0 0 0 0 0 0 0 0 0 0 0 0 0 0 0 0 0 0 0 0 0 0 0 0 0 0 0 0 0 0 0 0 0 0 0 0 0 0 0 2146.94 2239.38 2339 2495.96 2791.51 2686.65 2790.72 4966.15 2799.48 2926.79 3050.9 3158.23 3100.34 3050.73 2968.16 2942.86 2877.69 2999.73 2884.87 2588.89 2467.66 2318.38 0 0 0 0 0 0 0 0 0 0 0 0 0 0 0 0 0 0 0 0 0 0 0 0 0 0 0 0 0 0 0 0 0 0 0 0 0 0 0 0 0 0 0 0 0 0 0 0 0 0 0 0 0 0 0 0 0 0 0 0 0 0 0 0 0 0 0 0 0 0 0 0 0 0 0 0 0 0 0 0 0 0 0 0 0 0 0 0 0 0 2970.52 3434.13 3570.42 5318.97 3492.53 3374.79 3344.65 3402.03 3466.7 3477.62 3305.25 3319.51 3340.06 3268.29 3339.93 3242.21 3162.7 3017.86 2849.88 2951.61 2772 2564.4 2629.01 2496.15 2483.88 2491.14 2546.65 2590.01 2759.92 2711 2698.88 2842.69 2934.98 3001.34 2885.76 2983.68 2899.78 2863.75 3010.28 3082.85 3020.04 3006.56 2986.81 3132.47 3079.68 3161.92 3277.42 2901.03 2634.01 2490.59 2436.77 0 0 0 1773.13 0 0 0 0 0 0 0 0 0 0 0 0 0 0 0 0 0 0 0 0 0 0 0 0 0 0 0 0 0 0 0 0 0 0 0 0 0 0 0 0 0 1994.42 2164.89 2982.83 3060.08 2700.66 2953.63 2699.75 2701.53 2526.52 2575.19 2634.92 2408.74 2202.83 2300.77 2079.07 2098.42 1887.51 0 0 0 0 0 0 0 0 0 0 0 0 0 0 0 0 0 0 0 0 0 0 0 0 0 0 0 0 0 0 0 0 0 0 0 0 0 0 0 0 0 0 0 0 0 0 0 0 0 0 0 0 0 0 0 0 0 0 0 0 0 0 0 0 0 0 0 0 0 0 0 0 0 0 0 0 0 0 0 0 0 0 0 0 0 0 0 0 0 0 0 0 0 0 0 0 0 0 0 0 0 0 0 0 0 0 0 0 0 0 0 0 0 0 0 0 0 0 0 0 0 0 0 0 0 0 0 0 0 0 0 0 0 0 0 0 0 0 0 0 0 0 0 0 0 0 0 0 0 0 0 0 0 0 0 0 0 0 0 0 0 0 0 0 0 0 0 0 0 0 0 0 0 0 0 0 0 0 0 0 0 0 0 0 0 0 0 0 0 0 0 0 0 0 0 0 0 0 0 0 0 0 0 0 0 0 0 0 0 0 0 0 0 0 0 0 0 0 0
0 0 0 0 0 0 0 0 0 0 0 0 0 0 0 0 0 0 0 0 0 0 0 0 0 0 0 0 0 0 0 0 0 0 0 0 0 0 0 0 0 0 0 0 0 0 0 0 0 0 0 0 0 0 0 0 0 0 0 0 0 0 0 0 0 0 0 0 0 2032.26 2124.16 2446 2626.34 2389.09 2697.57 2767.25 2791.19 3021.94 3168.01 3282.3 3230.04 3196.2 3167.53 3036.82 3010.01 3109.94 2879.67 2617.9 2492.11 2271.39 0 0 0 0 0 0 0 0 0 0 0 0 0 0 0 0 0 0 0 0 0 0 0 0 0 0 0 0 0 0 0 0 0 0 0 0 0 0 0 0 0 0 0 0 0 0 0 0 0 0 0 0 0 0 0 0 0 0 0 0 0 0 0 0 0 0 0 0 0 0 0 0 0 0 0 0 0 0 0 0 0 0 0 0 0 0 0 0 0 0 3261.5 3594.82 3630.84 3630.21 3672.97 3551.83 3402.03 3477.69 3473.01 3489.48 3328.27 3376.63 3411.78 3303.17 3352.61 3302.13 3200.4 3101.43 2961.66 3096.74 2873.06 2610.65 2673.72 2622.36 2699.88 2616.06 2672.69 2683.72 2853.81 2852.89 2822.89 2838.6 2929.8 3034.9 2960.72 3065.17 2988.78 2935.34 3026.08 3101.09 3147.16 3126.57 2992.19 3112.65 3014.88 3083.36 3199.43 2754.17 0 2193.5 1947.59 0 0 0 0 0 0 0 0 0 0 0 0 0 0 0 0 0 0 0 0 0 0 0 0 0 0 0 0 0 0 0 0 0 0 0 0 0 0 0 0 0 0 0 0 0 1578.98 1567.72 1912.32 2461.68 2161.4 2488.26 2148.28 2104.6 2030.68 2132.5 2502.4 2335.09 1999.65 2060.66 1905.43 2004.79 0 0 0 0 0 0 0 0 0 0 0 0 0 0 0 0 0 0 0 0 0 0 0 0 0 0 0 0 0 0 0 0 0 0 0 0 0 0 0 0 0 0 0 0 0 0 0 0 0 0 0 0 0 0 0 0 0 0 0 0 0 0 0 0 0 0 0 0 0 0 0 0 0 0 0 0 0 0 0 0 0 0 0 0 0 0 0 0 0 0 0 0 0 0 0 0 0 0 0 0 0 0 0 0 0 0 0 0 0 0 0 0 0 0 0 0 0 0 0 0 0 0 0 0 0 0 0 0 0 0 0 0 0 0 0 0 0 0 0 0 0 0 0 0 0 0 0 0 0 0 0 0 0 0 0 0 0 0 0 0 0 0 0 0 0 0 0 0 0 0 0 0 0 0 0 0 0 0 0 0 0 0 0 0 0 0 0 0 0 0 0 0 0 0 0 0 0 0 0 0 0 0 0 0 0 0 0 0 0 0 0 0 0 0 0 0 0 0 0 0
0 0 0 0 0 0 0 0 0 0 0 0 0 0 0 0 0 0 0 0 0 0 0 0 0 0 0 0 0 0 0 0 0 0 0 0 0 0 0 0 0 0 0 0 0 0 0 0 0 0 0 0 0 0 0 0 0 0 0 0 0 0 0 0 0 0 0 0 0 1800.57 1774.82 2205.29 2162.04 1945.08 2288.65 2378.56 2510.79 2798.45 2902.39 3137.03 3104.18 3230.29 3263.84 3084.67 3060.97 3068.19 2762.65 2715.26 2445.68 2123.11 0 0 0 0 0 0 0 0 0 0 0 0 0 0 0 0 0 0 0 0 0 0 0 0 0 0 0 0 0 0 0 0 0 0 0 0 0 0 0 0 0 0 0 0 0 0 0 0 0 0 0 0 0 0 0 0 0 0 0 0 0 0 0 0 0 0 0 0 0 0 0 0 0 0 0 0 0 0 0 0 0 0 0 0 0 0 0 0 0 0 3314.98 3493.77 3552.13 3469.56 3496.97 3444.42 3383.44 3449.17 3485.13 4199.99 3364.17 3380.85 3447.54 3352.27 4333.98 4333.87 3213.28 3015.91 2861.45 2949.01 2794.3 2536.07 2655.06 2624.16 5634.6 2621.87 2832.9 5637.26 2964.44 2930.21 2946.73 2951.09 3028.1 3055.79 3021.23 3070.22 3003.44 2998.93 3108.96 3137.8 3166.82 3133.69 3079.01 3188.36 3799.39 3181.59 3255.11 2819.33 2598.11 2316.52 1951.87 839.558 0 1371.51 1628.28 1096.87 1789.87 0 0 0 0 0 0 0 0 0 0 0 0 0 0 0 0 0 0 0 0 0 0 0 0 0 0 0 0 0 0 0 0 0 0 0 0 0 0 0 0 0 0 0 1888.64 2527.24 2282.39 2390.66 2158.04 2134.35 2504.9 2281.74 1908.29 0 0 0 0 0 0 0 0 0 0 0 0 0 0 0 0 0 0 0 0 0 0 0 0 0 0 0 0 0 0 0 0 0 0 0 0 0 0 0 0 0 0 0 0 0 0 0 0 0 0 0 0 0 0 0 0 0 0 0 0 0 0 0 0 0 0 0 0 0 0 0 0 0 0 0 0 0 0 0 0 0 0 0 0 0 0 0 0 0 0 0 0 0 0 0 0 0 0 0 0 0 0 0 0 0 0 0 0 0 0 0 0 0 0 0 0 0 0 0 0 0 0 0 0 0 0 0 0 0 0 0 0 0 0 0 0 0 0 0 0 0 0 0 0 0 0 0 0 0 0 0 0 0 0 0 0 0 0 0 0 0 0 0 0 0 0 0 0 0 0 0 0 0 0 0 0 0 0 0 0 0 0 0 0 0 0 0 0 0 0 0 0 0 0 0 0 0 0 0 0 0 0 0 0 0 0 0 0 0 0 0 0 0 0 0 0 0 0 0 0 0 0 0
0 0 0 0 0 0 0 0 0 0 0 0 0 0 0 0 0 0 0 0 0 0 0 0 0 0 0 0 0 0 0 0 0 0 0 0 0 0 0 0 0 0 0 0 0 0 0 0 0 0 0 0 0 0 0 0 0 0 0 0 0 0 0 0 0 0 0 0 0 0 1630.27 2112.39 1965.78 1820.18 2041.25 2208.66 2399.1 2653.59 2840.28 3144.44 3024.06 3393.98 3355.42 3114.27 3032.87 2903.59 2515.87 2426.02 2071.57 1778.04 0 0 0 0 0 0 0 0 0 0 0 0 0 0 0 0 0 0 0 0 0 0 0 0 0 0 0 0 0 0 0 0 0 0 0 0 0 0 0 0 0 0 0 0 0 0 0 0 0 0 0 0 0 0 0 0 0 0 0 0 0 0 0 0 0 0 0 0 0 0 0 0 0 0 0 0 0 0 0 0 0 0 0 0 0 0 0 0 0 3022.1 3266.13 3529.49 3554.91 3442.23 3521.04 3428.16 3363.9 3433.99 3440.47 4163.21 3342.25 3360.46 3396.66 3292.73 4173.15 4194.53 3189.09 3038.63 2871.64 2936.78 2781.75 2594.7 2694.2 2638.94 2760.28 2693.85 2845.1 2829.65 2824.93 2842.93 2862.43 2893.08 2968.42 2947.61 2897.22 2908.52 2871.49 2918.14 2962.39 2982.51 2989.79 2970.21 2924.34 3036.82 3042.88 3144.8 3228.98 2957.85 2703.05 2624.37 2211.22 1829.45 1614.63 1578.58 1645.8 691.115 1013.92 0 0 0 0 0 0 0 0 0 0 0 0 0 0 0 0 0 0 0 0 0 0 0 0 0 0 0 0 0 0 0 0 0 0 0 0 0 0 0 0 0 0 0 1465.97 1859.46 0 1964.76 1895.25 0 0 0 0 0 0 0 0 0 0 0 0 0 0 0 0 0 0 0 0 0 0 0 0 0 0 0 0 0 0 0 0 0 0 0 0 0 0 0 0 0 0 0 0 0 0 0 0 0 0 0 0 0 0 0 0 0 0 0 0 0 0 0 0 0 0 0 0 0 0 0 0 0 0 0 0 0 0 0 0 0 0 0 0 0 0 0 0 0 0 0 0 0 0 0 0 0 0 0 0 0 0 0 0 0 0 0 0 0 0 0 0 0 0 0 0 0 0 0 0 0 0 0 0 0 0 0 0 0 0 0 0 0 0 0 0 0 0 0 0 0 0 0 0 0 0 0 0 0 0 0 0 0 0 0 0 0 0 0 0 0 0 0 0 0 0 0 0 0 0 0 0 0 0 0 0 0 0 0 0 0 0 0 0 0 0 0 0 0 0 0 0 0 0 0 0 0 0 0 0 0 0 0 0 0 0 0 0 0 0 0 0 0 0 0 0 0 0 0 0 0 0 0 0 0 0 0
0 0 0 0 0 0 0 0 0 0 0 0 0 0 0 0 0 0 0 0 0 0 0 0 0 0 0 0 0 0 0 0 0 0 0 0 0 0 0 0 0 0 0 0 0 0 0 0 0 0 0 0 0 0 0 0 0 0 0 0 0 0 0 0 0 0 0 0 0 0 0 0 1721.32 1629.83 1755.38 2149.47 2358.83 2541.79 2749.2 3073.87 2997.7 3596.67 3378.26 3131.88 2818.76 2513.76 2167.6 1959.78 1732.09 1420.01 868.116 755.609 0 0 0 0 0 0 0 0 0 0 0 0 0 0 0 0 0 0 0 0 0 0 0 0 0 0 0 0 0 0 0 0 0 0 0 0 0 0 0 0 0 0 0 0 0 0 0 0 0 0 0 0 0 0 0 0 0 0 0 0 0 0 0 0 0 0 0 0 0 0 0 0 0 0 0 0 0 0 0 0 0 0 0 0 0 0 2697.49 3078.72 3249.05 3327.21 3360.87 3310.01 3306.75 3227.31 3231.97 3264.23 3287.38 3314.79 3264.42 3299.86 3323.72 3315.83 3324.57 3247.42 3210.32 3076.18 2996.41 3056.01 2953.84 2812.9 2809.51 2774.53 2929.4 2950.21 3104.47 2964.44 2930.21 2898.27 2908.47 2930.21 2986.49 2962.29 2920.68 2910.9 2905.15 2986.17 3017.92 3027.06 3013.91 3034.51 2972.1 3032.48 3043.87 3138.09 3098.57 2791.98 2611.7 2561.5 2016.89 1844.62 0 1414.03 1424.94 1120.64 0 0 0 0 0 0 0 0 0 0 0 0 0 0 0 0 0 0 0 0 0 0 0 0 0 0 0 0 0 0 0 0 0 0 0 0 0 0 0 0 0 0 0 0 0 0 0 0 0 0 0 0 0 0 0 0 0 0 0 0 0 0 0 0 0 0 0 0 0 0 0 0 0 0 0 0 0 0 0 0 0 0 0 0 0 0 0 0 0 0 0 0 0 0 0 0 0 0 0 0 0 0 0 0 0 0 0 0 0 0 0 0 0 0 0 0 0 0 0 0 0 0 0 0 0 0 0 0 0 0 0 0 0 0 0 0 0 0 0 0 0 0 0 0 0 0 0 0 0 0 0 0 0 0 0 0 0 0 0 0 0 0 0 0 0 0 0 0 0 0 0 0 0 0 0 0 0 0 0 0 0 0 0 0 0 0 0 0 0 0 0 0 0 0 0 0 0 0 0 0 0 0 0 0 0 0 0 0 0 0 0 0 0 0 0 0 0 0 0 0 0 0 0 0 0 0 0 0 0 0 0 0 0 0 0 0 0 0 0 0 0 0 0 0 0 0 0 0 0 0 0 0 0 0 0 0 0 0 0 0 0 0 0 0 0 0 0 0 0 0 0 0 0 0 0 0
0 0 0 0 0 0 0 0 0 0 0 0 0 0 0 0 0 0 0 0 0 0 0 0 0 0 0 0 0 0 0 0 0 0 0 0 0 0 0 0 0 0 0 0 0 0 0 0 0 0 0 0 0 0 0 0 0 0 0 0 0 0 0 0 0 0 0 0 0 0 0 1868.28 1817.36 1684.16 1867.16 2279.42 2371.6 5630.45 2956.6 2992.89 5722.63 5824.13 3500.69 3301.09 3263.84 2954.26 2505.99 2075.29 1746.44 1592.24 896.36 0 0 0 0 0 0 0 0 0 0 0 0 0 0 0 0 0 0 0 0 0 0 0 0 0 0 0 0 0 0 0 0 0 0 0 0 0 0 0 0 0 0 0 0 0 0 0 0 0 0 0 0 0 0 0 0 0 0 0 0 0 0 0 0 0 0 0 0 0 0 0 0 0 0 0 0 0 0 0 0 0 0 0 0 0 0 2705.27 2701.96 3064.16 3225.38 3390.55 3375.2 3327.94 3378.53 3272.82 3246.85 3279.28 3341.72 3361.07 3314.07 3344.79 3378.67 3337.73 3877.63 3319.84 3266.7 3115.77 3049.4 3090.75 2990.22 2826.17 2850.32 2845 2875.67 2950.57 3012.34 2892.73 2874.74 2898.37 2932.93 2932.42 3014.07 3011.53 2980.07 3031.77 3061.53 3102.69 3089.55 3117.68 3098.79 3094.34 3033.25 3092.57 3029.69 3067.97 2998.66 2791.98 2618.55 2675.34 2196 2082.58 1851.19 1771.24 1518.71 1558.14 0 0 0 0 0 0 0 0 0 0 0 0 0 0 0 0 0 0 0 0 0 0 0 0 0 0 0 0 0 0 0 0 0 0 0 0 0 0 0 0 0 0 0 0 0 0 0 0 0 0 0 0 0 0 0 0 0 0 0 0 0 0 0 0 0 0 0 0 0 0 0 0 0 0 0 0 0 0 0 0 0 0 0 0 0 0 0 0 0 0 0 0 0 0 0 0 0 0 0 0 0 0 0 0 0 0 0 0 0 0 0 0 0 0 0 0 0 0 0 0 0 0 0 0 0 0 0 0 0 0 0 0 0 0 0 0 0 0 0 0 0 0 0 0 0 0 0 0 0 0 0 0 0 0 0 0 0 0 0 0 0 0 0 0 0 0 0 0 0 0 0 0 0 0 0 0 0 0 0 0 0 0 0 0 0 0 0 0 0 0 0 0 0 0 0 0 0 0 0 0 0 0 0 0 0 0 0 0 0 0 0 0 0 0 0 0 0 0 0 0 0 0 0 0 0 0 0 0 0 0 0 0 0 0 0 0 0 0 0 0 0 0 0 0 0 0 0 0 0 0 0 0 0 0 0 0 0 0 0 0 0 0 0 0 0 0 0 0 0 0 0 0 0 0 0 0
0 0 0 0 0 0 0 0 0 0 0 0 0 0 0 0 0 0 0 0 0 0 0 0 0 0 0 0 0 0 0 0 0 0 0 0 0 0 0 0 0 0 0 0 0 0 0 0 0 0 0 0 0 0 0 0 0 0 0 0 0 0 0 0 0 0 0 0 0 0 0 2000.46 1679.69 1642.58 1657.23 1911.73 0 0 2229.44 2343.02 2277.96 2885.07 2947.51 2955.92 0 2962.81 2772.83 2283.95 0 1596.86 0 0 0 0 0 0 0 0 0 0 0 0 0 0 0 0 0 0 0 0 0 0 0 0 0 0 0 0 0 0 0 0 0 0 0 0 0 0 0 0 0 0 0 0 0 0 0 0 0 0 0 0 0 0 0 0 0 0 0 0 0 0 0 0 0 0 0 0 0 0 0 0 0 0 0 0 0 0 0 0 0 0 0 0 0 0 2315.18 2807.96 2807.72 3086.6 3210.75 3351.07 3362.48 3388.63 3421.38 3358.51 3307.66 3335.88 3363.63 3380.71 3354.08 3373.84 3388.63 3344.72 3780.05 3803.18 3832.46 3176.47 3089.04 3111.44 2977.17 2774.8 2748.71 2686.52 2639.98 2723.45 2757.38 2698.1 2727.48 2797.52 2860.52 2895.72 2979.54 3006.51 2974.42 3032.32 3053.9 3083.02 3075.17 3101.49 3074.27 3074.83 2987.61 3004.41 2953.43 3008.02 2935.08 2768.07 2613.94 2715.17 2266.18 2188.64 2008.25 1969.81 1327.48 1497.13 497.173 0 0 0 0 0 0 0 0 0 0 0 0 0 0 0 0 0 0 0 0 0 0 0 0 0 0 0 0 0 0 0 0 0 0 0 0 0 0 0 0 0 0 0 0 0 0 0 0 0 0 0 0 0 0 0 0 0 0 0 0 0 0 0 0 0 0 0 0 0 0 0 0 0 0 0 0 0 0 0 0 0 0 0 0 0 0 0 0 0 0 0 0 0 0 0 0 0 0 0 0 0 0 0 0 0 0 0 0 0 0 0 0 0 0 0 0 0 0 0 0 0 0 0 0 0 0 0 0 0 0 0 0 0 0 0 0 0 0 0 0 0 0 0 0 0 0 0 0 0 0 0 0 0 0 0 0 0 0 0 0 0 0 0 0 0 0 0 0 0 0 0 0 0 0 0 0 0 0 0 0 0 0 0 0 0 0 0 0 0 0 0 0 0 0 0 0 0 0 0 0 0 0 0 0 0 0 0 0 0 0 0 0 0 0 0 0 0 0 0 0 0 0 0 0 0 0 0 0 0 0 0 0 0 0 0 0 0 0 0 0 0 0 0 0 0 0 0 0 0 0 0 0 0 0 0 0 0 0 0 0 0 0 0 0 0 0 0 0 0 0 0 0 0 0 0
0 0 0 0 0 0 0 0 0 0 0 0 0 0 0 0 0 0 0 0 0 0 0 0 0 0 0 0 0 0 0 0 0 0 0 0 0 0 0 0 0 0 0 0 0 0 0 0 0 0 0 0 0 0 0 0 0 0 0 0 0 0 0 0 0 0 0 0 0 0 0 1553.07 1413.93 1569.81 1491.9 0 0 0 1807.87 1973.43 1943.8 2279.08 2284.72 2384.47 0 0 2638.81 2615.86 1837.02 1865.39 1000.61 0 0 0 0 0 0 0 0 0 0 0 0 0 0 0 0 0 0 0 0 0 0 0 0 0 0 0 0 0 0 0 0 0 0 0 0 0 0 0 0 0 0 0 0 0 0 0 0 0 0 0 0 0 0 0 0 0 0 0 0 0 0 0 0 0 0 0 0 0 0 0 0 0 0 0 0 0 0 0 0 0 0 0 0 1991.21 2366.48 2964.59 3003.12 3266.64 3305.12 3370.52 3352.14 3372.62 3374.86 3356.63 3319.38 3328.4 3338.26 3339.93 3349.73 3374.25 3410.81 3384.8 3363.76 3377.1 3357.3 3294.93 3252.39 3266.58 3149.87 2945.23 2888.45 2803.55 2715.04 2794.12 2913.12 2869.97 2884.03 2947.61 3022.65 3045.58 3103.72 3117.68 3086.54 3055.12 3099.14 3107.58 3073.48 3066.34 3062.71 3059.47 2997.86 2945.13 2949.89 2950.41 2914.69 2769.21 2661.46 2686.17 2287 2199.63 0 0 1082.83 1285.66 0 0 0 0 0 0 0 0 0 0 0 0 0 0 0 0 0 0 0 0 0 0 0 0 0 0 0 0 0 0 0 0 0 0 0 0 0 0 0 0 0 0 0 0 0 0 0 0 0 0 0 0 0 0 0 0 0 0 0 0 0 0 0 0 0 0 0 0 0 0 0 0 0 0 0 0 0 0 0 0 0 0 0 0 0 0 0 0 0 0 0 0 0 0 0 0 0 0 0 0 0 0 0 0 0 0 0 0 0 0 0 0 0 0 0 0 0 0 0 0 0 0 0 0 0 0 0 0 0 0 0 0 0 0 0 0 0 0 0 0 0 0 0 0 0 0 0 0 0 0 0 0 0 0 0 0 0 0 0 0 0 0 0 0 0 0 0 0 0 0 0 0 0 0 0 0 0 0 0 0 0 0 0 0 0 0 0 0 0 0 0 0 0 0 0 0 0 0 0 0 0 0 0 0 0 0 0 0 0 0 0 0 0 0 0 0 0 0 0 0 0 0 0 0 0 0 0 0 0 0 0 0 0 0 0 0 0 0 0 0 0 0 0 0 0 0 0 0 0 0 0 0 0 0 0 0 0 0 0 0 0 0 0 0 0 0 0 0 0 0 0 0 0 0 0 0
0 0 0 0 0 0 0 0 0 0 0 0 0 0 0 0 0 0 0 0 0 0 0 0 0 0 0 0 0 0 0 0 0 0 0 0 0 0 0 0 0 0 0 0 0 0 0 0 0 0 0 0 0 0 0 0 0 0 0 0 0 0 0 0 0 0 0 0 0 0 0 0 1379.58 1546.67 1497.15 1841.44 1740.66 1701.29 1959.1 2192.76 2194.19 2527.51 2501.77 2458.51 2350.43 2370.29 2446.71 2302 1782.78 0 0 0 0 0 0 0 0 0 0 0 0 0 0 0 0 0 0 0 0 0 0 0 0 0 0 0 0 0 0 0 0 0 0 0 0 0 0 0 0 0 0 0 0 0 0 0 0 0 0 0 0 0 0 0 0 0 0 0 0 0 0 0 0 0 0 0 0 0 0 0 0 0 0 0 0 0 0 0 0 0 0 0 0 0 2385.93 1980.56 2337.11 3049.07 2926.79 3167.18 3210.63 3274.67 3294.03 3312.95 3353.28 3370.25 3315.64 3331.04 3316.49 3317.47 3311.91 3327.28 3360.26 3311.84 3258.9 3289.89 3261.62 3229.92 3184.61 3220.31 3117.33 2997.59 2967 2912.61 2850.27 2956.03 3049.96 2970.42 3008.18 3031.93 3095.99 3079.29 3131.06 3132.47 3091.26 3026.57 3078.33 3075.17 3046.02 3009.15 3029.25 2987.98 2917.78 2853.76 2886.61 2852.26 2755.34 2604.33 2380.24 2370.46 2179.26 2166.4 0 0 0 0 0 0 0 0 0 0 0 0 0 0 0 0 0 0 0 0 0 0 0 0 0 0 0 0 0 0 0 0 0 0 0 0 0 0 0 0 0 0 0 0 0 0 0 0 0 0 0 0 0 0 0 0 0 0 0 0 0 0 0 0 0 0 0 0 0 0 0 0 0 0 0 0 0 0 0 0 0 0 0 0 0 0 0 0 0 0 0 0 0 0 0 0 0 0 0 0 0 0 0 0 0 0 0 0 0 0 0 0 0 0 0 0 0 0 0 0 0 0 0 0 0 0 0 0 0 0 0 0 0 0 0 0 0 0 0 0 0 0 0 0 0 0 0 0 0 0 0 0 0 0 0 0 0 0 0 0 0 0 0 0 0 0 0 0 0 0 0 0 0 0 0 0 0 0 0 0 0 0 0 0 0 0 0 0 0 0 0 0 0 0 0 0 0 0 0 0 0 0 0 0 0 0 0 0 0 0 0 0 0 0 0 0 0 0 0 0 0 0 0 0 0 0 0 0 0 0 0 0 0 0 0 0 0 0 0 0 0 0 0 0 0 0 0 0 0 0 0 0 0 0 0 0 0 0 0 0 0 0 0 0 0 0 0 0 0 0 0 0 0 0 0 0 0 0 0 0
0 0 0 0 0 0 0 0 0 0 0 0 0 0 0 0 0 0 0 0 0 0 0 0 0 0 0 0 0 0 0 0 0 0 0 0 0 0 0 0 0 0 0 0 0 0 0 0 0 0 0 0 0 0 0 0 0 0 0 0 0 0 0 0 0 0 0 0 0 0 0 0 1598.77 0 1651.11 1886.81 1712.47 0 2190.35 2491.85 2572.38 2782.39 2834.33 2753.49 2872.08 2849.54 2785.77 0 2224.65 2172.15 0 0 0 0 0 0 0 0 0 0 0 0 0 0 0 0 0 0 0 0 0 0 0 0 0 0 0 0 0 0 0 0 0 0 0 0 0 0 0 0 0 0 0 0 0 0 0 0 0 0 0 0 0 0 0 0 0 0 0 0 0 0 0 0 0 0 0 0 0 0 0 0 0 0 0 0 0 0 0 0 0 0 0 0 2244.74 1831.83 2168.75 2856.33 2955.92 3102.75 3094.62 3164.61 3186.85 3244.15 3301.93 3369.78 3320.62 3343.32 3324.9 3356.09 3366.06 3392.26 3423.41 3382.89 3306.62 3347.32 3326.68 3311.71 3255.93 3261.81 3159.01 3044.09 3006.83 3024.83 2948.49 2984.79 3051.01 3042.93 3074.77 3062.87 3127.44 3074.89 3157.58 3123.14 3081.44 3062.76 3104.36 3102.29 3086.54 3074.83 3098.97 3019.82 2986.44 2976 2957.07 2907.77 2827.79 2646.35 2449.29 2561.62 2361.08 2396.32 2097.58 0 0 0 0 0 0 0 0 0 0 0 0 0 0 0 0 0 0 0 0 0 0 0 0 0 0 0 0 0 0 0 0 0 0 0 0 0 0 0 0 0 0 0 0 0 0 0 0 0 0 0 0 0 0 0 0 0 0 0 0 0 0 0 0 0 0 0 0 0 0 0 0 0 0 0 0 0 0 0 0 0 0 0 0 0 0 0 0 0 0 0 0 0 0 0 0 0 0 0 0 0 0 0 0 0 0 0 0 0 0 0 0 0 0 0 0 0 0 0 0 0 0 0 0 0 0 0 0 0 0 0 0 0 0 0 0 0 0 0 0 0 0 0 0 0 0 0 0 0 0 0 0 0 0 0 0 0 0 0 0 0 0 0 0 0 0 0 0 0 0 0 0 0 0 0 0 0 0 0 0 0 0 0 0 0 0 0 0 0 0 0 0 0 0 0 0 0 0 0 0 0 0 0 0 0 0 0 0 0 0 0 0 0 0 0 0 0 0 0 0 0 0 0 0 0 0 0 0 0 0 0 0 0 0 0 0 0 0 0 0 0 0 0 0 0 0 0 0 0 0 0 0 0 0 0 0 0 0 0 0 0 0 0 0 0 0 0 0 0 0 0 0 0 0 0 0 0 0 0
0 0 0 0 0 0 0 0 0 0 0 0 0 0 0 0 0 0 0 0 0 0 0 0 0 0 0 0 0 0 0 0 0 0 0 0 0 0 0 0 0 0 0 0 0 0 0 0 0 0 0 0 0 0 0 0 0 0 0 0 0 0 0 0 0 0 0 0 0 0 0 0 2152.78 0 1730.52 1925.22 1738.91 1784.22 2036.94 2368.72 2445.07 2456.31 2524.66 2622.4 2603.32 2689.14 2788.87 2761.74 2248.11 0 0 0 0 0 0 0 0 0 0 0 0 0 0 0 0 0 0 0 0 0 0 0 0 0 0 0 0 0 0 0 0 0 0 0 0 0 0 0 0 0 0 0 0 0 0 0 0 0 0 0 0 0 0 0 0 0 0 0 0 0 0 0 0 0 0 0 0 0 0 0 0 0 0 0 0 0 0 0 0 0 0 0 0 0 1710.53 1485.15 2012.58 2532.96 2784.7 2915.4 2937.04 3126.05 4665.13 3576.51 3427.04 3295.25 3287.12 3306.03 3348.32 3349.53 3354.75 3360.13 3373.84 3351 3285.32 3297.65 3287.64 3209.59 3170.41 3141.73 3057.74 2965.06 2930.73 2943.53 2857.84 2925.87 2975.74 2952.13 2999.79 2999.73 3082.68 3048.79 3147.98 3092 3025.92 3022.1 3067.18 3661.99 3054.79 3043.87 3034.24 2935.34 2980.76 2991.6 2980.23 2919.46 2827.02 2667 2402.67 2605.58 2328.77 2219.27 1794.77 0 0 0 0 0 0 0 0 0 0 0 0 0 0 0 0 0 0 0 0 0 0 0 0 0 0 0 0 0 0 0 0 0 0 0 0 0 0 0 0 0 0 0 0 0 0 0 0 0 0 0 0 0 0 0 0 0 0 0 0 0 0 0 0 0 0 0 0 0 0 0 0 0 0 0 0 0 0 0 0 0 0 0 0 0 0 0 0 0 0 0 0 0 0 0 0 0 0 0 0 0 0 0 0 0 0 0 0 0 0 0 0 0 0 0 0 0 0 0 0 0 0 0 0 0 0 0 0 0 0 0 0 0 0 0 0 0 0 0 0 0 0 0 0 0 0 0 0 0 0 0 0 0 0 0 0 0 0 0 0 0 0 0 0 0 0 0 0 0 0 0 0 0 0 0 0 0 0 0 0 0 0 0 0 0 0 0 0 0 0 0 0 0 0 0 0 0 0 0 0 0 0 0 0 0 0 0 0 0 0 0 0 0 0 0 0 0 0 0 0 0 0 0 0 0 0 0 0 0 0 0 0 0 0 0 0 0 0 0 0 0 0 0 0 0 0 0 0 0 0 0 0 0 0 0 0 0 0 0 0 0 0 0 0 0 0 0 0 0 0 0 0 0 0 0 0 0 0 0
0 0 0 0 0 0 0 0 0 0 0 0 0 0 0 0 0 0 0 0 0 0 0 0 0 0 0 0 0 0 0 0 0 0 0 0 0 0 0 0 0 0 0 0 0 0 0 0 0 0 0 0 0 0 0 0 0 0 0 0 0 0 0 0 0 0 0 0 0 0 0 0 0 0 0 2447.29 2117.8 2222.12 2401.85 2650.15 2745.65 2724.21 2621.82 2855.95 2781.84 2913.22 3010.39 3073.14 2755.12 2693.59 2498.82 0 0 0 0 0 0 0 0 0 0 0 0 0 0 0 0 0 0 0 0 0 0 0 0 0 0 0 0 0 0 0 0 0 0 0 0 0 0 0 0 0 0 0 0 0 0 0 0 0 0 0 0 0 0 0 0 0 0 0 0 0 0 0 0 0 0 0 0 0 0 0 0 0 0 0 0 0 0 0 0 0 0 0 0 1564.48 1997.08 2612.68 3054.18 2983.09 2908.47 4561.76 4686.63 3277.49 3448.95 3333.09 3327.67 3325.03 3360.53 3386.37 3396.04 3398.44 3400.1 3358.04 3303.62 3313.93 3292.67 3284.93 3236.39 3215.12 3134.05 3063.66 3025.7 3060.81 2956.86 3078.67 2973.47 2940.85 2959.31 2988.99 3113.17 3061.09 3129.43 3102.86 3035.66 3011.9 3117.86 3121.45 3060.92 3043.76 3035.22 2915.65 2890.49 2883.83 2889.04 2746.32 2598.44 2442.12 2239.77 2518.48 2315.43 0 0 0 0 0 0 0 0 0 0 0 0 0 0 0 0 0 0 0 0 0 0 0 0 0 0 0 0 0 0 0 0 0 0 0 0 0 0 0 0 0 0 0 0 0 0 0 0 0 0 0 0 0 0 0 0 0 0 0 0 0 0 0 0 0 0 0 0 0 0 0 0 0 0 0 0 0 0 0 0 0 0 0 0 0 0 0 0 0 0 0 0 0 0 0 0 0 0 0 0 0 0 0 0 0 0 0 0 0 0 0 0 0 0 0 0 0 0 0 0 0 0 0 0 0 0 0 0 0 0 0 0 0 0 0 0 0 0 0 0 0 0 0 0 0 0 0 0 0 0 0 0 0 0 0 0 0 0 0 0 0 0 0 0 0 0 0 0 0 0 0 0 0 0 0 0 0 0 0 0 0 0 0 0 0 0 0 0 0 0 0 0 0 0 0 0 0 0 0 0 0 0 0 0 0 0 0 0 0 0 0 0 0 0 0 0 0 0 0 0 0 0 0 0 0 0 0 0 0 0 0 0 0 0 0 0 0 0 0 0 0 0 0 0 0 0 0 0 0 0 0 0 0 0 0 0 0 0 0 0 0 0 0 0 0 0 0 0 0 0 0 0 0 0 0 0 0 0 0 0 0
0 0 0 0 0 0 0 0 0 0 0 0 0 0 0 0 0 0 0 0 0 0 0 0 0 0 0 0 0 0 0 0 0 0 0 0 0 0 0 0 0 0 0 0 0 0 0 0 0 0 0 0 0 0 0 0 0 0 0 0 0 0 0 0 0 0 0 0 0 0 0 0 0 0 2980.29 2921.34 2358.23 2362.55 2498.94 2640.02 2613.45 2592.53 2526.86 2613.82 2628.48 2810.03 2903.69 2931.7 2827.41 2851.14 2701.79 0 0 0 0 0 0 0 0 0 0 0 0 0 0 0 0 0 0 0 0 0 0 0 0 0 0 0 0 0 0 0 0 0 0 0 0 0 0 0 0 0 0 0 0 0 0 0 0 0 0 0 0 0 0 0 0 0 0 0 0 0 0 0 0 0 0 0 0 0 0 0 0 0 0 0 0 0 0 0 0 0 0 0 0 0 2334.8 2998.93 3235.02 5618 3048.68 3063.66 3107.35 3211.98 3260.04 3292.6 3299.4 3291.18 3330.05 3340.86 3377.44 3395.42 3404.51 3371.13 3313.61 3314.59 3290.34 3284.61 3263.97 3251.07 3130.77 3028.81 3020.74 3068.31 2947.61 3090.35 3048.96 2981.34 3084.55 3164.49 3280.69 3209.16 3620.74 3279.99 4403.25 3222.47 4125.43 3934.65 3185.27 3157.76 3136.45 2972.84 2925.41 2889.09 2827.41 2689.75 2557.75 2277.99 2090.91 2313.39 2159.48 0 0 0 0 0 0 0 0 0 0 0 0 0 0 0 0 0 0 0 0 0 0 0 0 0 0 0 0 0 0 0 0 0 0 0 0 0 0 0 0 0 0 0 0 0 0 0 0 0 0 0 0 0 0 0 0 0 0 0 0 0 0 0 0 0 0 0 0 0 0 0 0 0 0 0 0 0 0 0 0 0 0 0 0 0 0 0 0 0 0 0 0 0 0 0 0 0 0 0 0 0 0 0 0 0 0 0 0 0 0 0 0 0 0 0 0 0 0 0 0 0 0 0 0 0 0 0 0 0 0 0 0 0 0 0 0 0 0 0 0 0 0 0 0 0 0 0 0 0 0 0 0 0 0 0 0 0 0 0 0 0 0 0 0 0 0 0 0 0 0 0 0 0 0 0 0 0 0 0 0 0 0 0 0 0 0 0 0 0 0 0 0 0 0 0 0 0 0 0 0 0 0 0 0 0 0 0 0 0 0 0 0 0 0 0 0 0 0 0 0 0 0 0 0 0 0 0 0 0 0 0 0 0 0 0 0 0 0 0 0 0 0 0 0 0 0 0 0 0 0 0 0 0 0 0 0 0 0 0 0 0 0 0 0 0 0 0 0 0 0 0 0 0 0 0 0 0 0 0 0 0
0 0 0 0 0 0 0 0 0 0 0 0 0 0 0 0 0 0 0 0 0 0 0 0 0 0 0 0 0 0 0 0 0 0 0 0 0 0 0 0 0 0 0 0 0 0 0 0 0 0 0 0 0 0 0 0 0 0 0 0 0 0 0 0 0 0 0 0 0 0 0 0 3503.25 3644.8 3133.46 3094.11 2549.01 2542.33 2696.79 2791.79 2737.05 2647.93 2598.4 2797.24 2869.62 3012.17 3024.17 3024.45 2914.49 2977.38 2770.91 0 0 0 0 0 0 0 0 0 0 0 0 0 0 0 0 0 0 0 0 0 0 0 0 0 0 0 0 0 0 0 0 0 0 0 0 0 0 0 0 0 0 0 0 0 0 0 0 0 0 0 0 0 0 0 0 0 0 0 0 0 0 0 0 0 0 0 0 0 0 0 0 0 0 0 0 0 0 0 0 0 0 0 0 0 1814.67 2545.22 2812.19 2870.02 2891.63 3077.76 3208.05 3314 4932.43 3453 3423.9 3434.62 3464.26 3476.75 3481.15 3470.93 3472.65 3383.44 3361.47 3369.71 3288.73 3290.34 3227.06 3190.36 3047.63 2927.96 2921.64 2886.26 2752.27 2857.84 2775.49 2807.86 2903.34 5262.75 5244.32 5795.97 3788.59 3779.03 3724.42 4374.55 4208.63 4045.36 3210.26 3148.45 3147.81 2941.88 2915.55 2910.74 2776.64 2623.96 2536.56 2291.53 2001.08 2131.96 0 0 0 0 0 0 0 0 0 0 0 0 0 0 0 0 0 0 0 0 0 0 0 0 0 0 0 0 0 0 0 0 0 0 0 0 0 0 0 0 0 0 0 0 0 0 0 0 0 0 0 0 0 0 0 0 0 0 0 0 0 0 0 0 0 0 0 0 0 0 0 0 0 0 0 0 0 0 0 0 0 0 0 0 0 0 0 0 0 0 0 0 0 0 0 0 0 0 0 0 0 0 0 0 0 0 0 0 0 0 0 0 0 0 0 0 0 0 0 0 0 0 0 0 0 0 0 0 0 0 0 0 0 0 0 0 0 0 0 0 0 0 0 0 0 0 0 0 0 0 0 0 0 0 0 0 0 0 0 0 0 0 0 0 0 0 0 0 0 0 0 0 0 0 0 0 0 0 0 0 0 0 0 0 0 0 0 0 0 0 0 0 0 0 0 0 0 0 0 0 0 0 0 0 0 0 0 0 0 0 0 0 0 0 0 0 0 0 0 0 0 0 0 0 0 0 0 0 0 0 0 0 0 0 0 0 0 0 0 0 0 0 0 0 0 0 0 0 0 0 0 0 0 0 0 0 0 0 0 0 0 0 0 0 0 0 0 0 0 0 0 0 0 0 0 0 0 0 0 0 0 0
0 0 0 0 0 0 0 0 0 0 0 0 0 0 0 0 0 0 0 0 0 0 0 0 0 0 0 0 0 0 0 0 0 0 0 0 0 0 0 0 0 0 0 0 0 0 0 0 0 0 0 0 0 0 0 0 0 0 0 0 0 0 0 0 0 0 0 0 0 0 0 3359.92 3664.95 3724.67 3330.97 3251.64 2832.23 2828.98 2936.37 2939.56 2834.81 2767.29 2702.88 2857.11 2827.69 2880.66 2837.4 2849.98 2750.74 2807.16 2548.43 2592.69 2476.55 2560.14 0 0 0 0 0 0 0 0 0 0 0 0 0 0 0 0 0 0 0 0 0 0 0 0 0 0 0 0 0 0 0 0 0 0 0 0 0 0 0 0 0 0 0 0 0 0 0 0 0 0 0 0 0 0 0 0 0 0 0 0 0 0 0 0 0 0 0 0 0 0 0 0 0 0 0 0 0 0 0 0 0 0 2127.69 2356.04 2755.93 2762.51 2757.38 2889.49 3092.74 4688.47 3499.67 3545.45 3453.64 3744.45 3382.55 4166 3435.32 3417.83 3419.5 3317.67 3312.69 3315.18 3253.4 3303.04 3258.08 3207.32 3102.58 2999.09 3023.96 2927.5 2847.08 2956.08 2886.21 2835.86 3032.7 5212.71 5206.08 4241.51 4920.57 4890.02 4747.64 4433.03 4271.09 4060.73 3901.17 3065.11 3064.5 2836.49 2839.27 2849.93 2779.81 2644.6 2539.41 2222.35 1878.51 1924.36 0 0 0 0 0 0 0 0 0 0 0 0 0 0 0 0 0 0 0 0 0 0 0 0 0 0 0 0 0 0 0 0 0 0 0 0 0 0 0 0 0 0 0 0 0 0 0 0 0 0 0 0 0 0 0 0 0 0 0 0 0 0 0 0 0 0 0 0 0 0 0 0 0 0 0 0 0 0 0 0 0 0 0 0 0 0 0 0 0 0 0 0 0 0 0 0 0 0 0 0 0 0 0 0 0 0 0 0 0 0 0 0 0 0 0 0 0 0 0 0 0 0 0 0 0 0 0 0 0 0 0 0 0 0 0 0 0 0 0 0 0 0 0 0 0 0 0 0 0 0 0 0 0 0 0 0 0 0 0 0 0 0 0 0 0 0 0 0 0 0 0 0 0 0 0 0 0 0 0 0 0 0 0 0 0 0 0 0 0 0 0 0 0 0 0 0 0 0 0 0 0 0 0 0 0 0 0 0 0 0 0 0 0 0 0 0 0 0 0 0 0 0 0 0 0 0 0 0 0 0 0 0 0 0 0 0 0 0 0 0 0 0 0 0 0 0 0 0 0 0 0 0 0 0 0 0 0 0 0 0 0 0 0 0 0 0 0 0 0 0 0 0 0 0 0 0 0 0 0 0 0 0
0 0 0 0 0 0 0 0 0 0 0 0 0 0 0 0 0 0 0 0 0 0 0 0 0 0 0 0 0 0 0 0 0 0 0 0 0 0 0 0 0 0 0 0 0 0 0 0 0 0 0 0 0 0 0 0 0 0 0 0 0 0 0 0 0 0 0 0 0 0 0 3441.74 3906.43 3899.08 3523.78 3543.13 3235.52 3229.04 3303.04 3268.87 3140.68 3013.42 2935.08 3059.13 3006.94 2981.98 2863.21 2865.11 2798.12 2772.65 2492.22 2612.88 2460.42 2468.38 2542.87 0 0 0 0 0 0 0 0 0 0 0 0 0 0 0 0 0 0 0 0 0 0 0 0 0 0 0 0 0 0 0 0 0 0 0 0 0 0 0 0 0 0 0 0 0 0 0 0 0 0 0 0 0 0 0 0 0 0 0 0 0 0 0 0 0 0 0 0 0 0 0 0 0 0 0 0 0 0 0 0 1915.44 2318.57 2677.34 2959.83 2837.59 2665.94 2842.74 3018.46 3062.65 3708.94 3749.89 3337.67 3341.52 3353.34 3398.44 3420.27 3392.95 3418.18 3332.17 3323.65 3329.52 3245.72 3284.74 3284.16 3245.97 3203.46 3168.19 3182.98 3116.52 3061.42 3233.77 3217.53 3041 3133.93 3221.6 3547.25 6110.93 4877.65 4885.46 4778.33 4420.07 3272.89 3165.86 3141.73 2979.23 3005.48 2783.45 2840.28 2850.12 2809.74 2625.48 2505.58 2132.2 1825.99 1833.69 0 0 0 0 0 0 0 0 0 0 0 0 0 0 0 0 0 0 0 0 0 0 0 0 0 0 0 0 0 0 0 0 0 0 0 0 0 0 0 0 0 0 0 0 0 0 0 0 0 0 0 0 0 0 0 0 0 0 0 0 0 0 0 0 0 0 0 0 0 0 0 0 0 0 0 0 0 0 0 0 0 0 0 0 0 0 0 0 0 0 0 0 0 0 0 0 0 0 0 0 0 0 0 0 0 0 0 0 0 0 0 0 0 0 0 0 0 0 0 0 0 0 0 0 0 0 0 0 0 0 0 0 0 0 0 0 0 0 0 0 0 0 0 0 0 0 0 0 0 0 0 0 0 0 0 0 0 0 0 0 0 0 0 0 0 0 0 0 0 0 0 0 0 0 0 0 0 0 0 0 0 0 0 0 0 0 0 0 0 0 0 0 0 0 0 0 0 0 0 0 0 0 0 0 0 0 0 0 0 0 0 0 0 0 0 0 0 0 0 0 0 0 0 0 0 0 0 0 0 0 0 0 0 0 0 0 0 0 0 0 0 0 0 0 0 0 0 0 0 0 0 0 0 0 0 0 0 0 0 0 0 0 0 0 0 0 0 0 0 0 0 0 0 0 0 0 0 0 0 0 0 0
0 0 0 0 0 0 0 0 0 0 0 0 0 0 0 0 0 0 0 0 0 0 0 0 0 0 0 0 0 0 0 0 0 0 0 0 0 0 0 0 0 0 0 0 0 0 0 0 0 0 0 0 0 0 0 0 0 0 0 0 0 0 0 0 0 0 0 0 0 3049.85 3373.64 3380.91 3872.08 3911.53 3524.67 3612.08 3369.71 3425.85 3489.05 3427.67 3276.14 3153.07 3057.4 3183.88 3131.3 3052.06 2890.14 2818.86 2764.6 2827.83 2516.36 2624 2466.86 2490.92 0 0 0 0 0 0 0 0 0 0 0 0 0 0 0 0 0 0 0 0 0 0 0 0 0 0 0 0 0 0 0 0 0 0 0 0 0 0 0 0 0 0 0 0 0 0 0 0 0 0 0 0 0 0 0 0 0 0 0 0 0 0 0 0 0 0 0 0 0 0 0 0 0 0 0 0 0 0 0 0 0 0 2291.37 2529.41 2760.78 2660.83 2578.07 2853.57 3087.28 3128.84 3671.52 3717.73 3320.76 3341.59 3378.53 3752.99 3432.65 3387.26 3377.78 3269.89 3288.34 3277.36 3167.18 3147.51 3119.48 3073.53 3030.13 3012.28 3042.16 2940.07 2959 5657.4 3083.59 2816.35 2831.75 6445.71 6294.57 4935.48 4912.36 5750.67 4777.51 4462.27 3225.94 4074.93 3124.88 3004.03 2929.75 2680.08 2656.7 2758.47 2601.46 2559.74 2393.45 2074.01 0 0 0 0 0 0 0 0 0 0 0 0 0 0 0 0 0 0 0 0 0 0 0 0 0 0 0 0 0 0 0 0 0 0 0 0 0 0 0 0 0 0 0 0 0 0 0 0 0 0 0 0 0 0 0 0 0 0 0 0 0 0 0 0 0 0 0 0 0 0 0 0 0 0 0 0 0 0 0 0 0 0 0 0 0 0 0 0 0 0 0 0 0 0 0 0 0 0 0 0 0 0 0 0 0 0 0 0 0 0 0 0 0 0 0 0 0 0 0 0 0 0 0 0 0 0 0 0 0 0 0 0 0 0 0 0 0 0 0 0 0 0 0 0 0 0 0 0 0 0 0 0 0 0 0 0 0 0 0 0 0 0 0 0 0 0 0 0 0 0 0 0 0 0 0 0 0 0 0 0 0 0 0 0 0 0 0 0 0 0 0 0 0 0 0 0 0 0 0 0 0 0 0 0 0 0 0 0 0 0 0 0 0 0 0 0 0 0 0 0 0 0 0 0 0 0 0 0 0 0 0 0 0 0 0 0 0 0 0 0 0 0 0 0 0 0 0 0 0 0 0 0 0 0 0 0 0 0 0 0 0 0 0 0 0 0 0 0 0 0 0 0 0 0 0 0 0 0 0 0 0 0 0 0
0 0 0 0 0 0 0 0 0 0 0 0 0 0 0 0 0 0 0 0 0 0 0 0 0 0 0 0 0 0 0 0 0 0 0 0 0 0 0 0 0 0 0 0 0 0 0 0 0 0 0 0 0 0 0 0 0 0 0 0 0 0 0 0 0 0 0 0 0 3100.74 3535.21 3541.48 3958.13 4002.23 3629.9 3687.34 3509.55 3541.56 3552.5 3467.99 3310.73 3223.83 3133.11 3201.26 3174.49 3073.25 2949.53 2915.09 2879.23 3016.4 2721.77 2812.48 2696.71 2583.04 2776.5 2553.51 2219.18 1601.28 836.253 638.7 0 0 0 0 0 0 0 0 0 0 0 0 0 0 0 0 0 0 0 0 0 0 0 0 0 0 0 0 0 0 0 0 0 0 0 0 0 0 0 0 0 0 0 0 0 0 0 0 0 0 0 0 0 0 0 0 0 0 0 0 0 0 0 0 0 0 0 0 0 0 0 0 0 0 0 0 0 0 2886.06 2707.81 2574.47 2870.95 3063.82 3104.7 4943.04 3290.79 3296.03 3261.75 3312.76 3410.4 3404.37 3370.45 3398.79 3291.05 3353.34 3302.52 3219.87 3184.55 3113.23 3059.58 2995.56 2891.28 2873.16 2752.63 2763.51 5518.59 2916.01 2636.99 2560.41 2665.31 3048.4 4872.41 4893.44 4716.27 4646.01 4503.35 4213.71 4196.84 3251.26 3850.93 3036.27 2844.81 2847.27 3007.85 2791.19 2721.02 2438.39 2098.65 0 0 0 0 0 0 0 0 0 0 0 0 0 0 0 0 0 0 0 0 0 0 0 0 0 0 0 0 0 0 0 0 0 0 0 0 0 0 0 0 0 0 0 0 0 0 0 0 0 0 1687.36 0 0 0 0 0 0 0 0 0 0 0 0 0 0 0 0 0 0 0 0 0 0 0 0 0 0 0 0 0 0 0 0 0 0 0 0 0 0 0 0 0 0 0 0 0 0 0 0 0 0 0 0 0 0 0 0 0 0 0 0 0 0 0 0 0 0 0 0 0 0 0 0 0 0 0 0 0 0 0 0 0 0 0 0 0 0 0 0 0 0 0 0 0 0 0 0 0 0 0 0 0 0 0 0 0 0 0 0 0 0 0 0 0 0 0 0 0 0 0 0 0 0 0 0 0 0 0 0 0 0 0 0 0 0 0 0 0 0 0 0 0 0 0 0 0 0 0 0 0 0 0 0 0 0 0 0 0 0 0 0 0 0 0 0 0 0 0 0 0 0 0 0 0 0 0 0 0 0 0 0 0 0 0 0 0 0 0 0 0 0 0 0 0 0 0 0 0 0 0 0 0 0 0 0 0 0 0 0 0 0 0 0 0 0 0 0 0 0 0 0 0 0 0 0 0 0 0 0 0 0 0 0 0
0 0 0 0 0 0 0 0 0 0 0 0 0 0 0 0 0 0 0 0 0 0 0 0 0 0 0 0 0 0 0 0 0 0 0 0 0 0 0 0 0 0 0 0 0 0 0 0 0 0 0 0 0 0 0 0 0 0 0 0 0 0 0 0 0 0 0 0 0 2827.36 3111.61 3364.64 3733.7 3746.71 3539.76 3596.52 3468.85 3481.3 3473.95 3456.34 3313.74 3248.11 3201.99 3245.47 3253.4 3182.56 3084.44 3076.69 3010.12 3102.23 2804.91 2823.98 2669.8 2405.98 2442.76 2355.32 0 1852.05 1463.01 1312.18 1023.2 0 0 0 0 0 0 0 0 0 0 0 0 0 0 0 0 0 0 0 0 0 0 0 0 0 0 0 0 0 0 0 0 0 0 0 0 0 0 0 0 0 0 0 0 0 0 0 0 0 0 0 0 0 0 0 0 0 0 0 0 0 0 0 0 0 0 0 0 0 0 0 0 0 0 0 0 0 0 2775.67 2717.15 3000.32 3204.44 3191.82 4955.15 4899.45 4859.01 3312.5 3350.87 3396.17 3396.31 3307.14 3331.97 3220.8 3331.7 3234.65 3101.66 3059.3 3049.35 2989.9 2962.66 2895.02 2829.27 2677.43 2701.22 2905.15 2762.51 2387.56 2220 2293.53 2698.36 2821.23 2912.06 2882.04 2839.08 2912.16 3057.52 3112.82 3065.5 2906.16 2794.4 2643.05 2506.48 2560.68 2445.32 2420.03 2068.05 1719.61 0 0 0 0 0 0 0 0 0 0 0 0 0 0 0 0 0 0 0 0 0 0 0 0 0 0 0 0 0 0 0 0 0 0 0 0 0 0 0 0 2504.01 2585.38 2339.58 2744.88 2237.02 2396.08 0 2279.01 0 2439.24 2557.48 2803.45 0 0 0 0 0 0 0 0 0 0 0 0 0 0 0 0 0 0 0 0 0 0 0 0 0 0 0 0 0 0 0 0 0 0 0 0 0 0 0 0 0 0 0 0 0 0 0 0 0 0 0 0 0 0 0 0 0 0 0 0 0 0 0 0 0 0 0 0 0 0 0 0 0 0 0 0 0 0 0 0 0 0 0 0 0 0 0 0 0 0 0 0 0 0 0 0 0 0 0 0 0 0 0 0 0 0 0 0 0 0 0 0 0 0 0 0 0 0 0 0 0 0 0 0 0 0 0 0 0 0 0 0 0 0 0 0 0 0 0 0 0 0 0 0 0 0 0 0 0 0 0 0 0 0 0 0 0 0 0 0 0 0 0 0 0 0 0 0 0 0 0 0 0 0 0 0 0 0 0 0 0 0 0 0 0 0 0 0 0 0 0 0 0 0 0 0 0 0 0 0 0 0 0 0 0 0 0 0 0 0 0 0 0 0 0 0 0 0 0 0 0 0 0 0 0 0 0 0 0 0 0 0
0 0 0 0 0 0 0 0 0 0 0 0 0 0 0 0 0 0 0 0 0 0 0 0 0 0 0 0 0 0 0 0 0 0 0 0 0 0 0 0 0 0 0 0 0 0 0 0 0 0 0 0 0 0 0 0 0 0 0 0 0 0 0 0 0 0 0 0 0 3069.88 3284.67 3455.2 3866.37 3902.71 3717.73 3694.08 3636.59 3622.22 3581.63 3518.09 3370.39 3304.34 3251.76 3262.26 3273.91 3165.32 3047.85 3060.3 3070.16 3184.91 2883.13 2818.1 2728.72 2445.32 2594.9 2678.5 2401.68 2193.93 1600.58 1038.28 0 0 0 0 0 0 0 0 0 0 0 0 0 0 0 0 0 0 0 0 0 0 0 0 0 0 0 0 0 0 0 0 0 0 0 0 0 0 0 0 0 0 0 0 0 0 0 0 0 0 0 0 0 0 0 0 0 0 0 0 0 0 0 0 0 0 0 0 0 0 0 0 0 0 0 0 0 0 0 2831.84 2705.93 2904.24 3132.06 3113.28 4377.63 4595.12 4705.82 3366.13 3336.07 3419.01 3439.55 3327.01 3344.52 3221.79 3312.76 3219.69 3097.65 3174.13 3111.21 3086.77 3083.76 3039.35 2944.66 2710.26 2729.7 2919.51 2655.9 2348.3 2126.88 2164.05 2710.21 2900.93 2869.18 2747.94 2800.37 2773.01 2965.59 3032.59 2970.1 2771.09 2636.53 2579.02 2485.68 2454.3 0 0 0 0 0 0 0 0 0 0 0 0 0 0 0 0 0 0 0 0 0 0 0 0 0 0 0 0 0 0 0 0 0 0 0 0 0 0 0 0 0 0 0 0 2802.14 2711.53 2692.29 2886.01 2597.71 2623.87 2713.72 2507.15 2831.75 0 2787.8 0 0 0 0 0 0 0 0 0 0 0 0 0 0 0 0 0 0 0 0 0 0 0 0 0 0 0 0 0 0 0 0 0 0 0 0 0 0 0 0 0 0 0 0 0 0 0 0 0 0 0 0 0 0 0 0 0 0 0 0 0 0 0 0 0 0 0 0 0 0 0 0 0 0 0 0 0 0 0 0 0 0 0 0 0 0 0 0 0 0 0 0 0 0 0 0 0 0 0 0 0 0 0 0 0 0 0 0 0 0 0 0 0 0 0 0 3338.2 3648.61 3623.94 3573.84 3453.14 3389.45 3686.77 0 0 0 0 0 0 0 0 0 0 0 0 0 0 0 0 0 0 0 0 0 0 0 0 0 0 0 0 0 0 0 0 0 0 0 0 0 0 0 0 0 0 0 0 0 0 0 0 0 0 0 0 0 0 0 0 0 0 0 0 0 0 0 0 0 0 0 0 0 0 0 0 0 0 0 0 0 0 0 0 0 0 0 0 0 0 0 0 0 0 0 0 0 0 0 0 0 0 0 0 0 0 0 0 0 0 0 0 0 0
0 0 0 0 0 0 0 0 0 0 0 0 0 0 0 0 0 0 0 0 0 0 0 0 0 0 0 0 0 0 0 0 0 0 0 0 0 0 0 0 0 0 0 0 0 0 0 0 0 0 0 0 0 0 0 0 0 0 0 0 0 0 0 0 0 0 0 0 3064.66 3069.49 3258.9 3320.3 3601.77 3673.37 3541.11 3603.63 3622.06 3616.99 3578.04 3519.42 3395.07 3346.92 3334.35 3329.85 3325.56 3164.97 3054.68 3036.43 3036.43 3157.22 2852.11 2664.29 2568.99 2205.93 2320.01 2324.09 2327.12 2222.32 1860.37 1692.31 0 0 0 0 0 0 0 0 0 0 0 0 0 0 0 0 0 0 0 0 0 0 0 0 0 0 0 0 0 0 0 0 0 0 0 0 0 0 0 0 0 0 0 0 0 0 0 0 0 0 0 0 0 0 0 0 0 0 0 0 0 0 0 0 0 0 0 0 0 0 0 0 0 0 0 0 0 0 0 2877.3 2805.56 3007.75 3234.71 3086.94 3338.33 3322.47 3336.41 3336.8 3222.84 3172.99 3192.97 3130.54 3184.91 3118.84 3205.23 3155.09 2991.34 3066.34 3159.48 3159.78 3074.49 3003.22 2790.68 2555.73 2556.7 2675.76 2621.58 2272.53 2084.42 2100.81 2728.1 3029.58 2925.36 2815.59 2768.8 2781.38 2876.56 2968.84 2936.21 2621.74 2569.31 2597.15 2508.01 0 0 0 0 0 0 0 0 0 0 0 0 0 0 0 0 0 0 0 0 0 0 0 0 0 0 0 0 0 0 0 0 0 0 0 0 0 0 0 0 0 1882.6 0 0 0 2725.8 2684.37 2684.24 2843.6 2848.77 2808.71 2897.42 2730.95 2942.44 2862.23 3080.02 3256.5 0 0 0 0 0 0 0 0 0 0 0 0 0 0 0 0 0 0 0 0 0 0 0 0 0 0 0 0 0 0 0 0 0 0 0 0 0 0 0 0 0 0 0 0 0 0 0 0 0 0 0 0 0 0 0 0 0 0 0 0 0 0 0 0 0 0 0 0 0 0 0 0 0 0 0 0 0 0 0 0 0 0 0 0 0 0 0 0 0 0 0 0 0 0 0 0 0 0 0 0 0 0 0 0 0 0 0 0 0 0 0 0 0 3125.41 3311.45 3103.55 3367.75 3378.53 3386.71 3334.15 3294.35 3565.03 3588.14 3317.74 3614.26 3009.26 0 0 0 1890.96 954.2 711.484 0 0 0 0 0 0 0 0 0 0 0 0 0 0 0 0 0 0 0 0 0 0 0 0 0 0 0 0 0 0 0 0 0 0 0 0 0 0 0 0 0 0 0 0 0 0 0 0 0 0 0 0 0 0 0 0 0 0 0 0 0 0 0 0 0 0 0 0 0 0 0 0 0 0 0 0 0 0 0 0 0 0 0 0 0 0 0 0 0 0 0 0 0 0 0 0 0 0 0 0
0 0 0 0 0 0 0 0 0 0 0 0 0 0 0 0 0 0 0 0 0 0 0 0 0 0 0 0 0 0 0 0 0 0 0 0 0 0 0 0 0 0 0 0 0 0 0 0 0 0 0 0 0 0 0 0 0 0 0 0 0 0 0 0 0 0 0 0 2948.65 2911.7 3179.18 3160.67 3299.73 3491.22 3328.93 3455.42 3540.88 3601.07 3575.75 3508.38 3463.62 3445.48 3456.13 3486.15 3438.21 3253.15 3141.5 3073.03 3029.85 3174.13 2898.83 2661.16 2516.21 2256.46 2289.68 2252.88 2155.54 2253.21 1835.09 1498.91 1376.95 0 0 0 0 0 0 0 0 0 0 0 0 0 0 0 0 0 0 0 0 0 0 0 0 0 0 0 0 0 0 0 0 0 0 0 0 0 0 0 0 0 0 0 0 0 0 0 0 0 0 0 0 0 0 0 0 0 0 0 0 0 0 0 0 0 0 0 0 0 0 0 0 0 0 0 0 0 0 0 2143.1 2817.86 3210.82 3052.68 3229.85 3272.76 3225.94 3281.91 3207.26 3199.06 3180.44 3090.69 3157.58 3158 3299.08 3334.62 3211.68 3278.9 3371.33 3346.05 3340.59 3332.83 2987.56 2623.75 2578.75 2573.29 2425.42 1998.68 1906.47 1943.48 2229.68 0 2238.39 2354.75 2387.73 2403.74 2574.04 2851.82 2893.93 2684.37 2672.48 2848.43 0 0 0 0 0 0 0 0 0 0 0 0 0 0 0 0 0 0 0 0 0 0 0 0 0 0 0 0 0 0 0 0 0 0 0 0 0 0 0 0 0 0 1853.15 0 0 2875.87 2913.93 2904.4 2868.79 2870.46 2824.26 2752.09 2786.69 2677.13 2808.62 2830.03 2973.47 3167.65 3267.09 3298.88 3271.54 3227 2028.35 812.867 630.323 0 0 0 0 0 0 0 0 0 0 0 0 0 0 0 0 0 0 0 0 0 0 0 0 0 0 0 0 0 0 0 0 0 0 0 0 0 0 0 0 0 0 0 0 0 0 0 0 0 0 0 0 0 0 0 0 0 0 0 0 0 0 0 0 0 0 0 0 0 0 0 0 0 0 0 0 0 0 0 0 0 0 0 0 0 0 0 0 0 0 0 0 0 0 0 0 0 0 0 0 0 0 0 0 3033.96 3194.25 3398.58 3454.78 3334.62 3567.84 3667.67 3662.23 3740.86 3775.88 3867.35 3827.22 3651.86 3659.75 3206.27 2777.42 0 0 1799.14 1350.44 861.594 0 0 0 0 0 0 0 0 0 0 0 0 0 0 0 0 0 0 0 0 0 0 0 0 0 0 0 0 0 0 0 0 0 0 0 0 0 0 0 0 0 0 0 0 0 0 0 0 0 0 0 0 0 0 0 0 0 0 0 0 0 0 0 0 0 0 0 0 0 0 0 0 0 0 0 0 0 0 0 0 0 0 0 0 0 0 0 0 0 0 0 0 0 0 0 0 0 0 0 0
0 0 0 0 0 0 0 0 0 0 0 0 0 0 0 0 0 0 0 0 0 0 0 0 0 0 0 0 0 0 0 0 0 0 0 0 0 0 0 0 0 0 0 0 0 0 0 0 0 0 0 0 0 0 0 0 0 0 0 0 0 0 0 0 0 0 0 0 2992.3 3079.46 3253.59 3234.83 3301.15 3419.78 3356.83 3528.08 3624.96 3645.04 3544.77 3488.54 3456.7 3479.35 3477.11 3469.49 3356.77 3163.95 3097.36 3050.29 3059.02 3133.69 2932.57 2744.44 2625.11 2673.55 2904.34 2690.7 2615.78 2360.55 1844.05 1816.28 2034.4 0 0 0 0 0 0 0 0 0 0 0 0 0 0 0 0 0 0 0 0 0 0 0 0 0 0 0 0 0 0 0 0 0 0 0 0 0 0 0 0 0 0 0 0 0 0 0 0 0 0 0 0 0 0 0 0 0 0 0 0 0 0 0 0 0 0 0 0 0 0 0 0 0 0 0 0 0 0 0 1880.38 2646.18 2822.51 2658.51 2744.48 2924.03 2931.29 3001.08 2930.78 2983.25 2960.77 2924.75 3039.46 3031.71 3084.72 3152.18 3179.84 3260.61 3300.38 3305.97 3278.51 3053.56 2726.2 2569.55 2543.02 2333.73 2202.51 1755.2 1858.55 0 0 0 2030.8 0 0 2170.63 2309.38 2545.3 0 0 0 0 0 0 0 0 0 0 0 0 0 0 0 0 0 0 0 0 0 0 0 0 0 0 0 0 0 0 0 0 0 0 0 0 0 0 0 0 0 0 0 0 0 1765.82 2274.41 2636.62 3187.27 3084.21 3075.51 3148.28 3136.68 3147.21 3199.31 3073.93 3104.99 2989.69 3113.86 3111.03 3174.67 3346.25 3373.23 3382.34 3616.75 3881.85 3366.19 1038.71 572.601 0 0 0 0 0 0 0 0 0 0 0 0 0 0 0 0 0 0 0 0 0 0 0 0 0 0 0 0 0 0 0 0 0 0 0 0 0 0 0 0 0 0 0 0 0 0 0 0 0 0 0 0 0 0 0 0 0 0 0 0 0 0 0 0 0 0 0 0 0 0 0 0 0 0 0 0 0 0 0 0 0 0 0 0 0 0 0 0 0 0 0 0 0 0 0 0 0 0 0 0 0 0 0 2656.78 2892.93 3008.45 3173.47 3296.36 3163 3334.55 3486.15 4022.66 3923.15 3436.73 3463.33 3398.58 3191.82 3307.21 2917.63 2669.72 2231.9 2082.53 1953.67 1420.74 1135.47 0 0 0 0 0 0 0 0 0 0 0 0 0 0 0 0 0 0 0 0 0 0 0 0 0 0 0 0 0 0 0 0 0 0 0 0 0 0 0 0 0 0 0 0 0 0 0 0 0 0 0 0 0 0 0 0 0 0 0 0 0 0 0 0 0 0 0 0 0 0 0 0 0 0 0 0 0 0 0 0 0 0 0 0 0 0 0 0 0 0 0 0 0 0 0 0 0 0 0 0
0 0 0 0 0 0 0 0 0 0 0 0 0 0 0 0 0 0 0 0 0 0 0 0 0 0 0 0 0 0 0 0 0 0 0 0 0 0 0 0 0 0 0 0 0 0 0 0 0 0 0 0 0 0 0 0 0 0 0 0 0 0 0 0 0 0 0 0 2740.76 2931.34 3074.55 3086.82 3225.13 3299.08 3292.02 3510.51 3637.85 3668.47 3534.54 3492.46 3463.91 3474.45 3498.14 3486.44 3399.89 3250.31 3171.79 3114.56 3129.72 3208.54 3044.2 2783.92 2636.7 2578.71 2623.38 2459.38 2447.46 2036.35 1602.97 1241.4 2075.65 0 0 0 0 0 0 0 0 0 0 0 0 0 0 0 0 0 0 0 0 0 0 0 0 0 0 0 0 0 0 0 0 0 0 0 0 0 0 0 0 0 0 0 0 0 0 0 0 0 0 0 0 0 0 0 0 0 0 0 0 0 0 0 0 0 0 0 0 0 0 0 0 0 0 0 0 0 0 0 0 0 0 3342.39 3335.48 3446.61 3320.49 3312.04 3133.23 3133.05 3062.48 2952.02 2961.09 2973.58 2981.66 2896.12 2852.74 2916.36 2816.92 2729.43 2722.92 2579.74 1994.23 2015.58 2225.89 1916.12 1752.67 1494.13 0 0 0 0 0 0 0 0 0 0 0 0 0 0 0 0 0 0 0 0 0 0 0 0 0 0 0 0 0 0 0 0 0 0 0 0 0 0 0 0 0 0 0 0 0 0 0 0 0 0 0 0 1179.66 1247.6 1634.65 1908.66 2352.02 2743.72 3212.78 3159.36 3115.19 3121.04 3215 3147.92 3223.96 3194.49 3294.87 3217.9 3327.87 3390.41 3476.61 3547.62 3690.01 3679.82 3843.43 3843.61 3410.6 2397.11 979.553 0 0 0 0 0 0 0 0 0 0 0 0 0 0 0 0 0 0 0 0 0 0 0 0 0 0 0 0 0 0 0 0 0 0 0 0 0 0 0 0 0 0 0 0 0 0 0 0 0 0 0 0 0 0 0 0 0 0 0 0 0 0 0 0 0 0 0 0 0 0 0 0 0 0 0 0 0 0 0 0 0 0 0 0 0 0 0 0 0 0 0 0 0 0 0 0 0 0 0 0 0 0 2261.96 2655.39 2874.64 2945.96 3063.49 3114.79 3004.46 3202.3 3357.64 4038.84 3979.07 3319.57 3361.14 3315.57 3338.13 3410.12 3196.68 2892.88 2464.58 2348.2 2219.44 1711.25 1597.29 0 0 0 0 0 0 0 0 0 0 0 0 0 0 0 0 0 0 0 0 0 0 0 0 0 0 0 0 0 0 0 0 0 0 0 0 0 0 0 0 0 0 0 0 0 0 0 0 0 0 0 0 0 0 0 0 0 0 0 0 0 0 0 0 0 0 0 0 0 0 0 0 0 0 0 0 0 0 0 0 0 0 0 0 0 0 0 0 0 0 0 0 0 0 0 0 0 0 0 0
0 0 0 0 0 0 0 0 0 0 0 0 0 0 0 0 0 0 0 0 0 0 0 0 0 0 0 0 0 0 0 0 0 0 0 0 0 0 0 0 0 0 179.212 171.459 0 0 0 0 0 0 0 0 0 0 0 0 0 0 0 0 0 0 0 0 0 0 0 0 2555.18 2762.01 2931.65 3011.69 3098.68 3183.1 3128.67 3352 3518.39 3603.16 3509.19 3466.7 3459.69 3486.58 3542.68 3550.55 3459.69 3313.15 3254.47 3165.5 3214.88 3343.85 3248.3 2951.66 2801.39 2976.8 3037.09 2796.82 3123.14 2963.07 2897.57 2337.11 3438.91 3401.2 0 0 0 0 0 0 0 0 0 0 0 0 0 0 0 0 0 0 0 0 0 0 0 0 0 0 0 0 0 0 0 0 0 0 0 0 0 0 0 0 0 0 0 0 0 0 0 0 0 0 0 0 0 0 0 0 0 0 0 0 0 0 0 0 0 0 0 0 0 0 0 0 0 0 0 0 0 0 0 0 0 0 3569.59 3650.51 3590.9 3554.31 3309.29 3267.53 3228.49 3043.65 2987.02 3001.72 3042.16 2856.19 2798.78 2880.86 2620.76 2442.09 2428.62 2267.89 1750.23 1957.88 2084.81 0 0 0 0 0 0 0 0 0 0 0 0 0 0 0 0 0 0 0 0 0 0 0 0 0 0 0 0 0 0 0 0 0 0 0 0 0 0 0 0 0 0 0 0 0 0 0 0 0 0 0 0 0 0 0 1309.17 1382.71 1886.75 2171.81 2679.35 2711.83 3046.36 3196.38 3156.87 3123.25 3223.03 3168.13 3319.64 3217.71 3329.72 3275.76 3330.58 3358.78 3534.54 3550.47 3729.8 3551.3 3818.16 3970.78 4149.51 4367.26 4923.89 3558.53 0 0 0 0 0 0 0 0 0 0 0 0 0 0 0 0 0 0 0 0 0 0 0 0 0 0 0 0 0 0 0 0 0 0 0 0 0 0 0 0 0 0 0 0 0 0 0 0 0 0 0 0 0 0 0 0 0 0 0 0 0 0 0 0 0 0 0 0 0 0 0 0 0 0 0 0 0 0 0 0 0 0 0 0 0 0 0 0 0 0 0 0 0 0 0 0 0 0 0 0 2331.78 2546.96 2988.83 3166.04 3089.38 3120.81 3201.5 3060.92 3187.51 3306.55 3354.01 3290.28 3234.21 3313.8 3269.63 3237.83 3341.66 3172.87 2922.2 2502.36 2447.36 2355.58 1781.74 1601.94 0 0 0 0 0 0 0 0 0 0 0 0 0 0 0 0 0 0 0 0 0 0 0 0 0 0 0 0 0 0 0 0 0 0 0 0 0 0 0 0 0 0 0 0 0 0 0 0 0 0 0 0 0 0 0 0 0 0 0 0 0 0 0 0 0 0 0 0 0 0 0 0 0 0 0 0 0 0 0 0 0 0 0 0 0 0 0 0 0 0 0 0 0 0 0 0 0 0 0 0
0 0 0 0 0 0 0 0 0 0 0 0 0 0 0 0 0 0 0 0 0 0 0 0 0 0 0 0 0 0 0 0 0 0 0 0 0 809.694 922.815 855.74 866.757 635.547 696.654 506.228 0 0 0 0 0 0 0 0 0 0 0 0 0 0 0 0 0 0 0 0 0 0 0 0 2800.51 2932.01 3045.47 3062.87 3071.9 3063.99 3098.28 3309.36 3509.99 3512.64 3414.56 3362.48 3380.57 3412.55 3521.78 3543.73 3435.25 3310.21 3331.97 3305.25 3386.65 3378.6 3287.64 2958.84 2712.88 2840.23 2698.49 2530.79 2593.86 2419.58 2971.47 2740.18 4059.95 3876.11 0 3565.34 0 0 0 0 0 0 0 0 0 0 0 0 0 0 0 0 0 0 0 0 0 0 0 0 0 0 0 0 0 0 0 0 0 0 0 0 0 0 0 0 0 0 0 0 0 0 0 0 0 0 0 0 0 0 0 0 0 0 0 0 0 0 0 0 0 0 0 0 0 0 0 0 0 0 0 0 0 0 0 0 3291.18 3481.66 3642.43 3556.34 3135.04 3129.72 2939.87 2793.28 2721.33 2861.64 2820.89 2702.83 2571.44 2835.1 2647.1 2721.38 2769.08 2583.39 1665.35 2003.83 0 0 0 0 0 0 0 0 0 0 0 0 0 0 0 0 0 0 0 0 0 0 0 0 0 0 0 0 0 0 0 0 0 0 0 0 0 0 0 0 0 0 0 0 0 0 0 0 0 0 0 0 0 0 0 1274.47 1486.04 1703.55 2334.54 2432.98 2653.29 2725.62 2964.91 3041.22 3102.12 3057.18 3149.34 3145.5 3237.14 3179.66 3253.15 3199.98 3234.21 3231.78 3411.71 3446.12 3529.49 3511.02 3800 3790.04 4112.59 4273.92 4922.59 2843.17 0 0 0 0 0 0 0 0 0 0 0 0 0 0 0 0 0 0 0 0 0 0 0 0 0 0 0 0 0 0 0 0 0 0 0 0 0 0 0 0 0 0 0 0 0 0 0 0 0 0 0 0 0 0 0 0 0 0 0 0 0 0 0 0 0 0 0 0 0 0 0 0 0 0 0 0 0 0 0 0 0 0 0 0 0 0 0 0 0 0 0 0 0 0 0 0 0 0 0 0 2257.34 2536.45 2897.12 3063.21 3035.17 3059.02 3166.52 3112.3 3173.41 3285.7 3306.68 3257.44 3250.19 3301.74 3270.14 3304.8 3363.49 3191.09 2932.31 2562.09 2599.04 2425.04 2084.03 1835.36 1729.77 0 0 0 0 0 0 0 0 0 0 0 0 0 0 0 0 0 0 0 0 0 0 0 0 0 0 0 0 0 0 0 0 0 0 0 0 0 0 0 0 0 0 0 0 0 0 0 0 0 0 0 0 0 0 0 0 0 0 0 0 0 0 0 0 0 0 0 0 0 0 0 0 0 0 0 0 0 0 0 0 0 0 0 0 0 0 0 0 0 0 0 0 0 0 0 0 0 0 0
0 0 0 0 0 0 0 0 0 0 0 0 0 0 0 0 0 0 0 0 0 0 0 0 0 0 0 0 0 0 0 0 0 0 0 1300.31 1375.11 1331.24 1316.34 1435.25 1553.08 1357.6 1668.02 1574.06 1528.41 0 0 0 0 0 0 0 0 0 0 0 0 0 0 0 0 0 0 0 0 0 0 0 0 3084.33 3114.96 3098.91 3082.46 3044.37 3087.28 3284.87 3498.5 3444.21 3306.95 3287.76 3316.03 3301.35 3427.6 3481.15 3369.03 3238.39 3282.62 3280.89 3326.68 3202.66 3197.17 2800.55 2428.09 2549.94 2342.13 2366.81 2374.21 2229 3147.75 3510.8 4514.87 4114.81 0 0 0 0 0 0 0 0 0 0 0 0 0 0 0 0 0 0 0 0 0 0 0 0 0 0 0 0 0 0 0 0 0 0 0 0 0 0 0 0 0 0 0 0 0 0 0 0 0 0 0 0 0 0 0 0 0 0 0 0 0 0 0 0 0 0 0 0 0 0 0 0 0 0 0 0 0 0 0 0 0 0 0 0 3960.56 3936.5 3699.78 3445.13 3092.06 2899.23 2548.62 2834.43 2655.81 2451.79 2333.82 2206.8 2064.62 2160.34 1955.12 0 805.693 0 0 0 0 0 0 0 0 0 0 0 0 0 0 0 0 0 0 0 0 0 0 0 0 0 0 0 0 0 0 0 0 0 0 0 0 0 0 0 0 0 0 0 0 0 0 0 0 0 0 0 0 0 0 0 0 1443.76 1712.5 1995.66 2503.97 2566.75 2702.7 2789.56 2993.79 3063.77 3106.37 3075.62 3153.07 3174.61 3280.31 3227.12 3273.59 3235.21 3238.71 3218.02 3362.15 3382.62 3403.34 3375.88 3640.14 3735.86 4175.85 4779.15 6322.8 5649.97 2018.13 0 0 0 0 0 0 0 0 0 0 0 0 0 0 0 0 0 0 0 0 0 0 0 0 0 0 0 0 0 0 0 0 0 0 0 0 0 0 0 0 0 0 0 0 0 0 0 0 0 0 0 0 0 0 0 0 0 0 0 0 0 0 0 0 0 0 0 0 0 0 0 0 0 0 0 0 0 0 0 0 0 0 0 0 0 0 0 0 0 0 0 0 0 0 0 0 0 0 1846.26 2192.04 2531.05 2902.94 3058.35 2994.59 3021.61 3121.8 3070.27 3125.23 3240.14 3231.41 3132.82 3095.48 3128.79 3082.23 3111.15 3140.38 3006.67 2824.55 2557.44 2602.39 2458.94 2373.01 2392.33 2244.65 0 0 0 0 0 0 0 0 0 0 0 0 0 0 0 0 0 0 0 0 0 0 0 0 0 0 0 0 0 0 0 0 0 0 0 0 0 0 0 0 0 0 0 0 0 0 0 0 0 0 0 0 0 0 0 0 0 0 0 0 0 0 0 0 0 0 0 0 0 0 0 0 0 0 0 0 0 0 0 0 0 0 0 0 0 0 0 0 0 0 0 0 0 0 0 0 0 0 0
0 0 0 0 0 0 0 0 0 0 0 0 0 0 0 0 0 0 0 0 0 0 0 0 0 0 0 0 0 0 0 0 0 0 0 1535.37 1523.55 1429.5 1313.12 1317.02 1454.25 1166.56 1271.8 1219.6 1152.01 899.325 0 0 0 0 0 0 0 0 0 0 0 0 0 0 0 0 0 0 0 0 0 0 0 3164.25 3275.63 3108.73 3114.38 3082.34 3119.65 3425.5 3648.29 3563.22 3384.8 3296.68 3353.21 3331.7 3448.74 3516.69 3315.51 3134.1 3176.47 3154.14 3269.57 3100.17 3113.98 2711.7 2315.4 2740.89 2679.82 2755.21 2982.35 2374.58 3463.19 3720.29 0 3756.1 0 0 0 0 0 0 0 0 0 0 0 0 0 0 0 0 0 0 0 0 0 0 0 0 0 0 0 0 0 0 0 0 0 0 0 0 0 0 0 0 0 0 0 0 0 0 0 0 0 0 0 0 0 0 0 0 0 0 0 0 0 0 0 0 0 0 0 0 0 0 0 0 0 0 0 0 0 0 0 0 0 0 0 0 0 0 0 0 2271.15 0 0 0 0 0 0 1727.56 0 1987.08 0 0 0 0 0 0 0 0 0 0 0 0 0 0 0 0 0 0 0 0 0 0 0 0 0 0 0 0 0 0 0 0 0 0 0 0 0 0 0 0 0 0 0 0 0 0 0 0 0 0 0 0 0 0 0 0 0 0 0 1628.24 1994.8 2154.79 2610.12 2596.83 2689.19 2770.22 2912.92 3015.86 3056.62 3079.8 3206.15 3225.07 3414.77 3341.46 3388.63 3375.06 3345.65 3361.14 3485.86 3433.78 3497.19 3357.71 3623.16 3534.1 3933.27 4414.95 4758.54 2219.41 1539.25 0 0 0 0 0 0 0 0 0 0 0 0 0 0 0 0 0 0 0 0 0 0 0 0 0 0 0 0 0 0 0 0 0 0 0 0 0 0 0 0 0 0 0 0 0 0 0 0 0 0 0 0 0 0 0 0 0 0 0 0 0 0 0 0 0 0 0 0 0 0 0 0 0 0 0 0 0 0 0 0 0 0 0 0 0 0 0 0 0 0 0 0 0 0 0 0 0 0 2103.2 2412.55 2650.19 2927.91 3037.75 3028.7 3045.08 3126.1 3053.68 3078.55 3208.97 3218.76 3138.74 3124.01 3117.97 3058.91 3073.25 3069.65 2954.47 2802.28 2612.76 2656.61 2551.65 2496.59 2528.69 2415.57 2451.97 0 0 0 0 0 0 0 0 0 0 0 0 0 0 0 0 0 0 0 0 0 0 0 0 0 0 0 0 0 0 0 0 0 0 0 0 0 0 0 0 0 0 0 0 0 0 0 0 0 0 0 0 0 0 0 0 0 0 0 0 0 0 0 0 0 0 0 0 0 0 0 0 0 0 0 0 0 0 0 0 0 0 0 0 0 0 0 0 0 0 0 0 0 0 0 0 0 0
0 0 0 0 0 0 0 0 0 0 0 0 0 0 0 0 0 0 0 0 0 0 0 0 0 0 0 0 0 0 0 0 0 0 1806.23 1747.7 1806.04 1843.69 1858.92 1916.99 1861.17 1674.64 2049.88 2008.53 1913.06 1573.41 0 0 0 0 0 0 0 0 0 0 0 0 0 0 0 0 0 0 0 0 0 0 0 2922.05 3003.6 2872.47 2866.88 2856.43 2988.94 3342.92 3557.63 3512.57 3390.89 3365.32 3474.67 3455.99 3586.3 3678.93 3454.35 3308.64 3334.75 3310.86 3346.99 3103.9 3160.14 2821.18 2283.36 2646.68 2516.02 2726.68 2848.19 2106.77 3201.75 3792.52 0 3436.24 0 0 2639.85 0 0 2902.08 0 0 0 0 0 0 0 0 0 0 0 0 0 0 0 0 0 0 0 0 0 0 0 0 0 0 0 0 0 0 0 0 0 0 0 0 0 0 0 0 0 0 0 0 0 0 0 0 0 0 0 0 0 0 0 0 0 0 0 0 0 0 0 0 0 0 0 0 0 0 0 0 0 0 0 0 0 0 0 0 0 0 0 0 0 0 0 0 0 0 0 0 0 0 0 0 0 0 0 0 0 0 0 0 0 0 0 0 0 0 0 0 0 0 0 0 0 0 0 0 0 0 0 0 0 0 0 0 0 0 0 0 0 0 0 0 0 0 0 0 0 0 0 0 0 0 0 0 0 0 0 1867.74 2222.12 2361.85 2815.17 2767.61 2861.21 2941.46 3020.09 3130.89 3157.28 3192.24 3306.82 3304.21 3468.42 3408.18 3424.53 3425.99 3386.78 3454.49 3588.75 3536.7 4657.62 3514.7 3728.89 3794.24 4323.93 4734.77 4775.88 3076.69 2328.03 0 0 0 0 0 0 0 0 0 0 0 0 0 0 0 0 0 0 0 0 0 0 0 0 0 0 0 0 0 0 0 0 0 0 0 0 0 0 0 0 0 0 0 0 0 0 0 0 0 0 0 0 0 0 0 0 0 0 0 0 0 0 0 0 0 0 0 0 0 0 0 0 0 0 0 0 0 0 0 0 0 0 0 0 0 0 0 0 0 0 0 0 0 0 0 0 0 1623.64 2062.79 2327.61 2540.25 2849.06 2895.27 2897.62 2941.31 3049.07 2974.37 2967.16 3115.66 3122.09 2986.39 3032.21 2978.27 2922.05 2887.55 2928.83 2883.88 2732.86 2570.18 2724.78 2579.18 2682.09 2841.58 2578.99 2797.33 0 0 0 0 0 0 0 0 0 0 0 0 0 0 0 0 0 0 0 0 0 0 0 0 0 0 0 0 0 0 0 0 0 0 0 0 0 0 0 0 0 0 0 0 0 0 0 0 0 0 0 0 0 0 0 0 0 0 0 0 0 0 0 0 0 0 0 0 0 0 0 0 0 0 0 0 0 0 0 0 0 0 0 0 0 0 0 0 0 0 0 0 0 0 0 0 0 0
0 0 0 0 0 0 0 0 0 0 0 0 0 0 0 0 0 0 0 0 0 0 0 0 0 0 0 0 0 0 2177.87 2714.86 2847.85 2698.14 2701.53 2607.89 2687.72 2648.35 2689.49 2877.2 2870.02 2760.96 2790.96 3171.13 2980.29 2920.52 3645.6 3402.1 3040.89 0 0 0 0 0 0 0 0 0 0 0 0 0 0 0 0 0 0 0 0 0 2732.23 2690.18 2777.69 2761.42 2963.49 3312.23 3513.6 3455.35 3321.54 3302.52 3390.68 3384.87 3458.05 3516.47 3318.13 3208.61 3264.29 3157.7 3165.56 2957.02 2908.68 2736.47 2307.92 2635.58 2325.67 2513.91 2741.34 2183.51 3237.39 4070.49 4003.37 0 0 0 3296.94 0 0 0 0 0 0 0 0 0 0 0 0 0 0 0 0 0 0 0 0 0 0 0 0 0 0 0 0 0 0 0 0 0 0 0 0 0 0 0 0 0 0 0 0 0 0 0 0 0 0 0 0 0 0 0 0 0 0 0 0 0 0 0 0 0 0 0 0 0 0 0 0 0 0 0 0 0 0 0 0 0 0 0 0 0 0 0 0 0 0 0 0 0 0 0 0 0 0 0 0 0 0 0 0 0 0 0 0 0 0 0 0 0 0 0 0 0 0 0 0 0 0 0 0 0 0 0 0 0 0 0 0 0 0 0 0 0 0 0 0 0 0 0 0 0 0 0 0 0 0 0 0 0 0 1887.79 2233.33 2358.59 2833.95 2858.04 3008.61 3054.12 3096.16 3247.04 3273.97 3334.62 3417.48 3401.96 3541.41 3458.19 3465.77 3457.55 3361.07 3393.29 3459.76 4307.39 4625.26 4580.56 3367.27 3438.21 3677.72 4031.07 3898.63 2634.75 2008.1 1766.6 855.771 467.83 0 0 0 0 0 0 0 0 0 0 0 0 0 0 0 0 0 0 0 0 0 0 0 0 0 0 0 0 0 0 0 0 0 0 0 0 0 0 0 0 0 0 0 0 0 0 0 0 0 0 0 0 0 0 0 0 0 0 0 0 0 0 0 0 0 0 0 0 0 0 0 0 0 0 0 0 0 0 0 0 0 0 0 0 0 0 0 0 0 0 0 0 0 0 1546.68 2069.3 2310.49 2587.46 2964.12 3052.18 3048.79 3047.41 3124.13 3096.91 3054.84 3214.01 3169.69 3066.57 3057.29 2957.49 2948.91 2935.08 2937.24 2961.51 2799.38 2693.63 2748.89 2639.1 2873.01 3057.68 2774.39 2965.17 0 0 0 0 0 0 0 0 0 0 0 0 0 0 0 0 0 0 0 0 0 0 0 0 0 0 0 0 0 0 0 0 0 0 0 0 0 0 0 0 0 0 0 0 0 0 0 0 0 0 0 0 0 0 0 0 0 0 0 0 0 0 0 0 0 0 0 0 0 0 0 0 0 0 0 0 0 0 0 0 0 0 0 0 0 0 0 0 0 0 0 0 0 0 0 0 0 0
0 0 0 0 0 0 0 0 0 0 0 0 0 0 0 0 0 0 0 0 0 0 0 0 0 0 0 0 0 1926.1 2104.81 2532.89 2869.72 2676.45 2738.48 2760.42 2983.09 2998.82 3190.18 3223.21 3310.8 3321.28 3351.8 3510.58 3374.86 3308.58 3516.47 3281.33 2943.74 2866.93 2536.49 0 0 0 0 0 0 0 0 0 0 0 0 0 0 0 0 0 0 0 0 2616.18 3033.19 2824.45 2971 3357.97 3577.65 3495.88 3341.19 3347.12 3385.69 3312.3 3374.25 3499.67 3303.82 3168.67 3182.5 3134.22 3143.15 2889.14 2870.36 2813.66 2289.71 2556.74 2306.93 2463.89 2593.06 2193.3 3066.68 3710.83 3492.17 0 3373.77 3330.18 3258.08 3411.57 3427.88 3235.9 2973.26 3128.49 3054.34 3294.54 0 0 0 0 0 0 0 0 0 0 0 0 0 0 0 0 0 0 0 0 0 0 0 0 0 0 0 0 0 0 0 0 0 0 0 0 0 0 0 0 0 0 0 0 0 0 0 0 0 0 0 0 0 0 0 0 0 0 0 0 0 0 0 0 0 0 0 0 0 0 0 0 0 0 0 0 0 0 0 0 0 0 0 0 0 0 0 0 0 0 0 0 0 0 0 0 0 0 0 0 0 0 0 0 0 0 0 0 0 0 0 0 0 0 0 0 0 0 0 0 0 0 0 0 0 0 0 0 0 0 0 0 0 0 0 0 0 0 0 0 0 0 0 0 0 0 0 1870.7 2233.18 2403.6 2826.69 2809.93 2930.11 2989.21 3053.23 3202.36 3240.02 3291.76 3353.21 3361.41 4129.49 4113.6 3965.24 4035.53 4010.07 4165.07 4391.15 4582.06 4725.84 4717.87 3465.62 3572.02 3679.17 3919.21 4126.85 3251.95 2478.78 2166.37 1525.67 1180.95 1241.12 739.617 0 0 0 0 0 0 0 0 0 0 0 0 0 0 0 0 0 0 0 0 0 0 0 0 0 0 0 0 0 0 0 0 0 0 0 0 0 0 0 0 0 0 0 0 0 0 0 0 0 0 0 0 0 0 0 0 0 0 0 0 0 0 0 0 0 0 0 0 0 0 0 0 0 0 0 0 0 0 0 0 0 0 0 0 0 0 0 0 0 0 0 0 1730.38 2154.49 2347.7 2679.65 3087.5 3158.89 3076.58 3002.58 3124.82 3053.95 3014.18 3143.5 3104.99 2972.47 2931.39 2893.08 2951.29 2911.3 2965.17 3004.35 2880.91 2804.53 2904.95 2828.98 3031 3132.76 2796.96 2902.24 0 0 0 0 0 0 0 0 0 0 0 0 0 0 0 0 0 0 0 0 0 0 0 0 0 0 0 0 0 0 0 0 0 0 0 0 0 0 0 0 0 0 0 0 0 0 0 0 0 0 0 0 0 0 0 0 0 0 0 0 0 0 0 0 0 0 0 0 0 0 0 0 0 0 0 0 0 0 0 0 0 0 0 0 0 0 0 0 0 0 0 0 0 0 0 0 0 0
0 0 0 0 0 0 0 0 0 0 0 0 0 0 0 0 0 0 0 0 0 0 0 0 0 0 0 1687.39 1876.35 2011.91 2375.53 2616.88 2845.58 2691.73 2822.89 2707.46 2902.94 2985.32 3152.6 3079.74 3148.81 3172.21 3358.24 3366.94 3322.07 3319.77 3385.62 3159.66 2896.77 2860.28 2610.73 2691.91 0 0 0 0 0 0 0 0 0 0 0 0 0 0 0 0 0 0 0 2373.34 2913.32 2618.92 2735.44 3080.42 3476.47 3505.37 3360.73 3364.84 3417.62 3269.31 3375.61 3488.68 3345.79 3168.07 3075.45 3011.74 2930.88 2713.15 2739.73 2739.91 2271.85 2493.14 2310.71 2648.85 2884.37 2813.94 3449.02 3756.61 3597.21 3451.22 3355.36 3235.4 3217.22 3397.55 3394.46 3298.49 3225.01 3238.77 3221.6 3396.04 3651.07 3477.91 3296.81 3388.29 3452.71 3421.03 0 0 0 0 0 0 0 0 0 0 0 0 0 0 0 0 0 0 0 0 0 0 0 0 0 0 0 0 0 0 0 0 0 0 0 0 0 0 0 0 0 0 0 0 0 0 0 0 0 0 0 0 0 0 0 0 0 0 0 0 0 0 0 0 0 0 0 0 0 0 0 0 0 0 0 0 0 0 0 0 0 0 0 0 0 0 0 0 0 0 0 0 0 0 0 0 0 0 0 0 0 0 0 0 0 0 0 0 0 0 0 0 0 0 0 0 0 0 0 0 0 0 0 0 0 0 0 0 0 0 0 0 0 0 0 0 0 0 0 0 0 1795.04 2226.04 2416.51 2786.09 2859.89 2948.34 3018.3 3046.97 3193.7 3233.09 3285.51 3352.2 3361.74 4091.13 4081.77 3915 3994.89 3355.56 3364.91 4177.61 4426.02 4573.32 4589.46 3446.19 3481.37 3487.09 3662.23 3701.41 2846.06 1949.69 1754.15 1442.8 1250.51 1433.53 1155.38 0 0 0 0 0 0 0 0 0 0 0 0 0 0 0 0 0 0 0 0 0 0 0 0 0 0 0 0 0 0 0 0 0 0 0 0 0 0 0 0 0 0 0 0 0 0 0 0 0 0 0 0 0 0 0 0 0 0 0 0 0 0 0 0 0 0 0 0 0 0 0 0 0 0 0 0 0 0 0 0 0 0 0 0 0 0 0 0 0 0 0 0 1747.61 2285.78 2464.43 2898.52 3220.24 3265.24 3167.18 3064.16 3164.91 3111.15 3088.75 3223.52 3156.15 3040.01 2998.23 2975.37 3071.9 3032.81 3032.54 3098.79 2961.4 2849.4 2940.02 2890.83 3104.36 3107.75 2777.51 3007.15 0 0 0 0 0 0 0 0 0 0 0 0 0 0 0 0 0 0 0 0 0 0 0 0 0 0 0 0 0 0 0 0 0 0 0 0 0 0 0 0 0 0 0 0 0 0 0 0 0 0 0 0 0 0 0 0 0 0 0 0 0 0 0 0 0 0 0 0 0 0 0 0 0 0 0 0 0 0 0 0 0 0 0 0 0 0 0 0 0 0 0 0 0 0 0 0 0 0
0 0 0 0 0 0 0 0 0 0 0 0 0 0 0 0 0 0 0 0 0 0 0 0 0 0 2289.96 2090.44 2119.65 2266.45 2605.66 2776.22 3061.53 2917.02 2964.44 2861.01 4945.81 4893.87 3205.29 3160.32 4263.39 4425.43 4723.31 4684.54 3416.92 3488.39 3606.88 3325.89 3169.81 3163.29 2896.37 2788.59 2396.12 0 0 0 0 0 0 0 0 0 0 0 0 0 0 0 0 0 0 0 2627.86 2469.11 2511.96 3065.9 3545.75 3494.42 3359.86 3368.9 3534.17 3433 3464.34 3638.88 3441.95 3050.95 3069.43 3008.07 2847.42 2471.77 2382.71 2441.41 1948.27 2169.23 2250.67 2604.85 2808.29 2684.75 3445.27 3649.96 3439.97 3282.75 3152.89 2954.93 3017.05 3214.81 3272.31 3184.73 3094.96 3184.79 3252.64 3443.93 3642.98 3460.76 3277.17 3320.95 3289.57 3339.99 3274.29 0 0 0 0 0 0 0 0 0 0 0 0 0 0 0 0 0 0 0 0 0 0 0 0 0 0 0 0 0 0 0 0 0 0 0 0 0 0 0 0 0 0 0 0 0 0 0 0 0 0 0 0 0 0 0 0 0 0 0 0 0 0 0 0 0 0 0 0 0 0 0 0 0 0 0 0 0 0 0 0 0 0 0 0 0 0 0 0 0 0 0 0 0 0 0 0 0 0 0 0 0 0 0 0 0 0 0 0 0 0 0 0 0 0 0 0 0 0 0 0 0 0 0 0 0 0 0 0 0 0 0 0 0 0 0 0 0 0 0 1963.61 2100.25 2554.21 2708.64 2856.24 2923.78 3033.41 3115.37 3116.58 3243.72 3280.89 3365.11 3401.2 3435.11 3460.12 3391.71 3380.5 3423.62 3335.94 3340.79 3334.22 3405.07 4394.48 4730.37 3607.58 3643.38 3664.07 3755.76 3892.57 3313.02 2605.54 2449.14 1801.38 1455.8 1611.54 0 0 0 0 0 0 0 0 0 0 0 0 0 0 0 0 0 0 0 0 0 0 0 0 0 0 0 0 0 0 0 0 0 0 0 0 0 0 0 0 0 0 0 0 0 0 0 0 0 0 0 0 0 0 0 0 0 0 0 0 0 0 0 0 0 0 0 0 0 0 0 0 0 0 0 0 0 0 0 0 0 0 0 0 0 0 0 0 0 0 0 0 0 1946.82 2448.71 2532.74 3067.91 3298.23 3308.97 4388.05 4119.66 3203.46 3132.7 3036.87 3157.76 3056.62 2931.24 2892.28 2841.87 2985.06 2872.57 2875.03 2976.64 2853.27 2776.04 2915.6 2903.74 3151.12 3061.14 2792.77 3065.28 0 0 0 0 0 0 0 0 0 0 0 0 0 0 0 0 0 0 0 0 0 0 0 0 0 0 0 0 0 0 0 0 0 0 0 0 0 0 0 0 0 0 0 0 0 0 0 0 0 0 0 0 0 0 0 0 0 0 0 0 0 0 0 0 0 0 0 0 0 0 0 0 0 0 0 0 0 0 0 0 0 0 0 0 0 0 0 0 0 0 0 0 0 0 0 0 0 0
0 0 0 0 0 0 0 0 0 0 0 0 0 0 0 0 0 0 0 0 0 0 0 0 0 2219.3 2886.26 2380.58 2255.09 2528.08 2711.35 2916.61 3104.01 3034.4 3026.19 2909.18 3058.13 4830.61 3240.27 3279.54 3252.08 3218.45 4495.75 4447.01 3391.92 3435.53 3380.16 3143.79 2825.36 2832.27 2608.46 2435.42 2164.36 1806.43 0 0 0 0 0 0 0 0 0 0 0 0 0 0 0 0 0 0 0 0 2652.67 3276.02 3651.78 3449.24 3221.3 3308.18 3487.89 3332.17 3265.75 3289.12 3017.05 2757.52 2863.75 2882.89 2671.84 2292.09 2032.06 2149.49 1716.96 1899.18 2151.23 2599.16 0 0 3231.16 3328.4 3104.13 3015.48 2862.96 2801.02 2917.73 3064.5 3137.39 3141.03 3130.01 3853.06 3973.22 4294.82 4138.05 3606.1 3557.93 3604.63 3590.98 3608.98 3429.29 3496.02 0 0 0 0 0 0 0 0 0 0 0 0 0 0 0 0 0 0 0 0 0 0 0 0 0 0 0 0 0 0 0 0 0 0 0 0 0 0 0 0 0 0 0 0 0 0 0 0 0 0 0 0 0 0 0 0 0 0 0 0 0 0 0 0 0 0 0 0 0 0 0 0 0 0 0 0 0 0 0 0 0 0 0 0 0 0 0 0 0 0 0 0 0 0 0 0 0 0 0 0 0 0 0 0 0 0 0 0 0 0 0 0 0 0 0 0 0 0 0 0 0 0 0 0 0 0 0 0 0 0 0 0 0 0 0 0 0 0 0 2410.27 2786.6 2898.22 2969 2973.1 3013.58 3102.06 3841.59 3905.8 3969.37 3348.12 3929.21 3399.61 3409.56 3413.52 3931.88 3443.93 3334.35 3346.59 3320.43 3416.37 4460.37 4788.28 3547.77 3611.62 3614.5 3793.64 3800.34 3327.21 2444.36 2570.41 2064.97 1402.81 1355.27 0 0 0 0 0 0 0 0 0 0 0 0 0 0 0 0 0 0 0 0 0 0 0 0 0 0 0 0 0 0 0 0 0 0 0 0 0 0 0 0 0 0 0 0 0 0 0 0 0 0 0 0 0 0 0 0 0 0 0 0 0 0 0 0 0 0 0 0 0 0 0 0 0 0 0 0 0 0 0 0 0 0 0 0 0 0 0 0 0 0 0 0 0 2166.65 2668.57 2603.03 3090.01 3312.89 3308.9 4359.43 4088.74 3185.03 3131.94 3055.62 3154.79 3034.13 2938.99 2898.68 2849.45 2973.37 2861.74 2838.98 2902.03 2795.89 2811.82 2893.08 2901.28 3174.79 3183.22 3052.56 3321.54 0 0 0 0 0 0 0 0 0 0 0 0 0 0 0 0 0 0 0 0 0 0 0 0 0 0 0 0 0 0 0 0 0 0 0 0 0 0 0 0 0 0 0 0 0 0 0 0 0 0 0 0 0 0 0 0 0 0 0 0 0 0 0 0 0 0 0 0 0 0 0 0 0 0 0 0 0 0 0 0 0 0 0 0 0 0 0 0 0 0 0 0 0 0 0 0 0 0
0 0 0 0 0 0 0 0 0 0 0 0 0 0 0 0 0 0 0 0 0 0 0 0 0 2615.73 3416.65 2940.74 2594.18 2662.6 2787.48 2949.89 3078.61 3032.59 3066.68 2947.72 3025.15 3172.21 3265.62 3284.16 3242.34 3217.84 3242.02 3329.26 3295.84 3365.45 3324.51 3049.18 2868.49 2987.82 2795.28 2620.47 2164.58 1941.32 1009.66 0 0 0 0 0 0 0 0 0 0 0 0 0 0 0 0 0 0 0 0 3416.44 0 3779.88 3388.01 3558 3731.46 3579.26 3456.13 3397.62 3019.93 2718.29 2690.35 2624.94 2332.2 2177.28 1779.28 1894.44 1832.69 2309 2645.18 2973.21 0 2999.79 3348.99 3234.02 3120.29 2998.02 2864.87 2867.27 3007.1 3110.92 3190.79 3161.15 3762 4029.43 4134.38 4396.67 4408.46 3483.76 3427.81 3460.69 3422.92 3573.16 3440.4 3507.43 0 0 0 0 0 0 0 0 0 0 0 0 0 0 0 0 0 0 0 0 0 0 0 0 0 0 0 0 0 0 0 0 0 0 0 0 0 0 0 0 0 0 0 0 1163.55 1328.22 1343.22 0 0 1809.95 2170.18 2070.94 1571.1 1191.72 1043.76 1911.92 942.53 0 0 0 0 0 0 0 0 0 0 0 0 0 0 0 0 0 0 0 0 0 0 0 0 0 0 0 0 0 0 0 0 0 0 0 0 0 0 0 0 0 0 0 0 0 0 0 0 0 0 0 0 0 0 0 0 0 0 0 0 0 0 0 0 0 0 0 0 0 0 0 0 0 0 0 0 0 0 0 0 0 0 2468.68 2953.79 3056.74 3967.87 3918.29 4090.03 3180.5 3161.57 3257.89 3279.09 3361.14 3387.19 3362.96 3397.41 3417.62 3456.63 3508.67 3426.62 3431.46 3412.96 3464.12 4388.97 4748.31 3598.91 3615.74 3554.46 3655.84 3626.21 3060.36 2345.34 2549.75 1942.63 1291.03 1151.19 1271.71 0 0 0 0 0 0 0 0 0 0 0 0 0 0 0 0 0 0 0 0 0 0 0 0 0 0 0 0 0 0 0 0 0 0 0 0 0 0 0 0 0 0 0 0 0 0 0 0 0 0 0 0 0 0 0 0 0 0 0 0 0 0 0 0 0 0 0 0 0 0 0 0 0 0 0 0 0 0 0 0 0 0 0 0 0 0 0 0 0 0 0 0 2363.08 2885.86 2706.93 3091.32 3374.59 3395.9 4472.38 4250.86 3770.45 3114.73 3019.82 3106.48 3000.11 2895.62 2813.37 2759.6 2894.17 2742.73 2761.01 2859.01 2805.7 2807.44 2854 2878.48 3113.05 3073.59 3158.83 0 0 0 0 0 0 0 0 0 0 0 0 0 0 0 0 0 0 0 0 0 0 0 0 0 0 0 0 0 0 0 0 0 0 0 0 0 0 0 0 0 0 0 0 0 0 0 0 0 0 0 0 0 0 0 0 0 0 0 0 0 0 0 0 0 0 0 0 0 0 0 0 0 0 0 0 0 0 0 0 0 0 0 0 0 0 0 0 0 0 0 0 0 0 0 0 0 0 0
0 0 0 0 0 0 0 0 0 0 0 0 0 0 0 0 0 0 0 0 0 0 0 0 0 2956.7 3396.31 3108.32 2885.22 2902.54 2929.4 2980.71 3089.15 3063.04 3049.62 3001.24 3054.79 3136.45 3145.5 3163.12 3169.57 3151 3147.45 3206.4 3167.48 3171.79 3133.52 3014.12 2821.37 2882.29 2664.93 2483.55 2117.27 1771.99 1140.12 848.316 0 0 0 0 0 0 0 0 0 0 0 0 0 0 0 0 0 0 0 0 0 3564.58 3382.48 3537.97 3742.61 3820.85 3587.06 3453.85 2961.3 2727.88 2662.35 2377.41 2352.38 2531.24 2263.24 2416.06 2484.58 2948.39 3271.61 3392.53 3644.96 3263.08 3315.44 3133.99 3027.94 2977.27 2889.54 2873.06 2960.56 3041.11 3106.2 3110.28 3675.87 3947.8 4017.17 4189.61 4241.29 3484.63 3408.25 3497.92 3497.12 3578.8 3446.83 3443.86 3089.27 2697.14 0 0 0 0 0 0 0 0 0 0 0 0 0 0 0 0 0 0 0 0 0 0 0 0 0 0 0 0 0 0 0 0 0 0 0 0 0 0 0 0 0 0 1846.47 1961.62 1990.35 2278.64 0 1958.43 2200.18 2000.82 1816.28 1431.76 1322.9 1719.44 1394.61 0 0 0 0 0 0 0 0 0 0 0 0 0 0 0 0 0 0 0 0 0 0 0 0 0 0 0 0 0 0 0 0 0 0 0 0 0 0 0 0 0 0 0 0 0 0 0 0 0 0 0 0 0 0 0 0 0 0 0 0 0 0 0 0 0 0 0 0 0 0 0 0 0 0 0 0 0 0 0 0 0 0 0 2727.53 2883.13 3003.28 3046.36 3112.01 3094.62 3108.61 3225.75 3297.91 3412.89 3429.29 3398.44 3450.3 3437.79 3460.26 3497.34 3430.55 3392.53 3355.02 3393.5 3473.37 3531.94 3564.5 3633.6 3548.9 3577.81 3502.81 3155.32 2843.12 2994.54 2259.65 1713.24 0 0 0 0 0 0 0 0 0 0 0 0 0 0 0 0 0 0 0 0 0 0 0 0 0 0 0 0 0 0 0 0 0 0 0 0 0 0 0 0 0 0 0 0 0 0 0 0 0 0 0 0 0 0 0 0 0 0 0 0 0 0 0 0 0 0 0 0 0 0 0 0 0 0 0 0 0 0 0 0 0 0 0 0 0 0 0 0 0 0 0 0 0 1964.3 2142.85 2816.39 2728.99 3062.15 3301.09 3404.1 3332.1 3869.85 3895.64 3657.68 3024.88 3090.29 2996.31 2971.63 2892.33 2858.82 3008.88 2844.86 2877.25 3010.39 2993.79 3003.12 2973.95 2986.07 3044.31 2814.46 0 0 0 0 0 0 0 0 0 0 0 0 0 0 0 0 0 0 0 0 0 0 0 0 0 0 0 0 0 0 0 0 0 0 0 0 0 0 0 0 0 0 0 0 0 0 0 0 0 0 0 0 0 0 0 0 0 0 0 0 0 0 0 0 0 0 0 0 0 0 0 0 0 0 0 0 0 0 0 0 0 0 0 0 0 0 0 0 0 0 0 0 0 0 0 0 0 0 0 0
0 0 0 0 0 0 0 0 0 0 0 0 0 0 0 0 0 0 0 0 0 0 0 0 0 2956.13 3432.44 3306.29 3067.18 3069.43 3095.31 3123.25 3226.56 3230.79 3193.46 3143.74 3168.37 4226.23 3274.42 3318.98 3292.28 3282.81 3251.95 3281.53 4274.03 3315.57 3266.89 3099.37 2850.51 2917.53 2755.89 2559.32 2408.26 1873.6 1142.98 1130.68 0 0 0 0 0 0 0 0 0 0 0 0 0 0 0 0 0 0 0 0 0 3600.46 3603.08 3715.67 3845.99 3773.33 3409.98 3314.52 2951.5 2713.63 2508.13 2173.67 2062.91 2448.96 2372.97 2488 2717.81 2934.83 3035.11 3177.43 3425.29 3273.97 3241.27 3168.97 3124.01 3107.69 3023.14 3023.68 3144.03 3161.92 3220.74 3209.34 3758.12 3905.43 3948.35 4170.03 4251.07 4192.65 4238.4 4164.96 3688.15 3775.97 3702.31 3814.95 3548.22 0 0 0 0 0 0 0 0 0 0 0 0 0 0 0 0 0 0 0 0 0 0 0 0 0 0 0 0 0 0 0 0 0 0 0 0 0 0 0 2697.84 2489.11 2469.44 2514.52 2601.22 2631.41 2557.33 2698.23 2573.53 2347.47 2488.96 2314.25 2207.91 2061.9 1923.48 2120.45 1817.36 0 0 0 0 0 0 0 0 0 0 0 0 0 0 0 0 0 0 0 0 0 0 0 0 0 0 0 0 0 0 0 0 0 0 0 0 0 0 0 0 0 0 0 0 0 0 0 0 0 0 0 0 0 0 0 0 0 0 0 0 0 0 0 0 0 0 0 0 0 0 0 0 0 0 0 0 0 0 0 0 1874.58 0 1933.98 2525.61 2869.23 2989.69 3150.05 3189.51 3131.59 4137.95 3293.31 3354.89 3451.37 4094.92 3361.2 3334.68 3327.01 3341.86 3377.1 3337 3288.8 3249.31 3319.31 3409.98 3515.07 3540.21 3584.07 5376.58 3476.03 5729.07 3193.09 2871.83 2947.51 2550.68 2166.68 1895.62 0 0 0 0 0 0 0 0 0 0 0 0 0 0 0 0 0 0 0 0 0 0 0 0 0 0 0 0 0 0 0 0 0 0 0 0 0 0 0 0 0 0 0 0 0 0 0 0 0 0 0 0 0 0 0 0 0 0 0 0 0 0 0 0 0 0 0 0 0 0 0 0 0 0 0 0 0 0 0 0 0 0 0 0 0 0 0 0 0 0 0 0 1805.75 2056.11 2810.97 2621.5 3024.28 3375.34 3451.58 3344.52 3229.67 3773.76 3185.58 3045.08 3095.88 3012.82 2975 2902.39 2881.25 3055.51 2900.13 2933.08 3067.02 3069.6 3042.16 2963.6 2908.73 2959.94 2662.77 0 0 0 0 0 0 0 0 0 0 0 0 0 0 0 0 0 0 0 0 0 0 0 0 0 0 0 0 0 0 0 0 0 0 0 0 0 0 0 0 0 0 0 0 0 0 0 0 0 0 0 0 0 0 0 0 0 0 0 0 0 0 0 0 0 0 0 0 0 0 0 0 0 0 0 0 0 0 0 0 0 0 0 0 0 0 0 0 0 0 0 0 0 0 0 0 0 0 0 0
0 0 0 0 0 0 0 0 0 0 0 0 0 0 0 0 0 0 0 0 0 0 0 0 2768.12 3092.68 3385.14 3213.34 3119.36 3202.24 3155.03 3178.22 3270.59 4300.76 3272.82 3245.79 3255.8 3259.41 3249.87 3318.26 3286.6 3211.18 3135.45 3139.15 3140.68 3154.31 3124.07 2980.39 2765.01 2765.24 2735.62 2622.11 2495.74 1891.17 1051.13 1058.97 0 0 0 0 0 0 0 0 0 0 0 0 0 0 0 0 0 0 0 0 0 0 0 2965.01 2700.4 2794.77 2569.43 2420.28 1991.82 2042 2043.87 1640.97 0 0 0 2188.61 2789.98 2947.98 3124.88 3282.1 3682.48 3336.21 3320.62 3215.86 3194.92 3152.12 3084.04 3068.47 3083.87 3051.45 3128.84 3463.69 3587.75 3700.92 3745.7 3944.18 4059.45 4041.76 4125.84 4060.34 3592.98 3614.42 3647.82 3619.8 3472.29 3430.34 3686.29 0 0 0 0 0 0 0 0 0 0 0 0 0 0 0 0 0 0 0 0 0 0 0 0 0 0 0 0 0 0 0 0 0 0 0 0 2682.99 2943.17 2958.06 2931.19 2943.12 2977.85 3041.39 2996.2 3035.72 3011.63 3051.29 3006.78 2872.72 2627.37 2497.6 2447.64 2637.78 2571.48 0 0 0 0 0 0 0 0 0 0 0 0 0 0 0 0 0 0 0 0 0 0 0 0 0 0 0 0 0 0 0 0 0 0 0 0 0 0 0 0 0 0 0 0 0 0 0 0 0 0 0 0 0 0 0 0 0 0 0 0 0 0 0 0 0 0 0 0 0 0 0 0 0 0 0 0 0 0 0 0 0 1857.73 2008.29 2532.01 2856.24 2820.66 3039.95 3016.4 2942.39 3053.01 3133.75 3192 3305.06 3267.53 3284.42 3275.06 3286.73 3326.09 3373.77 3378.46 3305.51 3264.1 3273.01 3326.68 3401.82 3440.25 3389.86 3184.91 3197.54 3291.76 3011.69 2922.15 2918.8 2436.66 2239.71 0 0 0 0 0 0 0 0 0 0 0 0 0 0 0 0 0 0 0 0 0 0 0 0 0 0 0 0 0 0 0 0 0 0 0 0 0 0 0 0 0 0 0 0 0 0 0 0 0 0 0 0 0 0 0 0 0 0 0 0 0 0 0 0 0 0 0 0 0 0 0 0 0 0 0 0 0 0 0 0 0 0 0 0 0 0 0 0 0 0 0 0 0 0 2437.12 2958.63 2659.69 3108.38 3459.34 3551.6 3493.77 3360.4 3367.14 3294.15 3983.6 3139.79 3061.42 3081.04 2960.88 2962.97 3160.67 3018.68 3001.88 3168.31 3199.73 3159.96 2976.58 2974.58 2869.82 2442.73 2436.16 0 0 0 0 0 0 0 0 0 0 0 0 0 0 0 0 0 0 0 0 0 0 0 0 0 0 0 0 0 0 0 0 0 0 0 0 0 0 0 0 0 0 0 0 0 0 0 0 0 0 0 0 0 0 0 0 0 0 0 0 0 0 0 0 0 0 0 0 0 0 0 0 0 0 0 0 0 0 0 0 0 0 0 0 0 0 0 0 0 0 0 0 0 0 0 0 0 0 0
0 0 0 0 0 0 0 0 0 0 0 0 0 0 0 0 0 0 0 0 0 0 0 2254.58 2697.05 2982.25 3307.47 3239.83 3181.17 3278.51 3207.62 3216.29 3226.25 3245.72 3230.54 3196.44 3192.18 3196.08 3193.7 3262.13 3256.56 3238.33 3176.83 3164.97 3144.21 3205.97 3154.37 2988.46 2800.32 2746.55 2697.31 2583.83 2489.19 1937.76 1080.1 1136.65 0 0 0 0 0 0 0 0 0 0 0 0 0 0 0 0 0 0 0 0 0 0 0 2477.28 2037.83 2153.5 2256.97 2211.16 1630.03 0 0 0 0 0 0 2257.7 2669.59 0 3350.46 3467.99 3649.24 3311.58 3363.09 3216.17 3230.16 3139.73 3133.46 3056.12 3064.1 3021.07 3550.02 3576.05 3598.83 3621.75 3682.32 3809.92 3913.72 3925.08 4048.58 3491.37 3484.05 3533.87 3486 3416.44 3337.07 3383.85 3637.38 0 0 0 0 0 0 0 0 0 0 0 0 0 0 0 0 0 0 0 0 0 0 0 0 0 0 0 0 0 0 0 0 0 0 2499.53 2378.93 2554.87 2886.95 2981.93 3012.23 2994.06 3024.28 3258.65 3350.4 3405.83 3404.51 3273.46 3240.46 3107.81 2935.03 2892.98 2731.88 2695.67 2787.71 0 0 0 0 0 0 0 0 0 0 0 0 0 0 0 0 0 0 0 0 0 0 0 0 0 0 0 0 0 0 0 0 0 0 0 0 0 0 0 0 0 0 0 0 0 0 0 0 0 0 0 0 0 0 0 0 0 0 0 0 0 0 0 0 0 0 0 0 0 0 0 0 0 0 0 2747.72 0 0 0 0 0 0 1967.55 2563.97 3006.88 2948.13 3111.73 2970.58 2883.88 3020.36 3065.28 3133.99 3223.71 3212.29 3195.53 3202.3 3221.05 3273.4 3346.92 3380.37 3310.6 3276.21 3258.84 3333.03 3387.19 3513.3 3448.6 3221.79 3214.51 3254.85 3034.4 2984.47 2990.27 2570.65 2159.01 0 1454.4 0 0 0 0 0 0 0 0 0 0 0 0 0 0 0 0 0 0 0 0 0 0 0 0 0 0 0 0 0 0 0 0 0 0 0 0 0 0 0 0 0 0 0 0 0 0 0 0 0 0 0 0 0 0 0 0 0 0 0 0 0 0 0 0 0 0 0 0 0 0 0 0 0 0 0 0 0 0 0 0 0 0 0 0 0 0 0 0 0 0 0 0 2588.85 3032.81 2770.91 3050.84 3432.3 3511.68 3411.3 3932.25 4039.91 3884.91 4120.87 3053.79 3029.52 2993.21 2928.99 2983.78 3199.85 3010.72 3025.86 3219.69 3271.23 3209.46 3077.93 2988.83 2753.58 2296.95 2237.05 0 0 0 0 0 0 0 0 0 0 0 0 0 0 0 0 0 0 0 0 0 0 0 0 0 0 0 0 0 0 0 0 0 0 0 0 0 0 0 0 0 0 0 0 0 0 0 0 0 0 0 0 0 0 0 0 0 0 0 0 0 0 0 0 0 0 0 0 0 0 0 0 0 0 0 0 0 0 0 0 0 0 0 0 0 0 0 0 0 0 0 0 0 0 0 0 0 0 0
0 0 0 0 0 0 0 0 0 0 0 0 0 0 0 0 0 0 0 0 0 0 0 2958.01 3349.39 3189.88 3464.12 3458.27 3320.56 4491.3 3314.72 3299.53 3256.43 3264.03 4029.52 3252.96 3217.59 3682.56 3199.06 3256.62 3240.71 3219.01 3150.94 3119.83 3079.23 3135.8 3135.28 3002.63 2822.27 2767.29 2823.88 2738.66 2710.34 2225.45 1264.29 1168.09 0 0 0 0 0 0 0 0 0 0 0 0 0 0 0 0 0 0 0 0 0 0 0 0 1625.74 2140.96 2429.18 2154.77 1691.36 0 0 0 0 0 0 2616.1 0 0 0 3628.49 3758.29 3390.96 3403.06 3303.56 3315.9 3181.23 3146.03 3061.64 3094.74 3020.25 3528 3511.68 3526.74 3528.6 3608.35 3703.45 3796.64 3893.83 4070.39 4140.19 3446.9 3451.37 3440.75 3460.26 3330.05 3442.8 3150.7 2695.58 1870.8 1458.8 323.261 0 0 0 0 0 0 0 0 0 0 0 0 0 0 0 0 0 0 0 0 0 0 0 0 0 0 0 0 0 2906.31 2910.49 2853.66 3068.81 3321.54 3364.64 3368.22 3332.96 3300.76 3293.12 3352.67 3306.49 3297.91 3191.45 3161.69 3016.78 2883.53 2921.03 2976.21 2857.89 2937.24 0 0 0 0 0 0 0 0 0 0 0 0 0 0 0 0 0 0 0 0 0 0 0 0 0 0 0 0 0 0 0 0 0 0 0 0 0 0 0 0 0 0 0 0 0 0 0 0 0 0 0 0 0 0 0 0 0 0 0 0 0 0 0 0 0 0 0 0 0 0 0 0 0 0 0 2897.22 0 0 2195.31 0 2372.44 2043.67 2305.79 2594.82 2807.3 2757.79 2996.2 2910.49 2809.93 2942.65 3006.24 3108.04 3226.06 3249.12 3264.29 3243.97 3270.97 3322.14 3378.87 3378.12 3332.69 3280.56 3248.43 3322.6 3362.48 3443.22 3373.3 3181.83 3188.18 3108.27 3004.08 3014.45 2965.64 2554.06 2025.26 1639.13 1334.92 0 838.409 0 0 0 0 0 0 0 0 0 0 0 0 0 0 0 0 0 0 0 0 0 0 0 0 0 0 0 0 0 0 0 0 0 0 0 0 0 0 0 0 0 0 0 0 0 0 0 0 0 0 0 0 0 0 0 0 0 0 0 0 0 0 0 0 0 0 0 0 0 0 0 0 0 0 0 0 0 0 0 0 0 0 0 0 0 0 0 0 0 0 0 2753.04 2670.65 2927.25 3301.8 3458.98 3387.12 3976.43 4144.69 3995.08 4290.32 3727.23 3091.26 3045.25 2989.37 3027.83 3195.1 3010.55 2967.84 3171.07 3184.49 3125.35 3004.41 2869.38 2530.75 2166.51 0 0 0 0 0 0 0 0 0 0 0 0 0 0 0 0 0 0 0 0 0 0 0 0 0 0 0 0 0 0 0 0 0 0 0 0 0 0 0 0 0 0 0 0 0 0 0 0 0 0 0 0 0 0 0 0 0 0 0 0 0 0 0 0 0 0 0 0 0 0 0 0 0 0 0 0 0 0 0 0 0 0 0 0 0 0 0 0 0 0 0 0 0 0 0 0 0 0 0 0
0 0 0 0 0 0 0 0 0 0 0 0 0 0 0 0 0 0 0 0 0 0 0 3131.36 3473.66 3291.18 3390.62 4288.78 3351.6 3411.78 3288.54 3668.31 3276.27 3295.77 3283.9 3306.62 3849.52 3690.91 3238.08 3295.25 3283.45 3249.18 3180.2 3164.55 3096.28 3143.85 3180.44 3064.44 2894.37 2788.59 2817.25 2685.36 2620.88 2356.57 1554.16 1324.96 1297.02 920.168 0 0 0 0 0 0 0 0 0 0 0 0 0 0 0 0 0 0 0 0 0 0 0 1231.36 0 0 1455.41 0 0 0 0 0 0 2636.16 0 0 3231.66 3293.83 3567.16 3398.79 3445.62 3395.83 3412.2 3278.45 3211 3131.36 3171.49 3059.35 3568.9 3534.54 3511.83 3514.33 3493.55 3636.67 3674.34 3786.28 3967.02 3454.63 3527.41 3534.47 3492.53 3493.19 3304.08 3667.27 3950.12 3685.23 3226.75 2576.02 1773.56 0 0 0 0 0 0 0 0 0 0 0 0 0 0 0 0 0 0 0 0 0 0 0 0 0 0 0 2096.42 2778.61 3121.74 3101.26 2932.47 3089.66 3277.17 3297.78 3305.58 3259.85 3161.98 3163.29 3280.63 3290.92 3354.95 3335.74 3332.89 3304.21 3192.85 3332.36 3431.53 3171.79 3303.49 2671.42 0 0 0 0 0 0 0 0 0 0 0 0 0 0 0 0 0 0 0 0 0 0 0 0 0 0 0 0 0 0 0 0 0 0 0 0 0 0 0 0 0 0 0 0 0 0 0 0 0 0 0 0 0 0 0 0 0 0 0 0 0 0 0 0 0 0 0 0 0 0 0 0 0 0 3279.54 0 0 2754.8 0 2658.89 2239.38 2307.89 2592.41 2854.54 2857.89 3018.68 2934.78 2866.19 2980.87 2988.35 3109.13 3221.54 3240.27 3236.96 3243.34 3310.6 3343.72 3416.99 3433.22 3411.3 3348.99 3290.54 3353.95 3387.47 3423.27 3362.28 3179.12 3202.97 3091.6 3064.66 3214.45 3204.93 2819.19 2120.94 1687.51 1329.37 0 0 0 0 0 0 0 0 0 0 0 0 0 0 0 0 0 0 0 0 0 0 0 0 0 0 0 0 0 0 0 0 0 0 0 0 0 0 0 0 0 0 0 0 0 0 0 0 0 0 0 0 0 0 0 0 0 0 0 0 0 0 0 0 0 0 0 0 0 0 0 0 0 0 0 0 0 0 0 0 0 0 0 0 0 0 0 0 0 0 0 0 2248.59 2704.05 2722.66 2816.82 3199.61 3317.74 3373.3 3968.34 4109.47 3925.26 3023.57 3048.35 3022.7 3010.23 2996.52 2998.77 3079.68 2950.62 2938.78 3151.71 3142.44 3156.75 2974 2764.24 2420.14 0 0 0 0 0 0 0 0 0 0 0 0 0 0 0 0 0 0 0 0 0 0 0 0 0 0 0 0 0 0 0 0 0 0 0 0 0 0 0 0 0 0 0 0 0 0 0 0 0 0 0 0 0 0 0 0 0 0 0 0 0 0 0 0 0 0 0 0 0 0 0 0 0 0 0 0 0 0 0 0 0 0 0 0 0 0 0 0 0 0 0 0 0 0 0 0 0 0 0 0 0
0 0 0 0 0 0 0 0 0 0 0 0 0 0 0 0 0 0 0 0 0 0 0 3239.96 3604.09 3304.34 3469.42 3470.71 3388.56 4700.16 3307.01 3247.67 3216.11 3395.69 3476.9 3214.94 3768.33 3596.98 3171.37 3217.53 3235.15 3218.82 3159.48 3136.86 3066.4 3119.25 3118.2 3060.75 2866.49 2720.63 2770.36 2663.36 2689.7 2399.82 1589.9 1254.76 1188.24 892.66 0 0 0 0 0 0 0 0 0 0 0 0 0 0 0 0 0 0 0 0 0 0 0 0 0 0 0 0 0 0 0 0 0 0 0 0 3156.99 3265.94 3456.84 3391.16 3402.3 3387.19 3367.48 3266.45 3253.15 3238.08 3248.8 3126.4 3594.67 3565.34 3499.09 3495.81 3548.67 3621.13 3676.27 3796.21 4000.6 3450.51 3487.38 3442.44 3448.1 3413.86 3322.07 3355.69 3406.93 0 0 0 0 0 0 0 0 0 0 0 0 0 0 0 0 0 0 0 0 0 0 0 0 0 0 0 0 0 0 0 2347.15 2982.4 3140.21 3123.37 3006.88 3052.56 3166.76 3210.94 3247.36 3278.83 3237.89 3238.96 3872.89 3946.31 3953.66 3343.45 3300.83 3226.75 2987.87 2982.62 2993.69 2671.97 2789.93 2219.35 2177.9 0 0 0 0 0 0 0 0 0 0 0 0 0 0 0 0 0 0 0 0 0 0 0 0 0 0 0 0 0 0 0 0 0 0 0 0 0 0 0 0 0 0 0 0 0 0 0 0 0 0 0 0 0 0 0 0 0 0 0 0 0 0 0 0 0 0 0 0 0 0 0 3801.55 0 3490.35 3414.77 3370.45 3011.09 2989.53 2856.43 2225.21 2125.53 2383.69 2510.45 2666.7 2845.05 2715.61 2613.57 2725.58 2730.5 2908.52 3029.31 3099.2 3114.96 3166.28 3246.23 3297.13 3386.85 3401.89 3344.05 3295.77 3226.44 3260.17 3255.48 3222.1 3198.88 2978.65 2969.42 2879.87 2814.6 2946.01 2945.49 2709.91 2324.26 1708.34 1329.53 0 0 0 0 0 0 0 0 0 0 0 0 0 0 0 0 0 0 0 0 0 0 0 0 0 0 0 0 0 0 0 0 0 0 0 0 0 0 0 0 0 0 0 0 0 0 0 0 0 0 0 0 0 0 0 0 0 0 0 0 0 0 0 0 0 0 0 0 0 0 0 0 0 0 0 0 0 0 0 0 0 0 0 0 0 0 0 0 0 0 0 0 0 0 0 2798.92 3106.71 3271.74 3334.75 3389.38 4075.83 3321.08 3103.55 3135.33 3134.81 3196.14 3200.34 3189.82 3252.96 3121.97 3087.73 3251.89 3242.15 3249.37 2862.82 2556.94 2308.04 1896.45 1619.99 0 0 0 0 0 0 0 0 0 0 0 0 0 0 0 0 0 0 0 0 0 0 0 0 0 0 0 0 0 0 0 0 0 0 0 0 0 0 0 0 0 0 0 0 0 0 0 0 0 0 0 0 0 0 0 0 0 0 0 0 0 0 0 0 0 0 0 0 0 0 0 0 0 0 0 0 0 0 0 0 0 0 0 0 0 0 0 0 0 0 0 0 0 0 0 0 0 0 0
0 0 0 0 0 0 0 0 0 0 0 0 0 0 0 0 0 0 0 0 0 0 2791.93 3134.22 3342.79 3099.83 3252.77 3327.74 3319.77 3275.06 3241.52 3194.61 3191.15 3197.05 3473.37 3213.46 3189.39 3154.02 3183.58 3206.21 3245.16 3235.9 3197.29 3172.39 3108.38 3143.21 3159.24 3133.4 2973.95 2849.4 2832.32 2765.11 2800.32 2565.34 1809.58 1172.36 1139.19 782.078 677.554 0 0 0 0 0 0 0 0 0 0 0 0 0 0 0 0 0 0 0 0 0 0 0 0 0 0 0 0 0 0 0 0 0 3099.94 2846.98 3092.63 3053.84 3297.85 3324.84 3390.48 3446.9 3449.73 3366.33 3393.91 3321.35 3322.53 3208.73 3701.25 3675.22 3605.87 3533.28 3310.73 3276.85 3316.62 3668.87 3396.17 3359.39 3377.1 3292.93 3219.94 3078.16 3125.06 3203.58 3091.66 0 0 2811.39 2630.04 0 0 0 0 0 0 0 0 0 0 0 0 0 0 0 0 0 0 0 0 0 0 0 0 0 0 0 2568.33 3090.35 3263.65 3254.6 3211.92 3276.85 3351.07 3337.8 3367.48 3405.69 3365.25 3774.18 3953.19 3733.12 3724.33 3197.35 3192.97 3115.31 2851.14 2815.4 2800.13 2508.99 2714.68 2272.16 2252.24 0 0 0 0 0 0 0 0 0 0 0 0 0 0 0 0 0 0 0 0 0 0 0 0 0 0 0 0 0 0 0 0 0 0 0 0 0 0 0 0 0 0 0 0 0 0 0 0 0 0 0 0 0 0 0 0 0 0 0 0 0 0 0 2358.76 3131.76 3630.61 3379.62 3946.77 3380.03 3528.52 3764.78 3488.83 3400.58 3211.74 3037.75 2964.33 2435.6 2617.45 2759.6 2134.89 1985.41 2145.84 2077.58 2315.02 2621.99 2598.68 2538.29 2656.61 2633.18 2853.18 3029.14 3117.57 3126.34 3193.76 3220.55 3278.45 3391.85 3452.29 3368.22 3306.95 3200.1 3249.56 3212.91 3237.83 3174.19 2920.62 2899.18 2874.15 2822.36 3021.5 2953.89 2797 2450.97 2162.66 1817.11 0 0 0 0 0 0 0 0 0 0 0 0 0 0 0 0 0 0 0 0 0 0 0 0 0 0 0 0 0 0 0 0 0 0 0 0 0 0 0 0 0 0 0 0 0 0 0 0 0 0 0 0 0 0 0 0 0 0 0 0 0 0 0 0 0 0 0 0 0 0 0 0 0 0 0 0 0 0 0 0 0 0 0 0 0 0 0 0 0 0 0 0 0 0 0 2509.36 2672.65 3008.99 3140.44 3268.1 3353.08 3176.65 2876.86 2961.56 3020.96 3170.71 3187.45 3115.83 3216.17 3066.51 3071.17 3452.08 3426.06 3382.69 3102.4 2581.64 2354.46 1743.76 1434.77 1567.25 0 0 0 0 0 0 0 0 0 0 0 0 0 0 0 0 0 0 0 0 0 0 0 0 0 0 0 0 0 0 0 0 0 0 0 0 0 0 0 0 0 0 0 0 0 0 0 0 0 0 0 0 0 0 0 0 0 0 0 0 0 0 0 0 0 0 0 0 0 0 0 0 0 0 0 0 0 0 0 0 0 0 0 0 0 0 0 0 0 0 0 0 0 0 0 0 0 0
0 0 0 0 0 0 0 0 0 0 0 0 0 0 0 0 0 0 0 0 0 0 2662.35 2938.94 3146.45 3107.86 4637.02 4804.6 3747.29 3360.53 3224.76 3158.71 3184.01 3516.17 3193.09 3226.75 3209.4 3158.11 3196.01 3225.44 3284.55 3273.59 3240.33 3213.34 3139.26 3162.88 3171.97 3173.83 3014.77 2811.82 2785.9 2719.92 2803.03 2500.61 2035.61 1651.61 1142.31 782.771 669.243 686.034 0 0 0 0 0 0 0 0 0 0 0 0 0 0 0 0 0 0 0 0 0 0 0 0 0 0 0 0 0 0 0 0 0 2743.76 2911.15 2861.06 3070.95 3178.52 3267.09 3350.33 3348.86 3336.74 3426.55 3331.37 3340.13 3215.43 3221.42 3654.25 3217.77 3263.27 3308.18 3281.66 3318 3277.81 3381.53 3342.99 3316.69 3197.66 3078.55 2846.06 2834.43 2890.29 0 0 0 0 0 0 0 0 0 0 0 0 0 0 0 0 0 0 0 0 0 0 0 0 0 0 0 0 0 0 0 0 0 3075.67 3247.04 3192.06 3207.32 3290.92 3336.01 3395.42 3449.66 3483.61 3424.46 3701.25 3857.22 3383.57 3392.12 3389.04 3308.51 3279.09 3069.93 3082.23 3047.3 2614.39 2791.33 2370.73 2206.11 2226.66 1895.87 0 0 0 0 0 0 0 0 0 0 0 0 0 0 0 0 0 0 0 0 0 0 0 0 0 0 0 0 0 0 0 0 0 0 0 0 0 0 0 0 0 0 0 0 0 0 0 0 0 0 0 0 0 0 0 0 0 0 0 0 2564.79 2638.23 3251.64 3469.21 3305.58 3617.85 3296.87 3371.94 3503.47 3300.9 3276.02 3172.27 3034.73 2974.68 2568.84 2538.1 2624.2 2054.15 2099.89 1975.47 1901.87 2145.21 2284.29 2384.03 2494.29 2641.31 2671.76 2877.15 3097.19 3148.81 3187.21 3267.72 3237.58 3247.55 3334.15 3384.66 3315.51 3234.4 3149.4 3147.75 3100.74 3154.08 3124.82 2925.21 2876.07 2878.63 2926.13 3088.75 3115.31 3038.91 2684.02 2480.65 2113.43 0 0 0 0 0 0 0 0 0 0 0 0 0 0 0 0 0 0 0 0 0 0 0 0 0 0 0 0 0 0 0 0 0 0 0 0 0 0 0 0 0 0 0 0 0 0 0 0 0 0 0 0 0 0 0 0 0 0 0 0 0 0 0 0 0 0 0 0 0 0 0 0 0 0 0 0 0 0 0 0 0 0 0 0 0 0 0 0 0 0 0 0 0 0 0 2511.32 2587.94 2824.98 2979.91 3147.63 3211.98 3177.85 2948.03 3083.59 3131.36 3308.38 3401.13 3293.64 3368.69 3243.59 3133.99 3423.76 0 3360.06 0 2683.51 2501.99 1565 0 0 0 0 0 0 0 0 0 0 0 0 0 0 0 0 0 0 0 0 0 0 0 0 0 0 0 0 0 0 0 0 0 0 0 0 0 0 0 0 0 0 0 0 0 0 0 0 0 0 0 0 0 0 0 0 0 0 0 0 0 0 0 0 0 0 0 0 0 0 0 0 0 0 0 0 0 0 0 0 0 0 0 0 0 0 0 0 0 0 0 0 0 0 0 0 0 0 0 0
0 0 0 0 0 0 0 0 0 0 0 0 0 0 0 0 0 0 0 0 2451.25 2809.93 3096.11 3324.7 3343.05 3192.3 3235.96 4815.22 3795.96 3425.71 3357.64 3327.34 3596.29 3335.34 3361 3435.18 3235.83 3173.11 3240.46 3263.21 3309.82 3286.93 3235.65 3215.55 3151.41 3185.58 3247.61 3181.59 3013.96 2806.88 2772.55 2690.14 2694.59 2347.61 1742.73 1258.59 1002.54 542.63 464.629 403.596 0 0 0 0 0 0 0 0 0 0 0 0 0 0 0 0 0 0 0 0 0 0 0 0 0 0 0 0 0 0 0 0 0 2538.52 2824.5 2824.98 2932.11 3030.51 3257.06 3370.72 3376.49 3353.28 3442.37 3349.26 3378.33 3245.41 3793.3 3751.06 3169.69 3188.54 3226.38 3202.6 3192.37 3130.65 3235.27 3204.01 3171.61 3097.71 3080.02 2917.07 2872.91 3077.14 0 0 0 0 0 0 0 0 0 0 0 0 0 0 0 0 0 0 0 0 0 0 0 0 0 0 0 0 0 0 0 0 2799.9 3002.85 3121.16 3054.68 3138.44 3221.42 3200.95 3290.41 3323.06 3399.41 3381.87 3353.54 3439.41 3301.8 3316.75 3356.5 3290.15 3276.53 3035.06 3028.76 2998.29 2738.66 2810.12 2429.36 2193.79 2086 1853.65 1946.75 0 0 0 0 0 0 0 0 0 0 0 0 0 0 0 0 0 0 0 0 0 0 0 0 0 0 0 0 0 0 0 0 0 0 0 0 0 0 0 0 0 0 0 0 0 0 0 0 0 0 0 0 0 0 0 0 0 0 0 2885.17 2945.03 3168.97 3281.98 3139.73 3415.53 3176.53 3177.97 3315.24 2989.31 2940.48 3011.04 2857.02 2781.52 2361.12 2377.01 2511.62 2154.13 2270.9 2268.81 2023.85 2174.54 2368.02 2405.63 2454.02 2604.57 2652.92 2800.32 2980.92 3042.77 3108.15 3151 3202.48 3232.28 3329.85 3702.39 4235.19 4168.38 3237.21 3232.22 3236.27 3216.36 3165.56 2998.93 2922.81 2909.23 2976.37 3097.76 3153.31 3039.13 2767.89 0 2105.47 0 0 0 0 0 0 0 0 0 0 0 0 0 0 0 0 0 0 0 0 0 0 0 0 0 0 0 0 0 0 0 0 0 0 0 0 0 0 0 0 0 0 0 0 0 0 0 0 0 0 0 0 0 0 0 0 0 0 0 0 0 0 0 0 0 0 0 0 0 0 0 0 0 0 0 0 0 0 0 0 0 0 0 0 0 0 0 0 0 0 0 0 0 0 0 2069.81 2348.59 2613.62 2639.89 2711.7 2745.56 2669.59 2559 2853.37 3030.13 3112.36 3276.72 3103.61 3182.31 3038.69 2941.41 0 0 0 2574.12 2092.79 2075.16 1008.29 0 0 0 0 0 0 0 0 0 0 0 0 0 0 0 0 0 0 0 0 0 0 0 0 0 0 0 0 0 0 0 0 0 0 0 0 0 0 0 0 0 0 0 0 0 0 0 0 0 0 0 0 0 0 0 0 0 0 0 0 0 0 0 0 0 0 0 0 0 0 0 0 0 0 0 0 0 0 0 0 0 0 0 0 0 0 0 0 0 0 0 0 0 0 0 0 0 0 0 0
0 0 0 0 0 0 0 0 0 0 0 0 0 0 0 0 0 0 0 0 3165.26 3191.64 3353.54 3406.45 3398.65 3191.09 3159.54 4844.7 3391.03 3391.37 3360.26 3189.03 3178.52 3167.53 3165.5 3470.93 3192.12 3151.41 3214.57 3214.75 3255.36 3237.46 3233.9 3239.58 3142.26 3140.68 3150.29 3101.09 2935.55 2786.88 2699.48 2630.91 2492.33 2277.16 2068.71 1288.69 1011.5 518.966 315.891 406.028 0 0 0 0 0 0 0 0 0 0 0 0 0 0 0 0 0 0 0 0 0 0 0 0 0 0 0 0 0 0 0 0 0 2841.44 3289.44 3282.88 3317.6 3265.11 3423.41 3437.79 3386.24 3388.9 3497.63 3365.45 3352.2 3184.55 3138.68 3082.06 3033.63 3042.54 3032.65 2974.95 2950.78 2888.99 2989.21 2945.39 2915.8 2871.93 2867.12 2727.48 2675.08 2918.54 2841.68 2617.73 0 0 0 0 0 0 0 0 0 0 0 0 0 0 0 0 0 0 0 0 0 0 0 0 0 0 0 0 0 0 3034.07 3169.39 3219.32 3116.18 3171.79 3251.51 3234.96 3339.86 3350.93 3392.12 3387.12 3350.4 3436.94 3335.28 3348.19 3397.34 3354.28 3367.41 3199.73 3182.62 3240.77 3030.62 3134.34 2753.99 2534.19 2245.97 1881.37 2121.21 0 0 0 0 0 0 0 0 0 0 0 0 0 0 0 0 0 0 0 0 0 0 0 0 0 0 0 0 0 0 0 0 0 0 0 0 0 0 0 0 0 0 0 0 0 0 0 0 0 0 0 0 0 0 0 0 2306.33 2539.06 2320.37 2699.96 3015.96 3207.19 3210.02 3136.8 3361.68 3254.41 3280.89 3504.35 3216.23 3029.42 3078.89 2976.69 2966.43 2600.93 2597.39 2824.74 2768.21 2705.06 2800.51 2383.66 2403.95 2519.76 2471.77 2533.84 2632.19 2592.57 2783.92 2987.82 3067.75 4935.91 3155.68 3214.08 3258.84 3351.8 3398.38 3370.05 3284.74 3231.91 3239.52 3248.55 3239.83 3207.56 3033.03 2965.06 2943.68 3059.63 3187.09 3236.64 3074.66 2777.46 2458.65 2080.33 0 0 0 0 0 0 0 0 0 0 0 0 0 0 0 0 0 0 0 0 0 0 0 0 0 0 0 0 0 0 0 0 0 0 0 0 0 0 0 0 0 0 0 0 0 0 0 0 0 0 0 0 0 0 0 0 0 0 0 0 0 0 0 0 0 0 0 0 0 0 0 0 0 0 0 0 0 0 0 0 0 0 0 0 0 0 0 0 0 0 0 0 0 0 0 0 0 0 0 0 2658.55 2443.44 2378.42 2872.96 2863.65 3066.96 3125.46 2734.51 0 0 0 2543.79 0 0 0 0 2113.22 925.774 0 0 0 0 0 0 0 0 0 0 0 0 0 0 0 0 0 0 0 0 0 0 0 0 0 0 0 0 0 0 0 0 0 0 0 0 0 0 0 0 0 0 0 0 0 0 0 0 0 0 0 0 0 0 0 0 0 0 0 0 0 0 0 0 0 0 0 0 0 0 0 0 0 0 0 0 0 0 0 0 0 0 0 0 0 0 0 0 0 0 0 0 0 0 0 0 0 0 0 0
0 0 0 0 0 0 0 0 0 0 0 0 0 0 0 0 0 0 0 0 2575.3 3003.98 3236.46 3228.24 3240.9 3065.34 2975.42 4722.38 3574.53 3081.27 3245.41 3235.71 3114.09 3093.6 3097.19 3115.31 3115.94 3113.86 3204.19 3175.03 3220.18 3242.9 3285.83 3310.73 3268.74 3279.92 3282.75 3254.85 3181.71 3077.48 2895.67 2686.73 2493.07 2271.42 2161.9 1289.09 978.125 681.412 629.104 612.057 0 0 0 0 0 0 0 0 0 0 0 0 0 0 0 0 0 0 0 0 0 0 0 0 0 0 0 0 0 0 0 0 0 2775.63 0 0 3161.51 3284.87 3470.14 3521.49 3440.4 3450.37 3574 3408.87 3440.47 3228.11 3138.44 3071.51 2983.47 3002.69 2994.11 2917.88 2894.03 2823.55 2964.59 2880.36 2818.43 2760.01 2716.05 2495.18 2487.12 2631.61 2490.33 0 0 0 0 0 0 0 0 0 0 0 0 0 0 0 0 0 0 0 0 0 0 0 0 0 0 0 0 0 2436.3 2784.7 3070.27 3220.37 3282.68 3157.34 3183.28 3263.21 3289.12 3352.07 3375.13 3377.92 3357.1 3292.41 3388.22 3330.58 3330.51 3319.31 3337.67 3341.32 3261.05 3214.32 3301.22 3089.78 3141.85 2731.61 2559.35 2268.17 1877.98 1905.69 1673.54 1514.55 0 0 0 0 0 0 0 0 0 0 0 0 0 0 0 0 0 0 0 0 0 0 0 0 0 0 0 0 0 0 0 0 0 0 0 0 0 0 0 0 0 0 0 0 0 0 0 0 0 0 0 0 0 0 2368.15 2551.92 2456.71 2784.33 2961.77 3082.12 3249.43 3195.71 3344.72 3272.95 3354.15 3467.63 3248.93 3196.5 3265.05 3061.09 3062.26 2737.09 2719.44 2723.54 2711.88 2648.52 2647.64 2163.6 2432.49 2444.43 6271.98 2605.3 2813.37 2717.54 2888.25 3024.12 3142.38 3110.28 3114.56 3166.58 3230.85 3288.73 3311.84 3301.35 3198.02 3187.57 3206.89 3225.75 3206.21 3193.82 3068.7 2986.76 2901.63 3066.23 3132 3192.67 3089.89 2826.5 0 0 0 0 0 0 0 0 0 0 0 0 0 0 0 0 0 0 0 0 0 0 0 0 0 0 0 0 0 0 0 0 0 0 0 0 0 0 0 0 0 0 0 0 0 0 0 0 0 0 0 0 0 0 0 0 0 0 0 0 0 0 0 0 0 0 0 0 0 0 0 0 0 0 0 0 0 0 0 0 0 0 0 0 0 0 0 0 0 0 0 0 0 0 0 0 0 0 0 0 0 0 0 0 0 0 3105.39 0 0 0 0 0 0 0 0 0 0 0 0 0 0 0 0 0 0 0 0 0 0 0 0 0 0 0 0 0 0 0 0 0 0 0 0 0 0 0 0 0 0 0 0 0 0 0 0 0 0 0 0 0 0 0 0 0 0 0 0 0 0 0 0 0 0 0 0 0 0 0 0 0 0 0 0 0 0 0 0 0 0 0 0 0 0 0 0 0 0 0 0 0 0 0 0 0 0 0 0 0 0 0 0 0 0 0 0 0 0 0 0 0
0 0 0 0 0 0 0 0 0 0 0 0 0 0 0 0 0 0 0 0 2157.93 2424.16 3013.31 3143.32 3413.52 3193.28 3120.87 4606.34 3209.46 3563.97 3149.64 3064.16 3119.07 3093.08 3081.21 3092.28 3111.03 3073.65 3177.19 3137.8 3162.4 3157.76 3177.07 3217.96 3194.01 3122.5 3183.82 3127.79 3017.27 2968.05 2786 2554.02 2300.26 1982.83 1885.75 1395.5 1107.03 0 0 0 0 0 0 0 0 0 0 0 0 0 0 0 0 0 0 0 0 0 0 0 0 0 0 0 0 0 0 0 0 0 0 0 0 0 0 3262 3207.68 3312.69 3424.95 3509.04 3431.95 3484.84 3586.53 3457.84 3489.55 3305.9 3164.79 3089.32 3008.45 2989.47 2954.99 2871.34 2821.79 2770.49 2881.55 2900.13 2832.42 2756.02 2882.99 2646.43 2700.44 2810.36 2599.73 0 0 0 0 0 0 0 0 0 0 0 0 0 0 0 0 0 0 0 0 0 0 0 0 0 0 0 0 0 0 3153.9 3327.61 3435.82 3577.81 3534.69 3531.12 3553.03 3527.63 3543.2 3493.99 3469.06 3433.71 3292.93 3312.63 3250.88 3263.46 3276.34 3315.57 3372.22 3322.99 3218.51 3322.07 3169.93 3244.84 2852.89 2613.21 2231.66 1885.24 1890.06 1788.38 1417.61 0 0 0 0 0 0 0 0 0 0 0 0 0 0 0 0 0 0 0 0 0 0 0 0 0 0 0 0 0 0 0 0 0 0 0 0 0 0 0 0 0 0 0 0 0 0 0 0 0 0 0 0 0 0 1988.89 2254.36 2330.19 2740.4 2929.7 3034.18 3197.78 3192.18 3383.85 3264.99 3359.72 3417.34 3213.58 3159.13 3212.91 2987.56 2981.08 2693.98 2737.23 2661.5 2612.6 2614.76 2570.73 2143.86 2322.2 2259.65 2307.35 2291.56 2491.07 2500.98 2710.74 2885.71 3029.25 3051.45 3061.09 3146.98 3248.05 3273.97 4298.01 3292.73 3205.23 3212.41 3240.65 3280.37 3224.14 3186.12 3096.11 2980.76 2928.88 3120.29 3190.24 3239.46 3180.75 2925.26 0 0 0 0 0 0 0 0 0 0 0 0 0 0 0 0 0 0 0 0 0 0 0 0 0 0 0 0 0 0 0 0 0 0 0 0 0 0 0 0 0 0 0 0 0 0 0 0 0 0 0 0 0 0 0 0 0 0 0 0 0 0 0 0 0 0 0 0 0 0 0 0 0 0 0 0 0 0 0 0 0 0 0 0 0 0 0 0 0 0 0 0 0 0 0 0 0 0 0 0 0 0 0 0 0 3542.01 3133.34 0 0 0 0 0 0 0 0 0 0 0 0 0 0 0 0 0 0 0 0 0 0 0 0 0 0 0 0 0 0 0 0 0 0 0 0 0 0 0 0 0 0 0 0 0 0 0 0 0 0 0 0 0 0 0 0 0 0 0 0 0 0 0 0 0 0 0 0 0 0 0 0 0 0 0 0 0 0 0 0 0 0 0 0 0 0 0 0 0 0 0 0 0 0 0 0 0 0 0 0 0 0 0 0 0 0 0 0 0 0 0 0 0
0 0 0 0 0 0 0 0 0 0 0 0 0 0 0 0 0 0 0 0 1904.87 2263.33 2987.93 3026.85 3219.13 3315.83 3194.74 4581.06 4770.31 3025.15 3113 3032.04 3105.74 3107.58 3057.63 3058.8 3075.9 3023.25 3154.31 3118.96 3147.39 3148.75 3151.89 3221.91 3207.99 3152.06 3239.08 3179 3111.96 3101.09 2753.53 2517.27 2211.43 1893.03 1741.48 1619.77 1280.02 0 0 0 0 0 0 0 0 0 0 0 0 0 0 0 0 0 0 0 0 0 0 0 0 0 0 0 0 0 0 0 0 0 0 0 0 2695.32 3086.2 3028.59 3008.93 3151.12 3413.31 3434.9 3440.18 3532.98 3629.43 3520.08 3531.05 3370.79 3216.17 3094.91 3069.32 3059.3 3024.34 2920.17 2858.43 2788.08 2874.69 2874.74 2859.5 2746.64 2770.91 2340.89 2489.63 0 0 0 0 0 0 0 0 0 0 0 0 0 0 0 0 0 0 0 0 0 0 0 0 0 0 0 0 0 0 0 0 3134.51 3251.57 3443.08 3567.54 3561.71 3481.23 3515.14 3526.89 3557.17 3488.47 3438.28 3435.6 3318.98 3337.34 3306.16 3310.14 3328.86 3361.47 3443.57 3447.18 3306.88 3385.83 3196.2 3279.41 2924.49 2693.59 2362.58 2089.63 2124.21 2008.46 1580.72 0 0 0 0 0 0 0 0 0 0 0 0 0 0 0 0 0 0 0 0 0 0 0 0 0 0 0 0 0 0 0 0 0 0 0 0 0 0 0 0 0 0 0 0 0 0 0 0 0 0 0 0 0 1937.04 2202.63 2411.03 2430.69 2852.3 2961.19 3150.64 3275.38 3269.57 3445.34 3353.54 3414 3428.02 3268.29 3309.55 3345.85 3154.37 3118.61 2865.26 3013.47 2909.48 2916.26 2896.22 2786.74 2493.14 2786.37 2693.89 2630.58 2355.58 2590.29 2686.39 2835.62 2939.25 3030.84 3051.9 3093.77 3172.09 4604.83 3307.34 4211.8 3330.58 3254.47 3200.46 3191.76 3233.4 3156.57 3132.52 3076.8 2963.23 2941.98 3090.4 3245.41 3352.27 3282.04 3209.96 0 3024.28 3934.28 0 0 0 0 0 0 0 0 0 0 0 0 0 0 0 0 0 0 0 0 0 0 0 0 0 0 0 0 0 0 0 0 0 0 0 0 0 0 0 0 0 0 0 0 0 0 0 0 0 0 0 0 0 0 0 0 0 0 0 0 0 0 0 0 0 0 0 0 0 0 0 0 0 0 0 0 0 0 0 0 0 0 0 0 0 0 0 0 0 0 0 0 0 0 0 0 0 0 0 0 0 0 0 2157.9 0 0 0 0 0 0 0 0 0 0 0 0 0 0 0 0 0 0 0 0 0 0 0 0 0 0 0 0 0 0 0 0 0 0 0 0 0 0 0 0 0 0 0 0 0 0 0 0 0 0 0 0 0 0 0 0 0 0 0 0 0 0 0 0 0 0 0 0 0 0 0 0 0 0 0 0 0 0 0 0 0 0 0 0 0 0 0 0 0 0 0 0 0 0 0 0 0 0 0 0 0 0 0 0 0 0 0 0 0 0 0 0 0
0 0 0 0 0 0 0 0 0 0 0 0 0 0 0 0 0 0 0 0 0 0 2539.67 2807.91 3093.37 3231.41 3183.76 4612.93 4794.44 3035.39 3124.53 3025.37 3054.4 3062.82 3010.23 2999.52 3026.14 2999.63 3106.31 3089.66 3093.2 3117.68 3091.37 3164.67 3194.07 3112.94 3146.33 3088.87 2963.65 3095.88 2701.09 2545.3 2275.09 1751.29 1712.08 1600.37 1468.82 1661.21 2078.45 2592.65 3041.66 2769.67 3035.44 0 0 0 0 0 0 0 0 0 0 0 0 0 0 0 0 0 0 0 0 0 0 0 0 0 0 0 0 0 2707.19 2521.2 2979.54 2997.05 2932.67 2868.35 3175.57 3225.57 3297 3442.09 3572.4 3432.72 3416.37 3294.67 3149.16 3061.09 3016.29 2992.89 2941.77 2831.7 2758.51 2691.95 2765.47 2779.3 2628.23 2512.11 2531.74 2185.53 2411.2 2454.19 0 0 0 0 0 0 0 0 0 0 0 0 0 0 0 0 0 0 0 0 0 0 0 0 0 0 0 0 0 0 0 2960.67 3093.37 3197.96 3383.03 3469.42 3522 3557.55 3546.2 3577.81 3517.94 3474.45 3500.69 3363.97 3322.66 3245.1 3177.31 3205.97 3248.61 3298.49 3278.71 3098.85 3137.97 3024.39 3072.18 2894.22 2658 2329.29 2089.95 2092.74 2137.47 1858.86 0 0 0 0 0 0 0 0 0 0 0 0 0 0 0 0 0 0 0 0 0 0 0 0 0 0 0 0 0 0 0 0 0 0 0 0 0 0 0 0 0 0 0 0 0 0 0 0 0 0 0 0 0 2018.17 2402.05 2644.39 2594.86 2945.34 3008.34 3211.86 3262.89 3866.64 3980.86 3372.15 3401.82 3408.73 3309.42 4049.17 3324.7 3171.61 3112.13 2823.93 2915.45 2836.01 2873.65 2811.25 2685.06 2470.71 2535.15 2379.67 2333.66 1877.94 2217.1 2417.77 2630.5 2795.56 2915.09 2999.47 3118.72 3120.17 3281.66 4118.75 4318.25 4088.14 4013.52 3200.59 3958.32 3935.94 3158.83 3134.57 3095.48 2938.12 2931.6 3062.43 3186.18 3195.77 3200.89 3222.72 2905.15 0 3901.44 0 0 0 0 0 0 0 0 0 0 0 0 0 0 0 0 0 0 0 0 0 0 0 0 0 0 0 0 0 0 0 0 0 0 0 0 0 0 0 0 0 0 0 0 0 0 0 0 0 0 0 0 0 0 0 0 0 0 0 0 0 0 0 0 0 0 0 0 0 0 0 0 0 0 0 0 0 0 0 0 0 0 0 0 0 0 0 0 0 0 0 0 0 0 0 0 0 0 0 0 0 0 0 0 0 0 0 0 0 0 0 0 0 0 0 0 0 0 0 0 0 0 0 0 0 0 0 0 0 0 0 0 0 0 0 0 0 0 0 0 0 0 0 0 0 0 0 0 0 0 0 0 0 0 0 0 0 0 0 0 0 0 0 0 0 0 0 0 0 0 0 0 0 0 0 0 0 0 0 0 0 0 0 0 0 0 0 0 0 0 0 0 0 0 0 0 0 0 0 0 0 0 0 0 0 0 0 0 0 0 0 0 0 0 0 0 0
0 0 0 0 0 0 0 0 0 0 0 0 0 0 0 0 0 0 0 0 0 0 0 2474.03 2697.14 2868.79 2930.88 4454.93 4690.96 2978.7 3050.57 3004.46 3060.3 3086.31 3050.34 3063.71 3118.09 3057.79 3168.25 3151.65 3135.98 3187.64 3150.17 3221.3 3245.47 3088.19 3158.89 3053.56 2975.53 3189.45 2717.72 2590.85 2344.62 1988.84 2189.24 2381.19 2404.91 2667.43 2744.03 3093.6 3386.92 3209.28 3372.96 3230.72 3199.37 0 0 0 0 0 0 0 0 0 0 0 0 0 0 0 0 0 0 0 0 0 0 0 0 0 0 2410.34 2916.01 2838.6 3551.08 3117.74 3204.81 2878.98 3159.78 3189.33 3305.19 3423.2 3511.83 3283.2 3315.05 3155.92 3053.29 2981.4 2962.24 2898.32 2831.32 2715.91 2663.4 2639.1 2702.18 2773.65 2612.92 2497.3 2610.89 2183.99 2346.59 2457.61 2250.49 1318.6 0 0 0 0 0 0 0 0 0 0 0 0 0 0 0 0 0 0 0 0 0 0 0 0 0 0 0 0 0 3031.17 3125.06 3228.24 3446.05 3485.93 3553.26 3620.58 3630.45 3672.73 3604.48 3521.49 3508.53 3368.15 3334.42 3250.88 3135.22 3141.73 3183.46 3247.36 3283.13 3182.86 3230.35 3132.76 3212.11 3151.29 2840.71 2449.82 2189.24 2138.7 2247.84 1906.21 1470.94 0 0 0 0 0 0 0 0 0 0 0 0 0 0 0 0 0 0 0 0 0 0 0 0 0 0 0 0 0 0 0 0 0 0 0 0 0 0 0 0 0 0 0 0 0 0 0 0 0 0 0 0 2267.77 2608.46 2683.25 2686.56 2908.68 3035.39 3142.68 3175.57 3216.6 3807.85 3745.45 3388.49 3402.3 3343.72 3923.61 3350.26 3247.61 3179.96 2888 3018.57 2958.53 2967.95 2924.7 2816.68 2656.57 2731.03 2519.61 2321.94 1783.88 2130.28 2414.95 2646.1 2831.32 2881.45 2977.17 3107.75 3144.27 3321.02 3239.21 4305.51 4236.48 4153.83 3258.14 4042.92 3229.48 3217.4 3151.17 3180.2 2986.7 2940.43 3096.96 3282.04 3299.4 3304.86 3132.99 0 0 0 0 0 0 0 0 0 0 0 0 0 0 0 0 0 0 0 0 0 0 0 0 0 0 0 0 0 0 0 0 0 0 0 0 0 0 0 0 0 0 0 0 0 0 0 0 0 0 0 0 0 0 2056.84 1642.99 0 0 0 0 0 599.885 0 0 0 0 0 0 0 0 0 0 0 0 0 0 0 0 0 0 0 0 0 0 0 0 0 0 0 0 0 0 0 0 0 0 0 0 0 0 0 0 0 0 0 0 0 0 0 0 0 0 0 0 0 0 0 0 0 0 0 0 0 0 0 0 0 0 0 0 0 0 0 0 0 0 0 0 0 0 0 0 0 0 0 0 0 0 0 0 0 0 0 0 0 0 0 0 0 0 0 0 0 0 0 0 0 0 0 0 0 0 0 0 0 0 0 0 0 0 0 0 0 0 0 0 0 0 0 0 0 0 0 0 0 0 0 0 0 0 0 0 0 0 0 0 0 0 0 0 0 0 0 0 0 0 0 0 0 0
0 0 0 0 0 0 0 0 0 0 0 0 0 0 0 0 0 0 0 0 0 0 0 0 2663.61 2923.17 3016.67 3214.01 3178.09 4136.93 3182.62 3042.27 3098.28 3095.54 3029.63 3023.96 3068.81 3016.29 3118.09 3094.62 3081.66 3102.12 3052.84 3151.17 3181.89 3048.4 3195.22 2987.98 2951.45 3296.23 2838.74 2770.54 2473.19 2068.66 2275.37 2300.64 2225.51 2448.68 2459.66 2633.14 2709.73 2518.67 2810.07 2625.44 2695.02 2706.02 2754.71 0 0 0 0 0 0 0 0 0 0 0 0 0 0 0 0 0 0 0 0 0 0 0 0 0 0 2720.14 3154.02 3225.01 3274.87 2721.73 3033.41 3030.62 3209.96 3393.98 3408.18 3261.37 3233.53 3053.29 2975.05 2887.2 2876.51 2747.04 2654.39 2593.3 2472.46 2475.96 2546.57 2690.01 2524.05 2403.43 2634.5 2175.33 2176.12 2267.46 2012.85 796.128 0 0 0 0 0 0 0 0 0 0 0 0 0 0 0 0 0 0 0 0 0 0 0 0 0 0 0 0 2864.14 3109.19 3148.1 3219.07 3398.31 3461.05 3508.01 3533.05 3569.89 3677.72 3608.9 3545.52 3540.96 3407.35 3345.59 3294.09 3210.14 3257.38 3224.39 3268.1 3335.01 3235.08 3272.37 3245.35 3333.16 3286.22 2830.55 2462.48 2269.8 2077.71 2233.27 1795.5 1424.39 0 0 0 0 0 0 0 0 0 0 0 0 0 0 0 0 0 0 0 0 0 0 0 0 0 0 0 0 0 0 0 0 0 0 0 0 0 0 0 0 0 0 0 0 0 0 0 0 0 0 0 2677.81 2470.89 2753.13 2676.1 2662.09 2886.06 2927.15 2986.49 3011.9 3116.75 3265.18 3253.65 3361.61 3370.59 3285.58 3342.25 3383.23 3393.84 3365.18 3220.49 3289.7 3179.6 3210.08 3186.73 2984.63 2897.57 2914.08 2621.42 2323.87 1798.22 2188.38 2513.16 2784.42 2985 2977.32 3129.6 3205.23 3256.12 4444.07 4286.04 4283.63 4236.26 4149.1 4161.35 4212.33 3221.42 3154.49 3117.22 3201.99 2963.81 2877.89 3122.56 3295.64 3255.67 3249.37 3199.98 2865.65 0 0 0 0 0 0 0 0 0 0 0 0 0 0 0 0 0 0 0 0 0 0 0 0 0 0 0 0 0 0 0 0 0 0 0 0 0 0 0 0 0 0 0 0 0 0 0 0 0 2777.14 3082.57 2663.02 0 2666.03 2380.68 0 0 1436.41 1426.06 912.591 817.657 709.909 761.055 460.523 0 470.942 0 0 0 0 0 0 0 0 0 0 0 0 0 0 0 0 0 0 0 0 0 0 0 0 0 0 0 0 0 0 0 0 0 0 0 0 0 0 0 0 0 0 0 0 0 0 0 0 0 0 0 0 0 0 0 0 0 0 0 0 0 0 0 0 0 0 0 0 0 0 0 0 0 0 0 0 0 0 0 0 0 0 0 0 0 0 0 0 0 0 0 0 0 0 0 0 0 0 0 0 0 0 0 0 0 0 0 0 0 0 0 0 0 0 0 0 0 0 0 0 0 0 0 0 0 0 0 0 0 0 0 0 0 0 0 0 0 0 0 0 0 0 0 0 0 0 0 0 0 0 0 0 0
0 0 0 0 0 0 0 0 0 0 0 0 0 0 0 0 0 0 0 0 0 0 0 0 2387.32 2747 2930.06 3112.25 3092 3189.82 3268.68 3101.26 3154.2 3153.72 3046.52 3028.76 3105.45 3033.41 3082.4 3045.53 2993.31 3000.81 2952.75 3057.63 3110.92 2911.45 3076.41 2855.61 2721.69 3099.31 2719.44 2442.62 2329.84 1996.35 2425.67 2607.81 2686 2979.49 2903.04 3029.03 3175.75 2991.07 3278.83 3019.38 3019 3030.78 3033.25 2790.77 2701.66 2712.45 2797.94 2420.98 0 0 0 0 0 0 0 0 0 0 0 0 0 0 0 0 0 0 0 0 0 0 3129.43 3254.1 3251.2 2770.17 3033.8 3194.98 3363.02 3527.48 3375.47 3178.46 3070.67 2910.59 2797.47 2678.41 2665.86 2435.28 2383.15 2336.62 2249.47 2312.08 2396.63 2527.85 2421.85 2304.46 2608.58 2350.24 2442.87 2512.18 2156.07 378.286 0 0 0 0 0 0 0 0 0 0 0 0 0 0 0 0 0 0 0 0 0 0 0 0 0 0 0 0 2659.35 3134.4 3242.84 3232.72 3381.25 3548.15 3522.23 3517.79 3539.54 3601.23 3515.44 3425.22 3459.05 3312.95 3184.55 3137.33 3095.48 3155.03 3161.69 3198.57 3254.03 3104.59 3160.02 3190.67 3294.35 3230.54 2899.33 2500.84 2301.59 2129.39 2407.02 1996.47 0 0 0 0 0 0 0 0 0 0 0 0 0 0 0 0 0 0 0 0 0 0 0 0 0 0 0 0 0 0 0 0 0 0 0 0 0 0 0 0 0 0 0 0 0 0 0 0 0 0 0 0 2730.9 2518.4 2767.39 2710.04 2662.43 2895.62 2934.31 2957.07 3013.91 3125.58 3288.22 3260.17 3355.42 3372.22 3295.77 3379.01 3389.59 3396.86 3385.07 3280.82 3370.18 3288.02 3312.3 3252.77 3045.58 3014.01 2967.42 2593.22 2166.03 1696.18 2089.19 2254.61 2554.41 2769.44 2833.61 3006.24 3068.53 3161.03 3321.41 3214.63 3317.87 3350.2 3207.81 3224.45 3247.86 3232.84 3122.79 3072.52 3111.09 2859.06 2704.58 2995.66 3186.42 2971.73 3018.03 2965.22 2503.63 2589.77 0 0 0 0 0 0 0 0 0 0 0 0 0 0 0 0 0 0 0 0 0 0 0 0 0 0 0 0 0 0 0 0 0 0 0 0 0 0 0 0 0 0 0 0 3140.38 3194.07 3227.43 3297.46 3133.23 3441.95 3422.57 3446.47 3803.79 3537.15 0 2842.45 2571.08 3059.69 2333.21 1410.22 1148.77 1019.18 728.054 0 642.459 0 0 0 0 0 0 0 0 0 0 0 0 0 0 0 0 0 0 0 0 0 0 0 0 0 0 0 0 0 0 0 0 0 0 0 0 0 0 0 0 0 0 0 0 0 0 0 0 0 0 0 0 0 0 0 0 0 0 0 0 0 0 0 0 0 0 0 0 0 0 0 0 0 0 0 0 0 0 0 0 0 0 0 0 0 0 0 0 0 0 0 0 0 0 0 0 0 0 0 0 0 0 0 0 0 0 0 0 0 0 0 0 0 0 0 0 0 0 0 0 0 0 0 0 0 0 0 0 0 0 0 0 0 0 0 0 0 0 0 0 0 0 0 0 0 0 0 0 0 0 0 0 0
0 0 0 0 0 0 0 0 0 0 0 0 0 0 0 0 0 0 0 0 0 0 0 0 0 2349.64 2684.84 2873.11 2960.2 3100.8 3207.44 3035.33 3114.61 3071.51 2963.13 2951.81 3042.66 2993.58 3029.2 2963.55 2878.58 2900.83 2910.54 3041.5 3090.4 2894.67 2956.86 2769.9 2761.97 3268.74 2879.37 2620.96 2688.97 2550.14 2875.77 2993.47 2934.11 3066.62 3009.53 3135.45 3205.85 3035.83 3209.89 2955.14 3001.34 3151.29 3256.37 3011.26 2908.57 2949.84 2964.49 2690.83 0 0 0 0 0 0 0 0 0 0 0 0 0 0 0 0 0 0 0 0 0 0 0 3009.69 3243.28 3047.85 3086.25 3215.99 3384.32 3489.55 3368.56 3146.51 2958.89 2778.71 2685.92 2614.35 2652.87 2448.39 2410.09 2273.18 2169.23 2275.15 2350.17 2362.55 2191.61 0 0 0 1696.14 0 1347.29 0 0 0 0 0 0 0 0 0 0 0 0 0 0 0 0 0 0 0 0 0 0 0 0 0 0 0 0 0 0 2890.34 3140.91 3193.16 3319.11 3537.15 3534.62 3517.72 3560.8 3603.01 3578.11 3448.74 3483.9 3416.92 3281.98 3255.61 3224.2 3244.09 3255.86 3271.93 3390.07 3266 3265.5 3251.07 3401.54 3338.26 3051.34 2731.75 2439.95 1976.75 2221.97 0 0 0 0 0 0 0 0 0 0 0 0 0 0 0 0 0 0 0 0 0 0 0 0 0 0 0 0 0 0 0 0 0 0 0 0 0 0 0 0 0 0 0 0 0 0 0 0 0 0 0 0 0 2774.94 2629.01 2847.75 2734.86 2745.69 2882 2872.72 2936.47 3664.31 3732.95 3253.46 3230.35 3362.62 3340.59 3315.44 3404.31 3387.88 3399.55 3404.17 3311.84 3370.45 3262.38 3357.71 3316.95 3149.99 3149.16 3155.8 2795.09 2296.45 1862.78 2146.25 2281.59 2570.45 2728.59 2810.69 2850.37 2952.75 2946.68 3213.89 3098.39 3158.71 3173.17 3089.89 3084.16 3161.86 3042.16 3001.67 2870.16 2876.61 2621.99 2497.52 2551.03 2683.34 2356.84 2647.98 2614.72 0 0 0 0 0 0 0 0 0 0 0 0 0 0 0 0 0 0 0 0 0 0 0 0 0 0 0 0 0 0 0 0 0 0 0 0 0 0 0 0 0 0 0 0 0 0 3132.7 3201.75 3218.14 3874.86 3762.33 4049.95 3937.23 4056.22 4166.93 4311.71 3358.11 3344.19 3309.88 3714.6 3345.52 2641.97 2300.86 1899.59 1307.27 978.091 1054.91 0 0 0 0 0 0 0 0 0 0 0 0 0 0 0 0 0 0 0 0 0 0 0 0 0 0 0 0 0 0 0 0 0 0 0 0 0 0 0 0 0 0 0 0 0 0 0 0 0 0 0 0 0 0 0 0 0 0 0 0 0 0 0 0 0 0 0 0 0 0 0 0 0 0 0 0 0 0 0 0 0 0 0 0 0 0 0 0 0 0 0 0 0 0 0 0 0 0 0 0 0 0 0 0 0 0 0 0 0 0 0 0 0 0 0 0 0 0 0 0 0 0 0 0 0 0 0 0 0 0 0 0 0 0 0 0 0 0 0 0 0 0 0 0 0 0 0 0 0 0 0 0 0
0 0 0 0 0 0 0 0 0 0 0 0 0 0 0 0 0 0 0 0 0 0 0 0 0 1938.21 2417.7 2721.73 2918.08 3155.68 3192.37 2983.78 3069.37 3109.36 2954.1 2911 2980.39 2863.06 2872.13 2801.77 2755.52 2775.44 2716.88 2859.99 2922.05 2857.02 3068.76 2855.17 2940.59 3440.89 3213.52 2856.97 3143.44 2962.97 2880.51 2904.45 2954.99 3044.59 3055.96 3094.57 3293.7 3053.73 3220.12 3076.18 3157.4 3242.9 3366.33 3120.76 3068.03 2905.25 3020.04 2656.15 0 0 0 0 0 0 0 0 0 0 0 0 0 0 0 0 0 0 0 0 0 0 0 2323.87 2537.75 2433.41 2738.48 2917.58 3287.44 3200.77 3067.8 2903.39 2764.47 2753.49 2778.66 2709.51 2810.45 2573.37 2657.96 2550.68 2539.48 2836.87 2914.59 2574.99 2239.41 0 0 0 0 0 0 0 0 0 0 0 0 0 0 0 0 0 0 0 0 0 0 0 0 0 0 0 0 0 0 0 0 0 0 0 0 2726.99 3080.87 3092.85 3237.77 3550.1 3493.7 3503.18 3526.67 3579.71 3530.68 3410.6 3433.5 3362.35 3203.7 3194.74 3124.77 3165.56 3138.5 3143.44 3249.5 3140.03 3123.49 3082.17 3221.6 3125.81 0 2522.45 2361.05 0 0 0 0 0 0 0 0 0 0 0 0 0 0 0 0 0 0 0 0 0 0 0 0 0 0 0 0 0 0 0 0 0 0 0 0 0 0 0 0 0 0 0 0 0 0 0 0 0 0 0 0 0 0 0 2853.57 2602.71 2816.63 2650.53 2755.52 2842.06 2778.84 2815.54 3656.08 3724.58 3762.42 3680.06 3764.19 3262.38 3261.94 3392.12 3387.88 3389.25 3358.45 3291.51 3334.55 3200.95 3266.77 3219.19 2912.36 2986.6 2980.6 2631.98 2099.31 1669.43 1666.53 1849.8 2234.67 2253.85 2476.36 2496.78 2830.98 2888.99 3225.01 3126.34 3217.84 3233.15 3167.71 3094.51 3117.74 2942.81 2906.11 2774.66 2837.06 2504.57 2393.66 2449.89 2667.55 2470.6 0 0 0 0 0 0 0 0 0 0 0 0 0 0 0 0 0 0 0 0 0 0 0 0 0 0 0 0 0 0 0 0 0 0 0 0 0 0 0 0 0 0 0 0 0 0 0 3225.82 3080.7 3137.97 3266.51 3894.83 3179.84 3748.72 3741.53 3743.61 3147.92 5144.78 3136.57 2984.84 2898.32 3211 3080.76 2297.39 2042.77 1805.05 1393.23 941.166 875.938 0 0 0 0 0 0 0 0 0 0 0 0 0 0 0 0 0 0 0 0 0 0 0 0 0 0 0 0 0 0 0 0 0 0 0 0 0 0 0 0 0 0 0 0 0 0 0 0 0 0 0 0 0 0 0 0 0 0 0 0 0 0 0 0 0 0 0 0 0 0 0 0 0 0 0 0 0 0 0 0 0 0 0 0 0 0 0 0 0 0 0 0 0 0 0 0 0 0 0 0 0 0 0 0 0 0 0 0 0 0 0 0 0 0 0 0 0 0 0 0 0 0 0 0 0 0 0 0 0 0 0 0 0 0 0 0 0 0 0 0 0 0 0 0 0 0 0 0 0 0 0 0 0
0 0 0 0 0 0 0 0 0 0 0 0 0 0 0 0 0 0 0 0 0 0 0 0 840.42 1577.41 2639.64 2894.52 3056.9 3354.55 3305.32 3104.07 3232.47 3259.6 3040.17 2970.31 3042.88 2929.55 2854.59 2816.82 2713.72 2707.06 2585.86 2743.54 2712.36 2630.17 2743.18 2469.58 2469.95 3047.57 2827.69 2600.77 3000.7 2964.54 2977.38 3036.05 3132.06 3073.2 3069.26 3159.48 3403.2 3168.07 3272.82 3099.6 3113.92 3207.26 3352.81 3160.91 3018.41 2834.95 2927.2 2593.7 2943.06 0 0 0 0 0 0 0 0 0 0 0 0 0 0 0 0 0 0 0 0 0 0 0 0 2104.21 2489.26 2644.01 3260.74 3356.63 3286.03 3137.33 3050.23 3128.14 3017.48 2936.73 2993.21 2777.1 2697.05 2654.13 2613.13 2843.94 2892.58 0 0 0 0 0 0 0 0 0 0 0 0 0 0 0 0 0 0 0 0 0 0 0 0 0 0 0 0 0 0 0 0 0 0 0 0 0 0 0 0 2826.02 2951.97 3616.52 3553.11 3523.41 3580.48 3670 3577.65 3484.77 3492.39 3456.13 3221.05 3183.4 3118.55 3142.2 3086.2 3104.59 3156.93 3126.45 3050.29 3030.84 3199.67 3164.07 2675.85 2454.02 0 0 0 0 0 0 0 0 0 0 0 0 0 0 0 0 0 0 0 0 0 0 0 0 0 0 0 0 0 0 0 0 0 0 0 0 0 0 0 0 0 0 0 0 0 0 0 0 0 0 0 0 0 0 0 0 2766.38 2620.76 2873.51 2706.76 2772.14 2813.23 2790.82 2842.11 2914.94 3761.07 3770.87 3681.43 3256.18 3205.42 3220.74 3289.31 3259.6 3273.91 3246.23 3211.31 3309.36 3231.47 3257.13 3193.95 3104.24 3294.41 2990.16 2700.31 2146.5 1745.97 1607.87 1753.91 2193.9 2296.29 2324.03 2573.41 2882.39 2880.71 3230.97 3197.78 3294.61 3297.85 3222.53 3215.99 3219.69 3031.06 3039.29 2913.52 2953.53 2597.35 2467.33 2450.07 0 0 0 0 0 0 0 0 0 0 0 0 0 0 0 0 0 0 0 0 0 0 0 0 0 0 0 0 0 0 0 0 0 0 0 0 0 0 0 0 0 0 0 0 0 0 0 3056.85 3240.33 3460.69 3360.33 3336.8 4003.28 4153.62 3993.56 4057.2 4034.37 3946.59 3837.19 3347.79 3225.94 2979.28 2906.56 3150.76 3120.81 2417.59 2232.32 1983.77 1975.22 0 1178.67 0 0 0 0 0 0 0 0 0 0 0 0 0 0 0 0 0 0 0 0 0 0 0 0 0 0 0 0 0 0 0 0 0 0 0 0 0 0 0 0 0 0 0 0 0 0 0 0 0 0 0 0 0 0 0 0 0 0 0 0 0 0 0 0 0 0 0 0 0 0 0 0 0 0 0 0 0 0 0 0 0 0 0 0 0 0 0 0 0 0 0 0 0 0 0 0 0 0 0 0 0 0 0 0 0 0 0 0 0 0 0 0 0 0 0 0 0 0 0 0 0 0 0 0 0 0 0 0 0 0 0 0 0 0 0 0 0 0 0 0 0 0 0 0 0 0 0 0 0 0 0 0 0
0 0 0 0 0 0 0 0 0 0 0 0 0 0 0 0 0 0 0 0 0 0 0 0 500.36 831.903 1313.41 2015.43 2569.86 3043.76 2957.69 2943.63 3080.64 3200.83 3023.25 3005.38 3003.55 3013.15 2847.51 2812.57 2707.15 2766.52 2643.72 2742.24 2704.71 2646.97 2468.64 2392.5 2391.1 2877.69 2529.15 2364.44 2691.95 2744.17 2854.49 3003.17 3087.62 3087.22 3113.4 3294.15 3491.44 3330.31 3382.07 3188.79 3254.29 3289.18 3308.84 3194.68 3110.46 3023.41 3104.47 2880.51 3264.67 3142.5 0 0 0 0 0 0 0 0 0 0 0 0 0 0 0 0 0 0 0 0 0 0 0 0 0 0 0 0 0 2546.38 2606.15 2536.07 2584.35 2449.32 2556.55 2528 2389.6 2371.6 2121.1 1869.03 1949.47 0 0 0 0 0 0 0 0 0 0 0 0 0 0 0 0 0 0 0 0 0 0 0 0 0 0 0 0 0 0 0 0 0 0 0 0 0 0 0 0 2413.18 2539.52 3234.65 3280.05 3232.09 3281.78 3418.18 3392.05 3336.34 3430.34 3446.4 3252.08 3202.97 3102.58 3167.12 3069.71 3076.24 3133.81 3120.81 3009.31 2945.6 3047.02 3074.83 0 2333.57 0 0 0 0 0 0 0 0 0 0 0 0 0 0 0 0 0 0 0 0 0 0 0 0 0 0 0 0 0 0 0 0 0 0 0 0 0 0 0 0 0 0 0 0 0 0 0 0 0 0 0 0 0 0 0 0 3125.52 2913.63 3103.55 2879.37 2876.02 2880.31 2828.79 2877.94 2926.13 2991.66 3718.14 3671.6 3218.58 3183.04 3216.73 3274.93 3257.19 3298.75 3309.55 3316.03 3373.57 3303.36 3394.66 3314.72 3344.99 3504.13 2988.73 2688.67 2342.92 2005.03 0 1749.39 2237.14 2221.94 2268.97 2712.97 3026.14 2952.54 3231.91 3211.43 3223.52 3295.19 3217.03 3149.16 3065.56 2870.46 2879.37 2831.18 2891.43 2594.74 0 0 0 2221.21 0 0 0 0 0 0 0 0 0 0 0 0 0 0 0 0 0 0 0 0 0 0 0 0 0 0 0 0 0 0 0 0 0 0 0 0 0 0 0 0 0 0 0 0 2745.96 3162.94 3298.88 3457.55 3322.73 3267.85 3932.71 4165.89 3948.17 4007.29 4049.85 4015.35 3337.93 3404.72 3435.04 3307.53 3202.42 3568.67 3612.63 3088.36 2801.02 2557.64 2806.41 1943.24 1355.69 0 0 0 0 0 0 0 0 0 0 0 0 0 0 0 0 0 0 0 0 0 0 0 0 0 0 0 0 0 0 0 0 0 0 0 0 0 0 0 0 0 0 0 0 0 0 0 0 0 0 0 0 0 0 0 0 0 0 0 0 0 0 0 0 0 0 0 0 0 0 0 0 0 0 0 0 0 0 0 0 0 0 0 0 0 0 0 0 0 0 0 0 0 0 0 0 0 0 0 0 0 0 0 0 0 0 0 0 0 0 0 0 0 0 0 0 0 0 0 0 0 0 0 0 0 0 0 0 0 0 0 0 0 0 0 0 0 0 0 0 0 0 0 0 0 0 0 0 0 0 0 0 0
0 0 0 0 0 0 0 0 0 0 0 0 0 0 0 0 0 0 0 0 0 0 0 0 0 642.119 0 0 2205.27 3091.94 2984.16 2856.97 3062.37 3167.89 2983.15 2963.44 3014.29 3060.19 2684.24 2644.89 2593.26 2581.56 2522.53 2651.74 2616.8 2579.54 2223.94 2174.54 2103.23 2629.8 2540.52 2296.39 2339.16 2524.39 2661.12 3007.8 3090.18 3081.44 3131.94 3324.05 3498.8 3443.64 3478.48 3336.61 3325.76 3353.08 4261.66 3326.42 3189.03 3132.12 3139.79 2898.98 3031.99 2870.26 0 0 0 0 0 0 0 0 0 0 0 0 0 0 0 0 0 0 0 0 0 0 0 0 0 0 0 0 0 0 0 1969.42 2036.13 2020.68 2233.45 2233.06 0 0 0 0 0 0 0 0 0 0 0 0 0 0 0 0 0 0 0 0 0 0 0 0 0 0 0 0 0 0 0 0 0 0 0 0 0 0 0 0 0 0 0 0 2221.62 2268.11 2452.22 3184.79 3361.47 3325.1 3272.18 3418.46 3438.42 3423.55 3485.78 3476.32 3217.4 3091.32 2956.96 3074.32 2943.43 2901.63 2873.8 2918.59 2791 2889.79 3020.91 3135.51 0 0 0 0 0 0 0 0 0 0 0 0 0 0 0 0 0 0 0 0 0 0 0 0 0 0 0 0 0 0 0 0 0 0 0 0 0 0 0 0 0 0 0 0 0 0 0 0 0 0 0 0 0 0 0 0 0 0 3323.52 3088.36 3197.48 3013.26 2995.02 2966.53 2924.75 2905.75 3800 3001.34 3788.67 3765.12 3752.4 3215.62 3239.02 3250.44 3253.28 3278.96 3313.48 3329.32 3322.6 3208.85 3199.79 3086.08 3195.71 3351.8 2740.94 2467.19 2027.78 1861.13 1365.07 0 1243.97 1405.22 1587.72 2083.95 0 2140.86 0 2473.48 2818.43 2972.42 2967.27 3016.94 2954.88 2872.47 2925.46 2885.96 0 0 0 0 0 0 0 0 0 0 0 0 0 0 0 0 0 0 0 0 0 0 0 0 0 0 0 0 0 0 0 0 0 0 0 0 0 0 0 0 0 0 0 0 0 0 0 0 0 3074.38 3004.73 3326.81 3492.75 3562.69 4021.8 4051.71 4219.22 4275.23 4054.16 4106.65 4109.67 4084.76 4029.04 3376.56 3423.9 3311.19 3222.72 3412.2 3465.55 3058.8 2839.7 2494.48 2779.17 2028.94 1429.24 1052.36 0 0 0 0 0 0 0 0 0 0 0 0 0 0 0 0 0 0 0 0 0 0 0 0 0 0 0 0 0 0 0 0 0 0 0 0 0 0 0 0 0 0 0 0 0 0 0 0 0 0 0 0 0 0 0 0 0 0 0 0 0 0 0 0 0 0 0 0 0 0 0 0 0 0 0 0 0 0 0 0 0 0 0 0 0 0 0 0 0 0 0 0 0 0 0 0 0 0 0 0 0 0 0 0 0 0 0 0 0 0 0 0 0 0 0 0 0 0 0 0 0 0 0 0 0 0 0 0 0 0 0 0 0 0 0 0 0 0 0 0 0 0 0 0 0 0 0 0 0 0 0 0
0 0 0 0 0 0 0 0 0 0 0 0 0 0 0 0 0 0 0 0 0 0 0 0 0 442.111 697.494 840.804 1104.44 2197.52 2471.44 2479.58 3046.41 3110.34 2895.92 2986.44 3025.86 3118.15 2786.64 2720.8 2781.61 2576.17 2716.35 2926.53 2697.27 2750.19 2465.3 2382.88 2323.45 2705.84 2739.6 2450.22 2500.61 2744.48 2970.31 3231.84 3276.91 3309.75 3348.79 3427.04 3575.52 3544.92 3562.23 3406.66 3417.06 3446.19 4096.42 3352.14 3282.04 3195.59 3217.71 3022.16 3162.04 3006.56 2799.62 0 0 0 0 0 0 0 0 0 0 0 0 0 0 0 0 0 0 0 0 0 0 0 0 0 0 0 0 0 0 1918.9 2165.78 2124.37 2321.68 0 0 0 0 0 0 0 0 0 0 0 0 0 0 0 0 0 0 0 0 0 0 0 0 0 0 0 0 0 0 0 0 0 0 0 0 0 0 0 0 0 0 0 0 0 0 0 2587.82 3192.3 3296.81 3392.4 3382.75 3525.26 3548.9 3483.18 3508.01 3501.79 3269.76 3129.02 3038.03 3106.43 2937.09 2897.57 2807.58 2902.74 2779.95 2877.84 3091.54 2922.4 0 2095.04 0 0 0 0 0 0 0 0 0 0 0 0 0 0 0 0 0 0 0 0 0 0 0 0 0 0 0 0 0 0 0 0 0 0 0 0 0 0 0 0 0 0 0 0 0 0 0 0 0 0 0 0 0 0 0 0 0 3045.75 3116.18 2927.04 3035.66 3052.06 2927.71 2874.69 2945.85 4114.91 3041.28 4043.31 3983.13 3121.51 3119.77 3191.64 3671.76 3245.72 3288.22 3367.55 3406.66 3363.29 3397.62 3408.59 3628.96 3805.34 0 3042.88 2330.97 0 0 0 0 1692.99 1611.25 1795.75 0 0 0 1824.16 2137.15 2268.23 2308.58 2442.83 2397.25 2479.22 2530.6 0 0 0 0 0 0 0 0 0 0 0 0 0 0 0 0 0 0 0 0 0 0 0 0 0 0 0 0 0 0 0 0 0 0 0 0 0 0 0 0 0 0 0 0 0 0 0 0 0 3270.33 3369.17 3276.66 3467.2 3520.23 4208.95 4197.89 4181.47 4210.11 4205.15 4049.56 4030.4 3988.34 3967.4 4013.43 4037.96 4043.51 4028.75 3247.48 3346.05 3468.63 3165.8 3059.35 2512.18 2580.02 1916.86 1548.82 1167.36 878.107 0 0 0 0 0 0 0 0 0 0 0 0 0 0 0 0 0 0 0 0 0 0 0 0 0 0 0 0 0 0 0 0 0 0 0 0 0 0 0 0 0 0 0 0 0 0 0 0 0 0 0 0 0 0 0 0 0 0 0 0 0 0 0 0 0 0 0 0 0 0 0 0 0 0 0 0 0 0 0 0 0 0 0 0 0 0 0 0 0 0 0 0 0 0 0 0 0 0 0 0 0 0 0 0 0 0 0 0 0 0 0 0 0 0 0 0 0 0 0 0 0 0 0 0 0 0 0 0 0 0 0 0 0 0 0 0 0 0 0 0 0 0 0 0 0 0 0 0 0 0 0
0 0 0 0 0 0 0 0 0 0 0 0 0 0 0 0 0 0 0 0 0 0 0 0 0 295.893 600.422 843.819 789.311 1339.19 1729.88 2065.33 2616.55 2590.13 2383.59 2493.96 2456.64 2730.41 2540.06 2430.94 2278.09 2090.7 2224.15 2431.47 2221.12 2507.3 2184.68 2223.3 2314.64 2825.55 2763.47 2485.42 2580.14 2716.44 2997.7 3070.05 3109.3 3133.93 3166.52 3258.84 3436.52 3376.56 3380.91 3239.96 3293.57 3335.54 3352.34 3331.17 3255.17 3089.21 3113.52 3001.08 3005.86 2840.14 2607.81 2292.06 0 0 0 0 0 0 0 0 0 0 0 0 0 0 0 0 0 0 0 0 0 0 0 0 0 0 0 0 0 0 0 0 0 0 0 0 0 0 0 0 0 0 0 0 0 0 0 0 0 0 0 0 0 0 0 0 0 0 0 0 0 0 0 0 0 0 0 0 0 0 0 0 0 0 0 0 0 0 0 0 2061.57 2984.37 3149.64 3268.8 3292.15 3484.55 3559.06 3621.05 3750.56 3779.28 3438.77 3312.63 3275.95 3398.17 3203.7 3101.66 2965.01 3017.65 2943.74 3105.22 3186.55 3016.78 0 0 0 0 0 0 0 0 0 0 0 0 0 0 0 0 0 0 0 0 0 0 0 0 0 0 0 0 0 0 0 0 0 0 0 0 0 0 0 0 0 0 0 0 0 0 0 0 0 0 0 0 0 0 0 0 0 0 0 3055.12 3090.46 2999.57 3017.92 3054.06 2802.75 2769.4 2874.05 2899.83 4176.57 3015.42 3081.44 3069.2 3056.01 3166.1 3195.89 3210.63 3266.83 3359.18 3340.99 3292.02 3340.13 3485.86 3819.72 4009.59 3404.37 3065.17 2584.83 2590.77 1887.89 0 0 0 1516.73 0 0 0 0 0 0 2174.82 2311.06 0 0 0 0 0 0 0 0 0 0 0 0 0 0 0 0 0 0 0 0 0 0 0 0 0 0 0 0 0 0 0 0 0 0 0 0 0 0 0 0 0 0 0 0 0 0 0 0 0 0 3591.05 3394.46 3040.06 3020.42 3249.62 3306.03 3526.22 4085.15 4302.09 4355.81 4323.37 4318.92 4256.47 4070.58 4042.24 3871.19 3832.55 3838.77 3248.8 3265.56 3180.81 3142.85 3115.08 3065.45 2887.7 2835.58 2487.27 2540.48 2054.4 1703.38 1321.65 909.267 542.412 316.934 0 0 0 0 0 0 0 0 0 0 0 0 0 0 0 0 0 0 0 0 0 0 0 0 0 0 0 0 0 0 0 0 0 0 0 0 0 0 0 0 0 0 0 0 0 0 0 0 0 0 0 0 0 0 0 0 0 0 0 0 0 0 0 0 0 0 0 0 0 0 0 0 0 0 0 0 0 0 0 0 0 0 0 0 0 0 0 0 0 0 0 0 0 0 0 0 0 0 0 0 0 0 0 0 0 0 0 0 0 0 0 0 0 0 0 0 0 0 0 0 0 0 0 0 0 0 0 0 0 0 0 0 0 0 0 0 0 0 0 0 0 0 2995.93 0 0 0 0 0 0
0 0 0 0 0 0 0 0 0 0 0 0 0 0 0 0 0 0 0 0 0 0 0 0 0 0 0 0 784.256 896.911 1051.38 1587.92 2331.59 2529.76 2459.59 2512.52 2380.51 2627.16 2372.94 2232.61 2043.17 1674.58 1688.06 1698.58 1570.81 1889.04 1841.9 2191.21 2432.49 2544.49 2724.03 2407.78 2548.66 2735.09 3021.4 3122.44 3098.85 3051.84 3197.78 3235.15 3401.96 3371.81 3341.26 3250.63 3287.76 3357.24 3428.3 3343.25 3311.12 3180.81 3161.69 3074.32 2969.58 2761.65 2552.77 2235.02 2172.48 2138.56 0 0 0 0 0 0 0 0 0 0 0 0 0 0 0 0 0 0 0 0 0 0 0 0 0 0 0 0 0 0 0 0 0 0 0 0 0 0 0 0 0 0 0 0 0 0 0 0 0 0 0 0 0 0 0 0 0 0 0 0 0 0 0 0 0 0 0 0 0 0 0 0 0 0 0 0 0 0 0 0 0 2858.96 2892.88 2972.68 3050.95 3081.38 3271.16 3374.79 3075.96 3138.56 3049.07 3111.09 3196.01 3109.3 2952.96 3111.49 3082.68 0 0 0 0 0 0 0 0 0 0 0 0 0 0 0 0 0 0 0 0 0 0 0 0 0 0 0 0 0 0 0 0 0 0 0 0 0 0 0 0 0 0 0 0 0 0 0 0 0 0 0 0 0 0 0 0 0 0 0 0 0 0 0 3006.02 2948.13 2997.16 3019.44 2825.69 2834.09 2969.89 2959.83 3043.59 3067.41 3131.71 3122.67 3135.51 3216.6 3218.02 3180.26 3288.99 3317.01 3246.54 3193.95 3186.24 3328.27 3835.35 3974.92 3381.94 3007.32 2375.56 2787.06 0 0 0 0 1256.78 0 0 0 0 0 0 0 0 0 0 0 0 0 0 0 0 0 0 0 0 0 0 0 0 0 0 0 0 0 0 0 0 0 0 0 0 0 0 0 0 0 0 0 0 0 0 0 0 0 0 0 0 0 0 0 0 0 0 0 3444.99 3117.28 3321.15 3387.47 3302.13 3558.38 4334.43 4529.49 4487.69 4431.63 4325.04 4229 4072.36 3992.51 3842.03 3700.76 3640.3 3220.55 3257.06 3218.45 3158.17 3136.33 3120.76 2939.97 2962.81 2662.56 2614.39 2064.92 1693.34 1411.74 1109.33 673.091 336.14 0 0 0 0 0 0 0 0 0 0 0 0 0 0 0 0 0 0 0 0 0 0 0 0 0 0 0 0 0 0 0 0 0 0 0 0 0 0 0 0 0 0 0 0 0 0 0 0 0 0 0 0 0 0 0 0 0 0 0 0 0 0 0 0 0 0 0 0 0 0 0 0 0 0 0 0 0 0 0 0 0 0 0 0 0 0 0 0 0 0 0 0 0 0 0 0 0 0 0 0 0 0 0 0 0 0 0 0 0 0 0 0 0 0 0 0 0 0 0 0 0 0 0 0 0 0 0 0 0 0 0 0 0 0 0 0 0 1948.9 0 0 0 0 0 0 0 0 0 0 0
0 0 0 0 0 0 0 0 0 0 0 0 0 0 0 0 0 0 0 0 0 0 0 0 0 802.771 1150.66 0 1305.21 1120.46 1140.22 1629.11 2199.74 2412.62 2450.54 2265.93 2039.44 2291.37 2415.16 2138.94 1778.77 1583.21 1568.93 1701.77 1613.57 2160.54 1998.22 2206.57 2705.93 2755.61 2780 2541.83 2713.54 2827.41 3040.95 3085.91 3013.31 2889.64 3057.63 3097.19 3238.27 3226.13 3189.94 3126.92 3188.66 3259.85 3357.71 3286.28 3304.73 3201.87 3197.72 3190.61 3105.56 2963.75 2821.18 2573.13 2545.69 2438.11 0 0 0 0 0 0 0 0 0 0 0 0 0 0 0 0 0 0 0 0 0 0 0 0 0 0 0 0 0 0 0 0 0 0 0 0 0 0 0 0 0 0 0 0 0 0 0 0 0 0 0 0 0 0 0 0 0 0 0 0 0 0 0 0 0 0 0 0 0 0 0 0 0 0 0 0 0 0 0 0 0 0 0 0 3220.55 3255.8 3291.44 3338.46 3042.88 2955.51 2537.56 2480.06 2471.26 2437.15 2361.22 2849.59 2882.84 3040.73 0 0 0 0 0 0 0 0 0 0 0 0 0 0 0 0 0 0 0 0 0 0 0 0 0 0 0 0 0 0 0 0 0 0 0 0 0 0 0 0 0 0 0 0 0 0 0 0 0 0 0 0 0 0 0 0 0 0 0 0 0 0 0 2981.24 2993.85 3041.44 2834.81 2857.45 2988.83 2964.75 3037.42 3086.2 3182.74 3181.47 3184.31 3220.31 3951.24 3790.55 3296.87 3290.09 3128.79 3021.94 2958.48 3107.92 3798.88 3948.54 3606.03 0 0 0 0 0 0 0 0 0 0 0 0 0 0 0 0 0 0 0 0 0 0 0 0 0 0 0 0 0 0 0 0 0 0 0 0 0 0 0 0 0 0 0 0 0 0 0 0 0 0 0 0 0 0 0 0 0 0 0 0 0 0 0 0 3693.18 0 0 3453.07 3348.73 3231.35 3373.23 3264.8 3444.14 3566.4 4349.15 4385.75 4325.71 4245.48 4125.13 3840.36 3874.05 3644.49 3074.66 3115.54 3145.33 3139.21 3105.97 3180.02 3161.63 3180.02 3178.88 3261.62 2887.8 2981.29 2535.57 2028.94 1644.14 1590.37 1098.52 360.812 0 0 0 0 0 0 0 0 0 0 0 0 0 0 0 0 0 0 0 0 0 0 0 0 0 0 0 0 0 0 0 0 0 0 0 0 0 0 0 0 0 0 0 0 0 0 0 0 0 0 0 0 0 0 0 0 0 0 0 0 0 0 0 0 0 0 0 0 0 0 0 0 0 0 0 0 0 0 0 0 0 0 0 0 0 0 0 0 0 0 0 0 0 0 0 0 0 0 0 0 0 0 0 0 0 0 0 0 0 0 0 0 0 0 0 0 0 0 0 0 0 0 0 0 0 0 0 0 1965.27 1886.68 1911.08 2023.36 0 2089.19 2084.16 1952.67 1978.9 2200.61 2357.2 2387.83 2349.45 0 0 0 0 0 0 0 0
0 0 0 0 0 0 0 0 0 0 0 0 0 0 0 0 0 0 0 0 0 944.291 704.248 755.735 908.455 915.189 1193.39 1353.77 1552 1398.48 1464.03 1857.75 2091.82 2231.66 2324 2225.09 2129.82 2221.35 2475.56 1940.4 1551.03 1435.72 1456.18 1409.59 1288.87 2001.82 1951.53 2226.84 2838.26 2829.5 2823.79 2523.25 2724.56 2859.45 3106.43 3184.85 3125.58 3030.4 3174.67 3148.69 3286.48 3283 3199.49 3135.1 3173.11 3223.15 3239.46 3177.19 3221.23 3102.75 3029.47 3087.79 2931.14 2737.94 2629.18 2530.25 2313.52 2204.71 1814.24 1342.27 0 0 0 0 0 0 0 0 0 0 0 0 0 0 0 0 0 0 0 0 0 0 0 0 0 0 0 0 0 0 0 0 0 0 0 0 0 0 0 0 0 0 0 0 0 0 0 0 0 0 0 0 0 0 0 0 0 0 0 0 0 0 0 0 0 0 0 0 0 0 0 0 0 0 0 0 0 0 0 0 0 0 0 3396.11 3321.48 3081.15 0 0 1982.97 2066.85 1987.38 1962.72 1958.8 2266.39 0 0 0 0 0 0 0 0 0 0 0 0 0 0 0 0 0 0 0 0 0 0 0 0 0 0 0 0 0 0 0 0 0 0 0 0 0 0 0 0 0 0 0 0 0 0 0 0 0 0 0 0 0 0 0 0 0 0 0 0 0 0 0 0 0 0 2871.98 3071.17 2929.24 2911.15 3104.36 3106.37 3065.73 3111.38 3137.86 3174.13 3160.38 3151.71 3142.79 3069.32 3152.36 3254.98 3088.64 2983.15 2645.55 2660.78 0 0 2836.58 3047.3 0 0 0 0 0 0 0 0 0 0 0 0 0 0 0 0 0 0 0 0 0 0 0 0 0 0 0 0 0 0 0 0 0 0 0 0 0 0 0 0 0 0 0 0 0 0 0 0 0 0 0 0 0 0 0 0 0 0 0 0 0 0 2759.65 3079.01 3398.79 3274.1 3297 3211.68 3072.3 3384.25 3302.45 3431.11 3575.52 3577.04 3553.18 3538.79 3500.99 4105.55 3383.23 3833.6 3267.85 3129.72 3184.19 3152.95 3139.73 3120.64 3206.34 3192.49 3281.59 3262.77 3397.07 2856.48 3056.85 2701.96 2268.6 1788.65 1825.75 0 0 0 0 0 0 0 0 0 0 0 0 0 0 0 0 0 0 0 0 0 0 0 0 0 0 0 0 0 0 0 0 0 0 0 0 0 0 0 0 0 0 0 0 0 0 0 0 0 0 0 0 0 0 0 0 0 0 0 0 0 0 0 0 0 0 0 0 0 0 0 0 0 0 0 0 0 0 0 0 0 0 0 0 0 0 0 0 0 0 0 0 0 0 0 0 0 0 0 0 0 0 0 0 0 0 0 0 0 0 0 0 0 0 0 0 0 0 0 0 0 0 0 0 0 0 0 0 0 0 2025.97 2019.51 1981.03 2023.21 2020.34 2161.12 2169.96 2017.42 2045.34 2244.8 2350.24 2457.29 2451.86 2431.22 2393.08 2200.93 0 0 0 0 0
0 0 0 0 0 0 0 0 0 0 0 0 0 0 0 0 0 0 0 0 0 1667.57 1575.14 1494.15 1712.36 1556.87 1685.53 1879.12 1866.06 1695.8 1747.5 1919.21 2058.56 1991.51 2152.09 1994.64 1895.25 1952.28 2208.37 1674.01 1157.62 1085 1192.3 1064.23 1063.47 1547.79 1665.53 1964.67 2408.22 2402.33 2481.42 2341.45 2611.99 2795.79 3122.26 3184.31 3138.74 3113.69 3275.7 3315.05 3389.59 3395.07 3316.88 3232.03 3275.25 3344.25 3322.93 3259.03 3233.28 3166.58 3083.99 3175.81 3038.96 2821.18 2670.91 2580.33 2465.56 2301.74 1890.02 1277.2 0 0 0 0 0 0 0 0 0 0 0 0 0 0 0 0 0 0 0 0 0 0 0 0 0 0 0 0 0 0 0 0 0 0 0 0 0 0 0 0 0 0 0 0 0 0 0 0 0 0 0 0 0 0 0 0 0 0 0 0 0 0 0 0 0 0 0 0 0 0 0 0 0 0 0 0 0 0 0 0 0 0 0 0 0 0 0 0 1857.73 1900.83 1916.8 1892.39 1730.91 1952.33 0 0 0 0 0 0 0 0 0 0 0 0 0 0 0 0 0 0 0 0 0 0 0 0 0 0 0 0 0 0 0 0 0 0 0 0 0 0 0 0 0 0 0 0 0 0 0 0 0 0 0 0 0 0 0 0 0 0 0 0 0 0 0 0 0 0 3194.86 3372.89 3052.34 3088.87 3259.66 3151.89 3078.44 3088.19 3102.58 3154.26 3108.67 3070.33 3062.2 3020.2 3192.61 3289.96 3068.14 2974.42 2529.99 2664.46 3501.79 3523.78 2834 2794.91 2647.73 0 0 0 0 0 0 0 0 0 0 0 0 0 0 0 0 0 0 0 0 0 0 0 0 0 0 0 0 0 0 0 0 0 0 0 0 0 0 0 0 0 0 0 0 0 0 0 0 0 0 0 0 0 0 0 0 0 0 0 0 0 3073.76 3269.82 3342.19 3357.24 3603.78 3469.78 3335.54 3551 3485.64 3569.36 3661.43 3636.19 3640.69 3550.32 4126.04 4108.06 3893.11 3880.86 3311.25 3186.24 3267.91 3219.07 3218.7 3217.65 3356.09 3348.19 3426.41 3492.31 3654.65 3098.79 3220.24 3005.27 0 2022.19 1989.55 1488.59 597.595 0 0 0 0 0 0 0 0 0 0 0 0 0 0 0 0 0 0 0 0 0 0 0 0 0 0 0 0 0 0 0 0 0 0 0 0 0 0 0 0 0 0 0 0 0 0 0 0 0 0 0 0 0 0 0 0 0 0 0 0 0 0 0 0 0 0 0 0 0 0 0 0 0 0 0 0 0 0 0 0 0 0 0 0 0 0 0 0 0 0 0 0 0 0 0 0 0 0 0 0 0 0 0 0 0 0 0 0 0 0 0 0 0 0 0 0 0 0 0 0 0 0 0 0 0 0 0 2452.11 2311.13 2301.81 2288.9 2278.15 2331.94 2431.61 2413 2389.74 2496.11 2668.15 2652.46 2736.42 2647.98 2448 2395.43 2305.41 2334.54 0 0 0 0
0 0 0 0 0 0 0 0 0 0 0 0 0 0 0 0 0 0 0 0 0 1937.94 2119.06 1934.54 2409.99 2216.63 2148.7 2460.78 2191.01 2049.28 1999.8 2062.48 2104.31 1904.91 2030.21 1916.88 1841.76 1874.54 1994.95 1624.79 1207.71 1083.31 0 0 0 1180.57 1501.7 1868.49 2399.31 2344.95 2577.4 2594.46 2788.27 2813.84 3072.07 3078.55 3026.03 3068.31 3220.74 3256.81 3295.25 3313.15 3260.29 3188.06 3276.98 3352.07 3321.08 3264.1 3278.9 3244.28 3186.79 3365.59 3253.97 3035.44 2902.54 2902.34 2862.23 2595.46 2345.67 1265.5 0 0 0 0 0 0 0 0 0 0 0 0 0 0 0 0 0 0 0 0 0 0 0 0 0 0 0 0 0 0 0 0 0 0 0 0 0 0 0 0 0 0 0 0 0 0 0 0 0 0 0 0 0 0 0 0 0 0 0 0 0 0 0 0 0 0 0 0 0 0 0 0 0 0 0 0 0 0 0 0 0 0 0 0 0 0 0 0 0 0 0 0 0 0 0 0 0 0 0 0 0 0 0 0 0 0 0 0 0 0 0 0 0 0 0 0 0 0 0 0 0 0 0 0 0 0 0 0 0 0 0 0 0 0 0 0 0 0 0 0 0 0 0 0 0 0 0 0 0 0 0 0 0 0 0 0 0 0 0 0 3453.28 3695.05 3254.92 3194.98 3257.19 3096.28 3071.11 3196.75 3207.75 3240.83 3174.43 3199.06 3204.56 3193.03 3398.51 3506.99 3201.2 3092.68 2598.44 0 3137.5 0 0 2960.62 0 0 0 0 0 0 0 0 0 0 0 0 0 0 0 0 0 0 0 0 0 0 0 0 0 0 0 0 0 0 0 0 0 0 0 0 0 0 0 0 0 0 0 0 0 0 0 0 0 0 0 0 0 0 0 0 0 0 2616.96 2859.89 2714.55 3082.63 3182.68 3251.83 3284.8 3328.99 3474.67 3342.12 3249.94 3516.98 3448.81 3547.92 3605.41 3539.76 3564.2 3499.16 3452.86 3381.94 3264.03 3276.91 3212.23 3114.9 3205.17 3168.91 3140.15 3155.15 3305.12 3300.57 3341.39 3418.04 3547.85 3055.29 2950.36 2589.45 2234.82 1769.77 1739.31 1047.1 201.91 0 0 0 0 0 0 0 0 0 0 0 0 0 0 0 0 0 0 0 0 0 0 0 0 0 0 0 0 0 0 0 0 0 0 0 0 0 0 0 0 0 0 0 0 0 0 0 0 0 0 0 0 0 0 0 0 0 0 0 0 0 0 0 0 0 0 0 0 0 0 0 0 0 0 0 0 0 0 0 0 0 0 0 0 0 0 0 0 0 0 0 0 0 0 0 0 0 0 0 0 0 0 0 0 0 0 0 0 0 0 0 0 0 0 0 0 0 0 0 0 0 0 0 0 0 2026.22 2368.28 2434.04 2443.4 2455.74 2465.63 2440.98 2553.24 2675.85 2661.92 2695.54 2785.12 2909.78 2899.78 2859.84 2818.05 2545.69 2634.5 2621.5 2589.53 0 0 0 0
0 0 0 0 0 0 0 0 0 0 0 0 0 0 0 0 0 0 0 0 0 0 2681.41 2495.89 2713.76 2454.16 2460.13 2764.6 2418.67 2323.23 2323.06 2343.21 2408.05 2243.45 2409.05 2307.47 2164.22 2322.58 2443.51 1925.79 1178.9 1008.27 814.185 0 0 1140.35 1667.7 0 0 0 2931.95 2915.25 3195.65 3107.46 3357.37 3234.46 3124.88 3145.62 3283.13 3234.65 3270.78 3266.7 3229.36 3152.77 3219.63 3306.16 3308.77 3238.14 3294.28 3253.46 3169.09 3317.54 3197.6 3099.54 2981.72 2930.01 2878.44 2602.02 2356.01 1435.01 0 0 0 0 0 0 0 0 0 0 0 0 0 0 0 0 0 0 0 0 0 0 0 0 0 0 0 0 0 0 0 0 0 0 0 0 0 0 0 0 0 0 0 0 0 0 0 0 0 0 0 0 0 0 0 0 0 0 0 0 0 0 0 0 0 0 0 0 0 0 0 0 0 0 0 0 0 0 0 0 0 0 0 0 0 0 0 0 0 0 0 0 0 0 0 0 0 0 0 0 0 0 0 0 0 0 0 0 0 0 0 0 0 0 0 0 0 0 0 0 0 0 0 0 0 0 0 0 0 0 0 0 0 0 0 0 0 0 0 0 0 0 0 0 0 0 0 0 0 0 0 0 0 0 0 0 0 0 0 0 0 0 3055.84 2909.48 3137.15 3122.44 3159.6 3207.13 3221.98 3234.83 3144.44 3239.64 3224.02 3170.83 3244.84 3210.14 2980.55 2807.49 2218.03 0 0 0 0 0 0 0 0 0 0 0 0 0 0 0 0 0 0 0 0 0 0 0 0 0 0 0 0 0 0 0 0 0 0 0 0 0 0 0 0 0 0 0 0 0 0 0 0 0 0 0 0 0 0 0 0 0 0 0 0 0 2132.83 2379.23 2959.62 3005.65 2901.23 3193.16 3400.92 3508.6 3355.83 3261.81 3344.25 3297.78 3292.02 3583.54 3575.75 3661.35 3716.17 3642.67 4651.04 4465.72 4313.37 4199.89 4000.6 3984.45 3308.25 3204.01 3258.33 3153.84 3126.05 3143.15 3279.47 3236.39 3270.21 3227.12 3282.49 2882.39 2859.74 2730.9 2392.94 1708.51 1717.71 883.382 180.152 259.652 415.506 348.058 0 0 0 0 0 0 0 0 0 0 0 0 0 0 0 0 0 0 0 0 0 0 0 0 0 0 0 0 0 0 0 0 0 0 0 0 0 0 0 0 0 0 0 0 0 0 0 0 0 0 0 0 0 0 0 0 0 0 0 0 0 0 0 0 0 0 0 0 0 0 0 0 0 0 0 0 0 0 0 0 0 0 0 0 0 0 0 0 0 0 0 0 0 0 0 0 0 0 0 0 0 0 0 0 0 0 0 0 0 0 0 0 0 0 0 0 0 0 0 0 0 0 2283.54 2544.91 2514.52 2622.56 2574 2544.87 2538.68 2682.01 2760.1 2811.63 2806.13 2920.17 2945.34 3012.12 3019.22 2967.84 2707.54 2705.4 2566.6 2551.3 0 0 0 0
0 0 0 0 0 0 0 0 0 0 0 0 0 0 0 0 0 0 0 0 1702.48 2174.65 2620.27 2586.82 2680.98 2595.18 2636.91 2917.63 2633.72 2599.44 2575.26 2626.3 2645.55 2576.33 2636.49 2603.19 2396.39 2586.38 2701.83 2404.05 1522.48 1173.69 748.48 496.456 358.086 886.79 1507.71 0 0 0 3127.91 3030.45 3365.72 3117.91 3395.49 3134.69 3041.22 3121.1 3227 3186.85 3228.86 3189.45 3200.77 3130.48 3239.89 3329.39 3252.77 3229.79 3296.55 3259.72 3202.11 3358.71 3210.63 3147.57 3008.34 3105.28 2989.1 0 2222.91 1075.12 0 0 0 0 0 0 0 0 0 0 0 0 0 0 0 0 0 0 0 0 0 0 0 0 0 0 0 0 0 0 0 0 0 0 0 0 0 0 0 0 0 0 0 0 0 0 0 0 0 0 0 0 0 0 0 0 0 0 0 0 0 0 0 0 0 0 0 0 0 0 0 0 0 0 0 0 0 0 0 0 0 0 0 0 0 0 0 0 0 0 0 0 0 0 0 0 0 0 0 0 0 0 0 0 0 0 0 0 0 0 0 0 0 0 0 0 0 0 0 0 0 0 0 0 0 0 0 0 0 0 0 0 0 0 0 0 0 0 0 0 0 0 0 0 0 0 0 0 0 0 0 0 0 0 0 0 0 0 0 0 0 0 0 0 2908.98 3014.72 3060.19 3080.08 3126.05 3155.92 3133.69 3323.52 3237.27 3166.16 3236.64 3220.8 2957.12 2853.18 0 0 0 0 0 0 0 0 0 0 0 0 0 0 0 0 0 0 0 0 0 0 0 0 0 0 0 0 0 0 0 0 0 0 0 0 0 0 0 0 0 0 0 0 0 0 0 0 0 0 0 0 0 0 0 0 0 0 0 0 0 2527.28 2791.05 2950.88 3251.57 3353.75 3284.87 3373.1 3533.65 3619.33 3397.14 3354.28 3538.12 3486.15 3432.3 3637.38 3637.06 3693.67 3684.58 3665.35 3763.43 3631.63 3525.7 4124.22 3976.05 3276.78 3220 3172.87 3201.75 3099.94 3088.87 3110.51 3292.28 3247.04 3250.31 3205.91 3187.57 2869.23 2849.45 2750.1 2686.43 1987.64 1834.25 768.367 102.55 60.6617 212.07 224.005 0 0 0 0 0 0 0 0 0 0 0 0 0 0 0 0 0 0 0 0 0 0 0 0 0 0 0 0 0 0 0 0 0 0 0 0 0 0 0 0 0 0 0 0 0 0 0 0 0 0 0 0 0 0 0 0 0 0 0 0 0 0 0 0 0 0 0 0 0 0 0 0 0 0 0 0 0 0 0 0 0 0 0 0 0 0 0 0 0 0 0 0 0 0 0 0 0 0 0 0 0 0 0 0 0 0 0 0 0 0 0 0 0 0 0 0 0 0 0 0 0 2247.15 2376.57 2687.89 2677.13 2772.46 2748.53 2687.98 2642.18 2699.7 2833.85 2897.77 2920.57 3033.74 3091.77 3146.68 3274.61 3336.07 3191.58 3220.37 3210.82 3232.22 3095.31 2828.98 0 0
0 0 0 0 0 0 0 0 0 0 0 0 0 0 0 0 0 0 0 1912.51 1968.8 2439.92 2743 2816.16 2808.85 2783.82 2947.41 3074.27 2819.09 2805.89 2756.88 2809.7 2827.02 2773.75 2825.03 2709.03 2678.07 2844.37 2958.27 2748.08 2022.87 1524.96 939.075 527.776 401 772.066 1290.89 1774.56 2446.61 2297.87 2794.4 2682.39 3058.02 2874.44 3089.1 2860.13 2838.98 2928.63 3070.27 3052.68 3093.14 3020.47 3063.82 3035.77 3134.63 3229.23 3151.17 3152.71 3215.18 3215.18 3163.95 3235.52 3079.46 3063.43 2940.95 3057.52 2855.65 0 0 0 0 0 0 0 0 0 0 0 0 0 0 0 0 0 0 0 0 0 0 0 0 0 0 0 0 0 0 0 0 0 0 0 0 0 0 0 0 0 0 0 0 0 0 0 0 0 0 0 0 0 0 0 0 0 0 0 0 0 0 0 0 0 0 0 0 0 0 0 0 0 0 0 0 0 0 0 0 0 0 0 0 0 0 0 0 0 0 0 0 0 0 0 0 0 0 0 0 0 0 0 0 0 0 0 0 0 0 0 0 0 0 0 0 0 0 0 0 0 0 0 0 0 0 0 0 0 0 0 0 0 0 0 0 0 0 0 0 0 0 0 0 0 0 0 0 0 0 0 0 0 0 0 0 0 0 0 0 0 0 0 0 0 0 0 2471.15 2723.32 2938.84 3015.31 3153.6 3269.06 3276.21 3388.01 3251.76 3212.29 3292.34 3239.96 2751.82 0 0 0 0 0 0 0 0 0 0 0 0 0 0 0 0 0 0 0 0 0 0 0 0 0 0 0 0 0 0 0 0 0 0 0 0 0 0 0 0 0 0 0 0 0 0 0 0 0 0 0 0 0 0 0 0 0 0 0 0 0 2387.7 2517.8 2790.26 2946.53 3067.18 3058.57 2925.26 3090.52 3159.13 3278.51 3064.66 3089.27 3271.86 3352.47 3421.31 3620.19 3579.94 3695.22 3738.36 3780.31 3843.52 3707.46 3597.75 4228.47 3349.93 3364.24 3351.13 3267.59 3260.93 3147.69 3128.44 3145.21 3318.92 3276.59 3250.57 3084.21 3116.18 2933.29 2994.75 2924.34 2831.27 2231.75 2162.46 1045.58 89.5524 86.0459 188.336 196.467 0 0 0 0 0 0 0 0 0 0 0 0 0 0 0 0 0 0 0 0 0 0 0 0 0 0 0 0 0 0 0 0 0 0 0 0 0 0 0 0 0 0 0 0 0 0 0 0 0 0 0 0 0 0 0 0 0 0 0 0 0 0 0 0 0 0 0 0 0 0 0 0 0 0 0 0 0 0 0 0 0 0 0 0 0 0 0 0 0 0 0 0 0 0 0 0 0 0 0 0 0 0 0 0 0 0 0 0 0 0 0 0 0 0 0 0 0 0 0 0 0 2330 2453.05 2660.07 2703.49 2846.3 2923.58 2827.64 2835.62 2956.55 3037.31 3012.82 3047.02 3176.29 3114.09 3107.35 3270.14 3235.9 3070.55 3026.08 3089.32 3136.74 2890.19 2846.84 0 0
0 0 0 0 0 0 0 0 0 0 0 0 0 0 0 0 0 0 1794.26 2217.45 2315.02 5533.88 3190.97 3228.61 3106.48 3231.78 3218.76 3206.95 3168.43 3102.35 3003.6 2987.45 3001.61 2948.81 2845.97 2797.94 2921.79 2837.16 2988.62 2733.79 2555.77 1772.59 1249.55 899.445 748.52 983.809 1664 2017.01 2292.15 0 2730.37 2701.4 3013.47 2875.82 3036.38 2922.05 2882.44 3033.52 3212.72 3169.27 3171.37 3129.72 3160.49 3141.5 3198.63 3304.6 3189.03 3163.83 3239.71 3255.86 3232.96 3321.68 3215.12 3204.5 3110.86 3349.13 0 0 0 0 0 0 0 0 0 0 0 0 0 0 0 0 0 0 0 0 0 0 0 0 0 0 0 0 0 0 0 0 0 0 0 0 0 0 0 0 0 0 0 0 0 0 0 0 0 0 0 0 0 0 0 0 0 0 0 0 0 0 0 0 0 0 0 0 0 0 0 0 0 0 0 0 0 0 0 0 0 0 0 0 0 0 0 0 0 0 0 0 0 0 0 0 0 0 0 0 0 0 0 0 0 0 0 0 0 0 0 0 0 0 0 0 0 0 0 0 0 0 0 0 0 0 0 0 0 0 0 0 0 0 0 0 0 0 0 0 0 0 0 0 0 0 0 0 0 0 0 0 0 0 0 0 0 0 0 0 0 0 0 0 0 0 0 0 0 0 3179.3 3235.52 3433.14 3382.55 3337.47 3313.87 3072.8 2895.97 2851.19 2758.7 0 0 0 0 0 0 0 0 0 0 0 0 0 0 0 0 0 0 0 0 0 0 0 0 0 0 0 0 0 0 0 0 0 0 0 0 0 0 0 0 0 0 0 0 0 0 0 0 0 0 0 0 0 0 0 0 0 0 0 0 0 2561.19 2500.2 2650.7 2841.05 2973.31 3080.53 3146.92 3053.51 3150.05 3338.13 3418.04 3155.09 3199.37 3330.25 3362.42 3406.86 3618.24 3511.02 3591.59 3675.71 3774.78 3779.54 3644.49 3544.25 3435.18 3336.61 4193.8 4037.96 3308.38 3323.12 3216.85 3246.98 3273.78 3466.27 3491.01 3563.45 3368.76 3455.2 3277.87 3412.55 3281.72 3280.37 2744.66 2839.99 1883.06 947.839 741.438 256.698 0 0 0 0 0 0 0 0 0 0 0 0 0 0 0 0 0 0 0 0 0 0 0 0 0 0 0 0 0 0 0 0 0 0 0 0 0 0 0 0 0 0 0 0 0 0 0 0 0 0 0 0 0 0 0 0 0 0 0 0 0 0 0 0 0 0 0 0 0 0 0 0 0 0 0 0 0 0 0 0 0 0 0 0 0 0 0 0 0 0 0 0 0 0 0 0 0 0 0 0 0 0 0 0 0 0 0 0 0 0 0 0 0 0 0 0 0 0 0 0 0 0 2855.12 2778.89 2936.47 2950.93 2955.61 2908.02 2836.25 2867.47 2940.74 2984.53 2991.98 3003.98 3046.69 3048.52 3113.11 3178.46 3124.82 2996.57 2851.96 2860.82 2821.27 2674.74 2627.9 2624.78 0
0 0 0 0 0 0 0 0 0 0 0 0 0 0 0 2013.89 2154.52 2221.82 2195.28 2478.56 2620.47 3151.35 3203.34 3183.1 3146.15 3278 3235.9 3195.16 3134.34 3033.03 2967.9 2930.57 2943.99 2840.52 2742.15 2708.11 2805.56 2814.74 2936.21 2800.74 2813.61 2356.41 2365.71 1729.43 1052.27 1142.7 1632.25 1559.66 0 2012.7 2579.22 2658.89 2963.34 2833.8 2998.55 2923.68 3035.44 3274.23 3360.4 3333.89 3333.75 3280.05 3300.9 3243.72 3275.19 3280.12 3076.92 3069.37 3135.33 3143.62 3139.5 3208.3 3150.58 3201.14 3128.2 3490.42 0 0 0 0 0 0 0 0 0 0 0 0 0 0 0 0 0 0 0 0 0 0 0 0 0 0 0 0 0 0 0 0 0 0 0 0 0 0 0 0 0 0 0 0 0 0 0 0 0 0 0 0 0 0 0 0 0 0 0 0 0 0 0 0 0 0 0 0 0 0 0 0 0 0 0 0 0 0 0 0 0 0 0 0 0 0 0 0 0 0 0 0 0 0 0 0 0 0 0 0 0 0 0 0 0 0 0 0 0 0 0 0 0 0 0 0 0 0 0 0 0 0 0 0 0 0 0 0 0 0 0 0 0 0 0 0 0 0 0 0 0 0 0 0 0 0 0 0 0 0 0 0 0 0 0 0 0 0 0 0 0 0 0 0 0 0 0 0 0 0 2470.13 2754.66 2760.28 2678.63 2752.86 2599.36 2520.56 2359.13 0 0 0 0 0 0 0 0 0 0 0 0 0 0 0 0 0 0 0 0 0 0 0 0 0 0 0 0 0 0 0 0 0 0 0 0 0 0 0 0 0 0 0 0 0 0 0 0 0 0 0 0 0 0 0 0 0 0 0 0 0 2823.27 3057.85 2988.83 2943.99 3191.27 3437.86 3477.98 3664.79 3725.41 3691.31 4347.68 4426.48 4483.02 3502.81 3486.29 3466.27 3447.61 3343.39 3493.62 3462.69 3477.19 3587.75 3621.91 3655.05 3567.69 3503.98 3406.31 3304.21 4270.01 3346.65 3275.7 3286.93 3165.26 3181.29 3169.87 3351.67 3358.98 3434.76 3269 3303.1 3137.5 3286.93 3214.69 3149.05 2648.81 2596.99 1697.17 811.86 611.771 0 0 0 0 0 0 0 0 0 0 0 0 0 0 0 0 0 0 0 0 0 0 0 0 0 0 0 0 0 0 0 0 0 0 0 0 0 0 0 0 0 0 0 0 0 0 0 0 0 0 0 0 0 0 0 0 0 0 0 0 0 0 0 0 0 0 0 0 0 0 0 0 0 0 0 0 0 0 0 0 0 0 0 0 0 0 0 0 0 0 0 0 0 0 0 0 0 0 0 0 0 0 0 0 0 0 0 0 0 0 0 0 0 0 0 0 0 0 0 0 0 0 2684.93 2728.86 2608.29 2785.44 2905.5 2857.99 2867.76 2863.16 2919.71 2967 2990.7 2998.45 2994.54 3047.74 3063.54 3070.44 3110.05 3053.84 2981.03 2865.11 2922.25 2874.29 2602.47 2606.67 2643.64 0
0 0 0 0 0 0 0 0 0 0 0 0 0 0 2022.87 2390.89 2372.4 2543.06 2613.01 2775.49 2921.49 4729.3 4689.51 4562.38 3207.5 3381.59 3337.87 3219.75 3164.37 3069.32 2980.55 2911.35 2933.85 2916.41 2789.1 2794.3 2968.63 3004.3 3151.23 3248.61 6387.55 2868.94 2798.59 2140.94 791.37 598.43 592.249 650.805 1422.73 1802.82 2537.87 2681.32 2913.42 2835.53 3060.81 2915.4 3037.59 3323.06 3417.62 3394.73 3379.89 3335.01 3353.34 3263.15 3307.4 3316.75 3061.14 3073.08 3075.28 3040.84 3026.25 3087.62 2980.92 2965.69 2744.3 3209.65 0 0 0 0 0 0 0 0 0 0 0 0 0 0 0 0 0 0 0 0 0 0 0 0 0 0 0 0 0 0 0 0 0 0 0 0 0 0 0 0 0 0 0 0 0 0 0 0 0 0 0 0 0 0 0 0 0 0 0 0 0 0 0 0 0 0 0 0 0 0 0 0 0 0 0 0 0 0 0 0 0 0 0 0 0 0 0 0 0 0 0 0 0 0 0 0 0 0 0 0 0 0 0 0 0 0 0 0 0 0 0 0 0 0 0 0 0 0 0 0 0 0 0 0 0 0 0 0 0 0 0 0 0 0 0 0 0 0 0 0 0 0 0 0 0 0 0 0 0 0 0 0 0 0 0 0 0 0 0 0 0 0 0 0 0 0 0 0 0 0 0 0 0 2122.36 2382.95 2162.52 2121.66 0 0 0 0 0 0 0 0 0 0 0 0 0 0 0 0 0 0 0 0 0 0 0 0 0 0 0 0 0 0 0 0 0 0 0 0 0 0 0 0 0 0 0 0 0 0 0 0 0 0 0 0 0 0 0 0 0 0 0 0 0 0 2958.89 3168.97 3180.38 3088.41 3258.2 3415.6 3475.31 4147.67 4197.47 4211.49 4360.9 4194.64 4226.98 3471.43 3437.93 3437.44 3413.03 3390.14 3524.89 3459.26 3556.87 3627 3653.85 3683.05 3540.29 3522.3 3834.39 3345.85 3469.06 3687.26 3320.89 3248.87 3145.92 3209.89 3157.88 3243.4 3195.65 3206.77 2989.21 3086.42 3092.34 3146.57 2990.38 2970.58 2151.23 1440.8 0 0 0 0 0 0 0 0 0 0 0 0 0 0 0 0 0 0 0 0 0 0 0 0 0 0 0 0 0 0 0 0 0 0 0 0 0 0 0 0 0 0 0 0 0 0 0 0 0 0 0 0 0 0 0 0 0 0 0 0 0 0 0 0 0 0 0 0 0 0 0 0 0 0 0 0 0 0 0 0 0 0 0 0 0 0 0 0 0 0 0 0 0 0 0 0 0 0 0 0 0 0 0 0 0 0 0 0 0 0 0 0 0 0 0 0 0 0 0 0 0 0 0 1962.19 2491.51 2607.32 2767.57 2618.14 2814.88 2935.6 2896.07 2939.97 3018.51 3015.91 3074.21 3077.76 3089.89 3065.84 3131.71 3135.45 3137.74 3156.51 3150.46 3066.68 2951.76 3020.91 3036.38 2731.7 2819.52 2914.64 0
0 0 0 0 0 0 0 0 0 0 0 0 0 0 2196.72 2590.65 2606.75 2648.19 2710.82 2771.82 2875.82 4449.61 4300.65 3132.12 3148.75 3276.59 3242.52 3202.54 3210.82 3177.19 3152.71 3107.4 3094.22 3039.57 2929.29 2961.92 3033.52 2996.84 3015.26 3090.8 3082.51 3049.96 2976.32 2451.83 1675.08 790.583 1038.02 443.353 1245.95 1645.44 2286.03 2573.25 2763.51 2622.69 2816.11 2585.42 2799.24 3101.83 3205.85 3259.72 3250.38 3177.55 3313.8 3253.09 3328.86 3339.33 3128.03 3145.86 3067.75 3035.17 3157.05 3120.93 3071.51 3210.02 2881.85 0 0 0 0 0 0 0 0 0 0 0 0 0 0 0 0 0 0 0 0 0 0 0 0 0 0 0 0 0 0 0 0 0 0 0 0 0 0 0 0 0 0 0 0 0 0 0 0 0 0 0 0 0 0 0 0 0 0 0 0 0 0 0 0 0 0 0 0 0 0 0 0 0 0 0 0 0 0 0 0 0 0 0 0 0 0 0 0 0 0 0 0 0 0 0 0 0 0 0 0 0 0 0 0 0 0 0 0 0 0 0 0 0 0 0 0 0 0 0 0 0 0 0 0 0 0 0 0 0 0 0 0 0 0 0 0 0 0 0 0 0 0 0 0 0 0 0 0 0 0 0 0 0 0 0 0 0 0 0 0 0 0 0 0 0 0 0 0 0 0 0 0 0 0 0 0 0 0 0 0 0 0 0 0 0 0 0 0 0 0 0 0 0 0 0 0 0 0 0 0 0 0 0 0 0 0 0 0 0 0 0 0 0 0 0 0 0 0 0 0 0 0 0 0 0 0 0 0 0 0 0 0 0 0 0 0 0 0 0 0 3240.14 3350.06 3343.52 3199.12 3334.15 3490.93 3497.56 4124.52 4063.88 4156.19 4297.02 3591.52 4217.2 3446.69 3306.55 3342.25 3320.16 3294.22 3336.41 3237.77 3339.66 3426.76 3469.35 4909.34 3339.46 3378.87 3256.05 3213.64 3328.2 3575.82 3196.75 3072.13 2992.78 3141.15 3047.85 3115.48 3035.72 2963.7 2817.86 2878.39 3060.75 3036.32 2814.17 2694.11 0 0 0 0 0 0 0 0 0 0 0 0 0 0 0 0 0 0 0 0 0 0 0 0 0 0 0 0 0 0 0 0 0 0 0 0 0 0 0 0 0 0 0 0 0 0 0 0 0 0 0 0 0 0 0 0 0 0 0 0 0 0 0 0 0 0 0 0 0 0 0 0 0 0 0 0 0 0 0 0 0 0 0 0 0 0 0 0 0 0 0 0 0 0 0 0 0 0 0 0 0 0 0 0 0 0 0 0 0 0 0 0 0 0 0 0 0 0 0 0 0 0 0 0 0 0 2697.44 2681.24 2838.98 2692.81 2823.84 2966.16 2991.18 2992.62 3039.68 3057.01 3116.23 3111.49 3138.74 3143.32 3447.39 3453.78 3191.52 3222.59 3195.16 3101.66 3019.87 3077.59 3083.7 2759.19 2714.64 2913.98 2864.53
0 0 0 0 0 0 0 0 0 0 0 0 0 0 2396.02 2782.35 2923.98 2818.67 2764.88 2890.39 2960.51 3172.03 3143.03 3207.32 3222.41 3290.02 3268.74 3277.62 3278.38 3257.51 3192.43 3191.7 3160.2 3121.16 3008.56 3043.15 3083.53 3016.83 3034.68 3160.67 3113.52 3162.88 3034.29 2509.4 2457.36 1411.29 1780.21 1799.92 1705.25 1904.59 2583.19 2824.69 2812.95 2632.52 2841.44 2618.84 2744.53 2959.52 2960.56 2928.42 2875.03 2862.82 2994.65 2967.69 2986.97 2992.83 2816.16 2930.42 2930.52 2911.5 3015.91 3003.39 2929.91 3061.03 2883.33 0 0 0 0 0 0 0 0 0 0 0 0 0 0 0 0 0 0 0 0 0 0 0 0 0 0 0 0 0 0 0 0 0 0 0 0 0 0 0 0 0 0 0 0 0 0 0 0 0 0 0 0 0 0 0 2999.79 0 0 0 0 0 0 0 0 0 0 0 0 0 0 0 0 0 0 0 0 0 0 0 0 0 0 0 0 0 0 0 0 0 0 0 0 0 0 0 0 0 0 0 0 0 0 0 0 0 0 0 0 0 0 0 0 0 0 0 0 0 0 0 0 0 0 0 0 0 0 0 0 0 0 0 0 0 0 0 0 0 0 0 0 0 0 0 0 0 0 0 0 0 0 0 0 0 0 0 0 0 0 0 0 0 0 0 0 0 0 0 0 0 0 0 0 0 0 0 0 0 0 0 0 0 0 0 0 0 0 0 0 0 0 0 0 0 0 0 0 0 0 0 0 0 0 0 0 0 0 0 0 0 0 0 0 0 0 0 0 0 0 0 0 0 0 0 0 0 0 0 0 0 0 0 0 0 0 0 0 0 0 0 0 3346.85 3454.99 3480.43 3297.46 3365.72 3515.29 3474.95 4129.9 4108.06 4166.82 4169 3642.43 4178.86 3594.75 3418.66 3417.41 3391.99 3289.83 3315.38 3142.2 3227.49 3276.34 3333.82 4943.04 3328.46 3340.66 3280.95 3645.6 3289.96 3228.67 3188.91 3029.52 2919.66 3044.04 2938.99 2908.57 2820.18 2700.92 2619.41 2656.49 2999.9 3085.8 2937.04 0 0 0 0 0 0 0 0 0 0 0 0 0 0 0 0 0 0 0 0 0 0 0 0 0 0 0 0 0 0 0 0 0 0 0 0 0 0 0 0 0 0 0 0 0 0 0 0 0 0 0 0 0 0 0 0 0 0 0 0 0 0 0 0 0 0 0 0 0 0 0 0 0 0 0 0 0 0 0 0 0 0 0 0 0 0 0 0 0 0 0 0 0 0 0 0 0 0 0 0 0 0 0 0 0 0 0 0 0 0 0 0 0 0 0 0 0 0 0 0 0 0 0 0 0 1857.07 2275.21 2688.11 2764.47 2874.1 2747.85 2796.44 2978.86 3007.85 3015.42 3085.74 3109.65 3140.5 3167 3193.03 3194.37 3188.18 3180.69 3196.81 3201.44 3208.48 3149.64 3019.66 3087.67 3142.38 2914.94 2982.14 3104.07 3150.35
0 0 0 0 0 0 0 0 0 0 0 0 0 2782.35 2602.14 2965.22 3057.96 5091.54 3018.51 3017.75 3086.42 3216.17 3128.55 3212.54 3192.61 4136.62 3253.59 3239.27 3300.64 3288.41 3263.72 3309.55 3274.48 3280.24 3151.83 3189.82 3246.54 3103.38 3176.11 3294.28 3234.65 3200.83 3110.51 2761.15 2790.96 2127.12 2435.03 1863.86 1492.41 1766.73 2300.35 2352.21 2406.91 2283.2 2541.1 2317.83 2603.88 2705.32 2802.47 2807.39 2846.16 2892.03 2960.62 2931.6 2963.39 2970.63 2883.58 2973.89 2968.58 2835.86 2843.55 2691.78 2556.43 2598.64 2083.98 0 0 0 0 0 0 0 0 0 0 0 0 0 0 0 0 0 0 0 0 0 0 0 0 0 0 0 0 0 0 0 0 0 0 0 0 0 0 0 0 0 0 0 2571.12 2750.78 2730.9 2370.02 2432.84 2692.08 2957.54 2906.86 2812.43 2729.7 2636.24 0 0 0 0 0 0 0 0 0 0 0 0 0 0 0 0 0 0 0 0 0 0 0 0 0 0 0 0 0 0 0 0 0 0 0 0 0 0 0 0 0 0 0 0 0 0 0 0 0 0 0 0 0 0 0 0 0 0 0 0 0 0 0 0 0 0 0 0 0 0 0 0 0 0 0 0 0 0 0 0 0 0 0 0 0 0 0 0 0 0 0 0 0 0 0 0 0 0 0 0 0 0 0 0 0 0 0 0 0 0 0 0 0 0 0 0 0 0 0 0 0 0 0 0 0 0 0 0 0 0 0 0 0 0 0 0 0 0 0 0 0 0 0 0 0 0 0 0 0 0 0 0 0 0 0 0 0 0 0 0 0 0 0 0 0 0 0 0 0 0 0 0 0 0 0 0 0 0 0 0 0 0 0 0 0 3402.03 3474.31 3508.31 3488.61 3262 3283.65 3462.91 3369.1 4093.13 4035.92 4034.56 4063.09 3976.33 4133.16 3553.48 3400.58 3483.47 3474.88 3372.01 3358.65 3164.55 3204.87 3294.74 3359.18 4981.19 3267.15 3279.79 3620.27 3776.73 4944.79 3767.32 3224.08 3052.12 2939.04 3145.27 3026.57 2987.56 2786.55 2730.23 2590.81 2666.11 3080.81 3313.08 0 0 0 0 0 0 0 0 0 0 0 0 0 0 0 0 0 0 0 0 0 0 0 0 0 0 0 0 0 0 0 0 0 0 0 0 0 0 0 0 0 0 0 0 0 0 0 0 0 0 0 0 0 0 0 0 0 0 0 0 0 0 0 0 0 0 0 0 0 0 0 0 0 0 0 0 0 0 0 0 0 0 0 0 0 0 0 0 0 0 0 0 0 0 0 0 0 0 0 0 0 0 0 0 0 0 0 0 0 0 0 0 0 0 0 0 0 0 0 0 0 0 0 0 0 0 2205.06 2444.93 2852.26 2867.91 3031.93 2939.92 2945.23 3106.48 3063.21 3067.52 3169.87 3157.28 3158.29 3142.5 3142.5 3138.44 3122.5 3149.46 3152.6 3197.42 3232.4 3235.52 3094.79 3175.09 3285.19 3136.98 3250.69 3383.91 3274.87
0 0 0 0 0 0 0 0 0 0 0 0 0 3116.12 3099.02 3269.31 5280.63 5219.2 3130.19 3051.45 3086.48 3183.22 3120.99 3162.58 3129.72 3978.59 3226.87 3485.13 3605.33 3947.61 3982.18 4067.23 3330.18 4548.4 3205.36 3211.98 3307.34 3156.75 3231.41 3286.67 3348.79 3410.6 3344.45 3198.33 3725.74 3265.69 3336.8 2420.7 1790.39 1590.97 1911.16 1893.11 1753.65 1778.73 1957.18 1866.68 2088.65 2156.84 2259.62 2441.45 2529.15 2668.95 2667.43 2727.57 2842.69 2843.41 2738.43 2938.73 2822.65 2605.38 2594.26 2418.15 2158.95 0 0 0 0 0 0 0 0 0 0 0 0 0 0 0 0 0 0 0 0 0 0 0 0 0 0 0 0 0 0 0 0 0 0 0 0 0 0 0 0 0 0 0 0 0 2742.01 2865.07 2826.74 2438.32 2427.32 2671.67 2794.35 2829.84 2666.75 2625.27 2590.61 2530.1 2818.67 2739.69 0 0 0 0 0 0 0 0 0 0 0 0 0 0 0 0 0 0 0 0 0 0 0 0 0 0 0 0 0 0 0 0 0 0 0 0 0 0 0 0 0 0 0 0 0 0 0 0 0 0 0 0 0 0 0 0 0 0 0 0 0 0 0 0 0 0 0 0 0 0 0 0 0 0 0 0 0 0 0 0 0 0 0 0 0 0 0 0 0 0 0 0 0 0 0 0 0 0 0 0 0 0 0 0 0 0 0 0 0 0 0 0 0 0 0 0 0 0 0 0 0 0 0 0 0 0 0 0 0 0 0 0 0 0 0 0 0 0 0 0 0 0 0 0 0 0 0 0 0 0 0 0 0 0 0 0 0 0 0 0 0 0 0 0 0 0 0 0 0 0 0 0 0 0 0 0 0 0 0 0 0 3165.5 3568.3 3586.45 3632.1 3568.3 3384.6 3334.55 3423.62 3332.76 3380.64 3443.79 3418.25 3494.2 3450.66 3517.72 3466.7 3386.24 3481.15 3491.88 3340.92 3281.01 3024.39 3088.58 3137.56 3260.61 5497.61 2982.88 3007.85 3032.21 3108.55 3574.76 4570.71 3069.82 2895.07 2914.69 3086.54 2973.52 2975.69 2742.15 2637.69 2614.63 2752.27 0 3194.25 0 0 0 0 0 0 0 0 0 0 0 0 0 0 0 0 0 0 0 0 0 0 0 0 0 0 0 0 0 0 0 0 0 0 0 0 0 0 0 0 0 0 0 0 0 0 0 0 0 0 0 0 0 0 0 0 0 0 0 0 0 0 0 0 0 0 0 0 0 0 0 0 0 0 0 0 0 0 0 0 0 0 0 0 0 0 0 0 0 0 0 0 0 0 0 0 0 0 0 0 0 0 0 0 0 0 0 0 0 0 0 0 0 0 0 0 0 0 0 0 0 0 0 0 0 0 2374.32 2575.98 2779.3 2771.36 2997.05 2981.72 2894.97 3130.95 3054.56 3065.39 3171.19 3167.06 3178.22 3132.52 3114.61 3186.42 3124.18 3158.35 3152.54 3203.58 3265.05 3279.99 3175.33 3224.76 3259.09 3138.8 3238.39 3452.93 3267.79
0 0 0 0 0 0 0 0 0 0 0 0 3043.32 3697.66 3526.59 3495.88 3518.16 4377.06 3259.72 3169.09 4319.14 3212.54 3173.11 3210.51 3202.6 3935.2 3257.89 3870.57 3914.54 3845.64 3805.77 3324.84 3270.97 3297.52 3167.24 3185.27 3273.14 3134.57 3186.55 3277.62 3382.55 3595.9 3459.19 3334.55 3752.74 3459.91 3753.75 2690.44 1706.77 976.867 1308.12 1387.54 1424.33 1659.55 0 1703.03 2118.53 2148.81 2379.43 2482.37 2535.38 2643.8 2473.3 2482.48 2658.04 2504.23 2489.37 2623.59 2668.74 2414.71 0 0 0 0 0 0 0 0 0 0 0 0 0 0 0 0 0 0 0 0 0 0 0 0 0 0 0 0 0 0 0 0 0 0 0 0 0 0 0 0 0 0 0 0 0 2750.24 2882.64 3278.45 3145.74 3189.39 3049.29 2799.01 2704.75 2894.77 2846.88 2891.48 2598.84 2630.75 2536.95 2530.63 2597.83 2379.4 2085.97 1745.44 0 0 0 0 0 0 0 0 0 0 0 0 0 0 0 0 0 0 0 0 0 0 0 0 0 0 0 0 0 0 0 0 0 0 0 0 0 0 0 0 0 0 0 0 0 0 0 0 0 0 0 0 0 0 0 0 0 0 0 0 0 0 0 0 0 0 0 0 0 0 0 0 0 0 0 0 0 0 0 0 0 0 0 0 0 0 0 0 0 0 0 0 0 0 0 0 0 0 0 0 0 0 0 0 0 0 0 0 0 0 0 0 0 0 0 0 0 0 0 0 0 0 0 0 0 0 0 0 0 0 0 0 0 0 0 0 0 0 0 0 0 0 0 0 0 0 0 0 0 0 0 0 0 0 0 0 0 0 0 0 0 0 0 0 0 0 0 0 0 0 0 0 0 0 0 0 0 0 3268.42 3088.36 3465.05 3520.67 3552.2 3547.55 3457.98 3392.47 3472.22 3359.86 3450.73 3499.74 3475.17 3559.06 3469.28 3479.13 3448.03 3386.24 3477.48 3440.54 3222.97 3171.61 2896.77 2890.09 3005.97 3075.62 3071.11 2901.58 2952.49 5621.01 5418.95 4454.81 4575.94 3163.47 2963.75 3004.78 3128.55 3058.24 2912.31 2723.59 2604.53 2566.56 2802.52 0 0 0 0 0 0 0 0 0 0 0 0 0 0 0 0 0 0 0 0 0 0 0 0 0 0 0 0 0 0 0 0 0 0 0 0 0 0 0 0 0 0 0 0 0 0 0 0 0 0 0 0 0 0 0 0 0 0 0 0 0 0 0 0 0 0 0 0 0 0 0 0 0 0 0 0 0 0 0 0 0 0 0 0 0 0 0 0 0 0 0 0 0 0 0 0 0 0 0 0 0 0 0 0 0 0 0 0 0 0 0 0 0 0 0 0 0 0 0 0 0 0 0 0 0 0 0 0 0 2654.09 2775.95 2756.56 3121.1 3102.4 2968.21 3183.76 3126.98 3086.25 3191.88 3189.27 3225.2 3168.61 3141.62 3168.07 3081.55 3083.99 3077.54 3101.89 3129.19 3110.28 2989.84 3029.31 3058.13 2955.25 3033.96 3274.67 3093.88
0 0 0 0 0 0 0 0 0 0 0 0 2700.74 3367.55 3290.28 3197.11 3274.99 3320.36 3173.47 3102.58 3125.23 3166.58 3124.24 3173.23 3151.71 3829.84 3170.11 3892.39 3952.17 3291.12 3255.55 3242.4 3197.48 3261.24 3117.57 3191.82 3237.64 3090.01 3175.69 3205.54 3327.14 3511.46 3339.19 6205.86 6316.85 3357.71 3376.02 2642.85 1727.17 883.4 1063.18 0 1152.88 0 0 1465.99 1775.25 1792.51 2072.42 2214.14 2324.42 2584.83 2396.12 2267.49 2591.97 2501.69 2532.96 2664.71 2725.89 0 0 0 0 0 0 0 0 0 0 0 0 0 0 0 0 0 0 0 0 0 0 0 0 0 0 0 0 0 0 0 0 0 0 0 0 0 0 0 0 0 0 0 0 0 2661.25 2829.93 3019.33 3407.56 3268.29 3211.18 3018.03 2852.79 2820.37 2959.26 2870.11 2929.5 2656.28 2741.48 2771.77 2842.59 2946.22 2779.67 2489.22 2414.12 1908.62 0 0 0 0 0 0 0 0 0 0 0 0 0 0 0 0 0 0 0 0 0 0 0 0 0 0 0 0 0 0 0 0 0 0 0 0 0 0 0 0 0 0 0 0 0 0 0 0 0 0 0 0 0 0 0 0 0 0 0 0 0 0 0 0 0 0 0 0 0 0 0 0 0 0 0 0 0 0 0 0 0 0 0 0 0 0 0 0 0 0 0 0 0 0 0 0 0 0 0 0 0 0 0 0 0 0 0 0 0 0 0 0 0 0 0 0 0 0 0 0 0 0 0 0 0 0 0 0 0 0 0 0 0 0 0 0 0 0 0 0 0 0 0 0 0 0 0 0 0 0 0 0 0 0 0 0 0 0 0 0 0 0 0 0 0 0 0 0 0 0 0 0 0 0 0 0 3418.46 3333.95 3079.01 3455.13 3506.69 3552.65 3499.89 3457.91 3385.35 3422.71 3343.39 3481.37 3770.79 3789.44 3788.5 3543.65 3529.78 3515.73 3461.48 3520.9 3427.95 3171.97 3099.08 2869.08 2803.17 2881.75 2912.31 2966.74 2806.69 2853.71 5606.36 5494.19 4067.43 4390 3094.79 2935.65 2939.81 3111.61 3071.85 2953.68 2706.98 2569.51 2914.94 2917.37 0 0 0 0 0 0 0 0 0 0 0 0 0 0 0 0 0 0 0 0 0 0 0 0 0 0 0 0 0 0 0 0 0 0 0 0 0 0 0 0 0 0 0 0 0 0 0 0 0 0 0 0 0 0 0 0 0 0 0 0 0 0 0 0 0 0 0 0 0 0 0 0 0 0 0 0 0 0 0 0 0 0 0 0 0 0 0 0 0 0 0 0 0 0 0 0 0 0 0 0 0 0 0 0 0 0 0 0 0 0 0 0 0 0 0 0 0 0 0 0 0 0 0 0 0 0 0 0 0 0 2691.65 2847.85 3183.4 3142.79 3014.99 3232.59 3158.89 3026.57 3170.41 3150.52 3152.83 3095.54 3108.5 3155.44 3038.08 3054.95 3068.03 3063.32 3095.59 3084.67 2991.92 2997.7 2964.38 2923.12 2895.57 3159.48 2986.6
0 0 0 0 0 0 0 0 0 0 0 0 2783.22 3263.59 3190.12 3180.14 3230.6 3233.96 3174.01 3110.34 3147.21 3132.35 3096.68 3129.54 3131.41 3175.45 3123.43 3154.08 3892.57 3236.15 3230.97 3947.52 3192.24 3224.02 3115.6 3222.16 3231.97 3110.34 3144.5 3209.34 3296.74 3513.52 3355.56 3293.44 3360.26 3484.19 3134.57 2267.8 1092.01 202.016 178.174 0 0 0 0 1212.37 1389.22 1363 1760.85 1858.29 2050.54 2273.61 2255.73 2101.62 2483.33 2435.17 0 0 0 0 0 0 0 0 0 0 0 0 0 0 0 0 0 0 0 0 0 0 0 0 0 0 0 0 0 0 0 0 0 0 0 0 0 0 0 0 0 0 0 0 0 0 0 0 2851.33 3080.98 3155.44 3445.2 3393.29 3370.59 3216.23 3052.84 3088.7 3251.13 3136.21 3148.75 2856.97 2958.06 2935.29 3001.56 3127.33 2912.97 2551.38 2515.8 2123.57 1969.77 0 0 0 0 0 0 0 0 0 0 0 0 0 0 0 0 0 0 0 0 0 0 0 0 0 0 0 0 0 0 0 0 0 0 0 0 0 0 0 0 0 0 0 0 0 0 0 0 0 0 0 0 0 0 0 0 0 0 0 0 0 0 0 0 0 0 0 0 0 0 0 0 0 0 0 0 0 0 0 0 0 0 0 0 0 0 0 0 0 0 0 0 0 0 0 0 0 0 0 0 0 0 0 0 0 0 0 0 0 0 0 0 0 0 0 0 0 0 0 0 0 0 0 0 0 0 0 0 0 0 0 0 0 0 0 0 0 0 0 0 0 0 0 0 0 0 0 0 0 0 0 0 0 0 0 0 0 0 0 0 0 0 0 0 0 0 0 0 0 0 0 0 0 0 3636.27 0 3371 3054.06 3358.85 3447.25 3443.57 3445.2 3431.53 3399.96 3425.15 3361.81 3454.56 3517.5 3501.35 3581.4 3492.24 3478.77 3486 3447.82 3536.93 4076.02 3241.27 3167.3 2955.14 2890.14 5249.9 5445.33 2951.5 2708.72 2758.29 5729.07 5590.48 3925.35 4407.88 3072.46 2827.79 2802.38 2990.22 2943.74 2722.48 2488 2280.07 0 0 0 0 0 0 0 0 0 0 0 0 0 0 0 0 0 0 0 0 0 0 0 0 0 0 0 0 0 0 0 0 0 0 0 0 0 0 0 0 0 0 0 0 0 0 0 0 0 0 0 0 0 0 0 0 0 0 0 0 0 0 0 0 0 0 0 0 0 0 0 0 0 0 0 0 0 0 0 0 0 0 0 0 0 0 0 0 0 0 0 0 0 0 0 0 0 0 0 0 0 0 0 0 0 0 0 0 0 0 0 0 0 0 0 0 0 0 0 0 0 0 0 0 0 0 0 0 0 0 0 0 2666.24 2750.19 3004.89 3013.96 2887.1 3077.65 3148.75 3082.17 3822.33 3182.98 3178.09 3110.51 3084.04 3140.91 3056.74 3019.55 3014.07 3040.12 3081.61 3084.04 3037.86 3093.6 3091.26 3047.41 3070.89 3385.62 3028.54
0 0 0 0 0 0 0 0 0 0 0 0 3087.33 3442.65 3272.5 3282.81 3329.85 3270.21 3232.16 3127.85 3165.38 3182.74 3131.59 3189.03 3179.48 3197.48 3158.59 3326.35 3896.54 3267.72 3636.27 3893.65 3207.99 3212.35 3158.17 3245.66 3250.63 3124.36 3153.66 3201.38 3273.14 3426.06 3323.91 3038.41 3007.91 2884.22 2603.68 2659.18 1459.99 232.437 0 0 0 0 0 917.22 913.152 942.673 1379.38 1483.88 1733.83 1914.8 1984.23 1841.2 2109.84 0 0 0 0 0 0 0 0 0 0 0 0 0 0 0 0 0 0 0 0 0 0 0 0 0 0 0 0 0 0 0 0 0 0 0 0 0 0 0 0 0 0 0 0 0 0 0 3536.11 3228.73 3154.14 3367.21 3361 3544.25 3560.72 3469.35 3430.41 3342.72 3401.41 3541.93 3442.09 3503.62 3305.12 3364.1 3230.97 3281.66 3300.76 3079.68 2759.65 2667.98 2191.47 0 0 0 0 0 0 0 0 0 0 0 0 0 0 0 0 0 0 0 0 0 0 0 0 0 0 0 0 0 0 0 0 0 0 0 0 0 0 0 0 0 0 0 0 0 0 0 0 0 0 0 0 0 0 0 0 0 0 0 0 0 0 0 0 0 0 0 0 0 0 0 0 0 0 0 0 0 0 0 0 0 0 0 0 0 0 0 0 0 0 0 0 0 0 0 0 0 0 0 0 0 0 0 0 0 0 0 0 0 0 0 0 0 0 0 0 0 0 0 0 0 0 0 0 0 0 0 0 0 0 0 0 0 0 0 0 0 0 0 0 0 0 0 0 0 0 0 0 0 0 0 0 0 0 0 0 0 0 0 0 0 0 0 0 0 0 0 0 0 0 0 0 0 0 0 4270.12 3702.31 3428.93 3240.21 3410.12 3406.59 3436.73 3391.71 3317.21 3265.56 3306.55 3276.14 3339 3399.41 3368.49 3471.72 3401.96 3399.27 3389.18 3349.13 3451.29 3402.86 3141.09 3124.71 2874.15 2826.6 2828.93 2874.39 2899.28 2580.89 2618.8 5348.81 5253.85 3136.51 3240.27 3238.77 3064.22 3017.1 3327.08 3284.03 3007.21 0 0 0 0 0 0 0 0 0 0 0 0 0 0 0 0 0 0 0 0 0 0 0 0 0 0 0 0 0 0 0 0 0 0 0 0 0 0 0 0 0 0 0 0 0 0 0 0 0 0 0 0 0 0 0 0 0 0 0 0 0 0 0 0 0 0 0 0 0 0 0 0 0 0 0 0 0 0 0 0 0 0 0 0 0 0 0 0 0 0 0 0 0 0 0 0 0 0 0 0 0 0 0 0 0 0 0 0 0 0 0 0 0 0 0 0 0 0 0 0 0 0 0 0 0 0 0 0 0 0 0 0 0 0 2869.57 2736.2 3032.97 3061.14 2902.99 3059.86 3171.55 3112.01 3912.17 3217.9 3260.55 3202.11 3608.04 3685.56 3641.01 3529.34 3109.25 3116.29 3717.49 3115.31 3048.63 3062.15 3062.09 3085.4 3069.6 0 0
0 0 0 0 0 0 0 0 0 0 0 0 3067.35 3296.42 3247.99 3264.23 3331.24 3209.34 3197.96 3073.08 3134.81 3144.56 3101.89 3170.35 3158.41 3159.36 3137.03 3164.55 3885.99 3266.83 3638.17 3882.48 3203.28 3188.97 3143.15 3216.23 3194.13 3024.5 3056.51 3073.98 3145.44 3192.43 3186.24 2929.8 3024.72 2837.64 2616.35 2411.76 1642.49 448.693 0 0 0 0 0 0 0 0 0 1551.64 0 0 0 0 0 0 0 0 0 0 0 0 0 0 0 0 0 0 0 0 0 0 0 0 0 0 0 0 0 0 0 0 0 0 0 0 0 0 0 0 0 0 0 0 0 0 0 0 0 0 0 0 3449.31 3417.27 3260.67 3317.34 3357.3 3473.59 3553.03 3430.06 3519.2 3465.48 3459.69 3637.53 3597.37 3632.34 3638.87 3632.34 3556.72 3467.2 3389.86 3250.12 2860.96 2763.51 2334.83 1857.28 1679.17 0 0 0 0 0 0 0 0 0 0 0 0 0 0 0 0 0 0 0 0 0 0 0 0 0 0 0 0 0 0 0 0 0 0 0 0 0 0 0 0 0 0 0 0 0 0 0 0 0 0 0 0 0 0 0 0 0 0 0 0 0 0 0 0 0 0 0 0 0 0 0 0 0 0 0 0 0 0 0 0 0 0 0 0 0 0 0 0 0 0 0 0 0 0 0 0 0 0 0 0 0 0 0 0 0 0 0 0 0 0 0 0 0 0 0 0 0 0 0 0 0 0 0 0 0 0 0 0 0 0 0 0 0 0 0 0 0 0 0 0 0 0 0 0 0 0 0 0 0 0 0 0 0 0 0 0 0 0 0 0 0 0 0 0 0 0 0 0 0 0 0 0 5462.17 4609.63 3970.78 3502.52 3240.4 3341.52 3342.25 3424.39 3339.19 3306.29 3234.34 3292.67 3277.62 3360.46 3427.53 3429.85 3475.46 3455.56 3440.89 3434.06 3425.22 3515.88 3983.79 3173.71 3110.46 2904.7 2776.18 2759.88 2739.42 2671.72 2377.07 2414.88 2830.79 2957.64 3048.74 3207.19 3152.06 3167.89 3009.2 3309.82 3313.28 3020.63 2668.74 2300.04 0 0 0 0 0 0 0 0 0 0 0 0 0 0 0 0 0 0 0 0 0 0 0 0 0 0 0 0 0 0 0 0 0 0 0 0 0 0 0 0 0 0 0 0 0 0 0 0 0 0 0 0 0 0 0 0 0 0 0 0 0 0 0 0 0 0 0 0 0 0 0 0 0 0 0 0 0 0 0 0 0 0 0 0 0 0 0 0 0 0 0 0 0 0 0 0 0 0 0 0 0 0 0 0 0 0 0 0 0 0 0 0 0 0 0 0 0 0 0 0 0 0 0 0 0 0 0 0 0 0 0 0 2934.36 2882.74 3152.66 3131.65 2959.26 3106.02 3169.15 3117.74 3240.08 3241.4 3262.83 3182.01 3165.2 3262.96 3136.57 3104.64 3085.06 3095.82 3682 3065.17 3006.13 3056.68 3009.53 3072.24 2926.94 3292.86 0
0 0 0 0 0 0 0 0 0 0 0 0 3286.15 3389.38 3417.06 3314.13 3327.28 3235.83 3225.94 3125.81 3180.56 3198.15 3150.35 3224.7 3194.92 3202.54 3183.4 3207.44 3430.34 3897.18 3851.64 3713.04 3232.03 3257.57 3223.21 3267.15 3252.46 3065.67 3122.79 3190.61 3243.15 3067.02 3012.66 2799.85 2951.71 2801.35 2659.56 2724.07 1667.65 630.816 0 0 0 0 0 0 0 0 0 0 0 0 0 0 0 0 0 0 0 0 0 0 0 0 0 0 0 0 0 0 0 0 0 0 0 0 0 0 0 0 0 0 0 0 0 0 0 0 0 0 0 0 0 0 0 0 0 0 0 0 0 0 3697.98 3634.3 3427.81 3460.83 3473.37 3550.4 3543.65 3471.72 3494.79 3444.63 3422.5 3568.45 3495.66 3547.55 3529.93 3542.68 3411.3 3441.45 3306.36 3212.78 2844.95 2812.05 2463.31 2048.78 2008.92 0 0 0 0 0 0 0 0 0 0 0 0 0 0 0 0 0 0 0 0 0 0 0 0 0 0 0 0 0 0 0 0 0 0 0 0 0 0 0 0 0 0 0 0 0 0 0 0 0 0 0 0 0 0 0 0 0 0 2915.04 1444.59 1190.96 0 0 0 0 0 0 0 0 0 0 0 0 0 0 0 0 0 0 0 0 0 0 0 0 0 0 0 0 0 0 0 0 0 0 0 0 0 0 0 0 0 0 0 0 0 0 0 0 0 0 0 0 0 0 0 0 0 0 0 0 0 0 0 0 0 0 0 0 0 0 0 0 0 0 0 0 0 0 0 0 0 0 0 0 0 0 0 0 0 0 0 0 0 0 0 0 0 0 0 0 0 0 0 0 0 0 0 0 0 0 0 4610.27 3979.44 3755.93 3469.42 3200.16 3232.09 3299.99 3406.03 3308.84 3228.73 3140.85 3193.95 3208.85 3332.5 3425.01 3420.55 3457.27 3423.62 3434.48 3453.99 3491.01 3549.65 3994.6 3243.84 3240.46 3090.57 3023.41 2960.3 2936.57 2722.75 2577.28 2604.89 3152.54 3279.47 3314.79 3559.89 3518.16 3620.11 3584.99 3537.97 3549.65 3018.95 2576.77 0 0 0 0 0 0 0 0 0 0 0 0 0 0 0 0 0 0 0 0 0 0 0 0 0 0 0 0 0 0 0 0 0 0 0 0 0 0 0 0 0 0 0 0 0 0 0 0 0 0 0 0 0 0 0 0 0 0 0 0 0 0 0 0 0 0 0 0 0 0 0 0 0 0 0 0 0 0 0 0 0 0 0 0 0 0 0 0 0 0 0 0 0 0 0 0 0 0 0 0 0 0 0 0 0 0 0 0 0 0 0 0 0 0 0 0 0 0 0 0 0 0 0 0 0 0 0 0 0 0 0 0 0 0 2947.56 3231.59 3175.75 2988.62 3095.94 3148.04 3071.34 3250.88 3215.74 3235.27 3143.03 3636.35 3221.23 3122.32 3049.07 3061.92 3055.84 3101.95 3060.92 3012.72 3126.22 2994.75 3033.74 3157.1 0 0
0 0 0 0 0 0 0 0 0 0 2291.24 2656.7 3165.86 3309.42 3402.17 3280.5 3261.43 3194.19 3198.21 3099.02 3159.9 3158.47 3135.51 3202.91 3178.4 3187.33 3165.86 3174.01 3537.08 3765.88 3672.41 3254.41 3203.95 3217.65 3185.76 3237.02 3251.07 3074.66 3095.19 3128.84 3138.33 2960.83 2881.1 2686.9 2589.37 2439.28 2161.23 1761.28 794.021 263.142 0 0 0 0 0 0 0 0 0 0 0 0 0 0 0 0 0 0 0 0 0 0 0 0 0 0 0 0 0 0 0 0 0 0 0 0 0 0 0 0 0 0 0 0 0 0 0 0 0 0 0 0 0 0 0 0 0 0 0 0 0 0 3895.82 3914.73 3769.69 3707.63 3702.96 3700.35 3687.26 3597.45 3575.75 3490.5 3483.9 3539.69 3442.94 3470.21 3506.25 3410.05 3324.37 3377.1 3194.68 2995.82 2776.78 2831.37 2529.76 1974.2 2124.45 2088.67 0 0 0 0 0 0 0 0 0 0 0 0 0 0 0 0 0 0 0 0 0 0 0 0 0 0 0 0 0 0 0 0 0 0 0 0 0 0 0 0 0 0 0 0 0 0 0 0 0 0 0 0 0 0 0 4343.63 0 0 0 0 0 0 0 0 0 0 0 0 0 0 0 0 0 0 0 0 0 0 0 0 0 0 0 0 0 0 0 0 0 0 0 0 0 0 0 0 0 0 0 0 0 0 0 0 0 0 0 0 0 0 0 0 0 0 0 0 0 0 0 0 0 0 0 0 0 0 0 0 0 0 0 0 0 0 0 0 0 0 0 0 0 0 0 0 0 0 0 0 0 0 0 0 0 0 0 0 0 0 0 0 0 0 0 0 0 0 0 0 0 0 0 0 3612.39 3649.32 3370.93 3190.54 3038.14 3142.44 3244.22 3165.32 3125.29 3002.31 3085.8 3147.33 3260.61 3384.94 3395.9 3415.95 3413.03 3397.82 3440.04 3477.76 3508.01 4029.14 3213.95 3214.63 3065.5 2983.94 2928.22 2827.5 2548.9 2335.87 2310.78 2699.92 2881.1 2998.39 3293.25 3276.66 3598.68 3745.54 0 4094.23 3999.08 0 0 0 0 0 0 0 0 0 0 0 0 0 0 0 0 0 0 0 0 0 0 0 0 0 0 0 0 0 0 0 0 0 0 0 0 0 0 0 0 0 0 0 0 0 0 0 0 0 0 0 0 0 0 0 0 0 0 0 0 0 0 0 0 0 0 0 0 0 0 0 0 0 0 0 0 0 0 0 0 0 0 0 0 0 0 0 0 0 0 0 0 0 0 0 0 0 0 0 0 0 0 0 0 0 0 0 0 0 0 0 0 0 0 0 0 0 0 0 0 0 0 0 0 0 0 0 0 0 0 0 0 0 0 0 0 3271.67 3163.29 3040.45 3148.51 3175.69 3057.96 3172.15 3116.35 3181.95 3065.84 3042.93 3118.96 3051.23 2967.42 2968.47 2993.95 3033.36 2973.95 2977.27 3098.45 2984.74 2927.2 2921.39 0 0
0 0 0 0 0 0 0 0 0 0 0 2799.99 3349.46 3451.15 3399 3276.21 3303.36 3193.28 3126.75 3046.8 3084.84 3105.74 3097.54 3158.83 3151.12 3143.21 3117.97 3159.19 3274.67 3945.38 3254.03 3215.49 3178.76 3180.14 3182.74 3240.14 3236.58 3067.8 3033.14 2990.48 2962.45 2702.83 2522.76 2268.51 2029.23 1828.44 1475.29 1630.02 1032.68 0 0 0 0 0 0 0 0 0 0 0 0 0 0 0 0 0 0 0 0 0 0 0 0 0 0 0 0 0 0 0 0 0 0 0 0 0 0 0 0 0 0 0 0 0 0 0 0 0 0 0 0 0 0 0 0 0 0 0 0 0 0 0 3938.9 4105.34 3843.43 3983.79 3911.99 3869.94 3827.3 3681.11 3641.48 3595.21 3596.67 3644.96 3490.28 3528.97 3571.56 3483.03 3437.22 3572.93 3331.04 3114.44 2912.56 3085.8 2793.56 2337.37 2635.5 2705.4 0 0 0 0 0 0 0 0 0 0 0 0 0 0 0 0 0 0 0 0 0 0 0 0 0 0 0 0 0 0 0 0 0 0 0 0 0 0 0 0 0 0 0 0 0 0 0 0 0 0 0 0 0 0 4245.8 3954.96 4042.24 4311.04 3795.1 3155.98 3122.38 0 0 0 0 0 0 0 0 0 0 0 0 0 0 0 0 0 0 0 0 0 0 0 0 0 0 0 0 0 0 0 0 0 0 0 0 0 0 0 0 0 0 0 0 0 0 0 0 0 0 0 0 0 0 0 0 0 0 0 0 0 0 0 0 0 0 0 0 0 0 0 0 0 0 0 0 0 0 0 0 0 0 0 0 0 0 0 0 0 0 0 0 0 0 0 0 0 0 0 0 0 0 0 0 0 0 0 0 0 0 0 0 3544.85 0 3220.68 2925.67 3050.46 3219.69 3197.66 3233.21 3104.01 3171.79 3269.76 3358.85 3475.24 3509.63 3505.01 3473.37 3448.17 3478.05 3530.82 3496.61 3956.64 3231.47 3212.48 3111.21 3053.29 2890.19 2817.81 2455.13 2313.93 2324.96 2656.36 2597.27 2742.82 3150.11 0 3876.38 0 0 0 0 0 0 0 0 0 0 0 0 0 0 0 0 0 0 0 0 0 0 0 0 0 0 0 0 0 0 0 0 0 0 0 0 0 0 0 0 0 0 0 0 0 0 0 0 0 0 0 0 0 0 0 0 0 0 0 0 0 0 0 0 0 0 0 0 0 0 0 0 0 0 0 0 0 0 0 0 0 0 0 0 0 0 0 0 0 0 0 0 0 0 0 0 0 0 0 0 0 0 0 0 0 0 0 0 0 0 0 0 0 0 0 0 0 0 0 0 0 0 0 0 0 0 0 0 0 0 0 0 0 0 0 0 0 0 0 0 3177.31 2992.35 2960.93 3095.76 3146.21 2943.99 3023.85 3027.34 3122.9 3014.99 3824.42 3862.81 3678.69 2890.58 2874.79 2792.02 2774.07 2634.17 2595.3 2690.83 2465.19 2371.3 2143.12 2565.97 0
0 0 0 0 0 0 0 0 0 0 0 2546.84 3122.09 3239.96 3182.5 3094.91 3149.87 3058.13 3041.22 3014.01 3074.94 3128.03 3115.13 3214.69 3237.89 3240.21 3196.32 3232.65 3355.15 4098.83 3312.1 3298.88 3241.08 3227.12 3211.92 3302.91 3282.81 3037.09 2984.69 2987.13 2837.06 2545.3 2214.29 2048.28 1822.22 1541.62 1276.21 1450.14 0 0 0 0 0 0 0 0 0 0 0 0 0 0 0 0 0 0 0 0 0 0 0 0 0 0 0 0 0 0 0 0 0 0 0 0 0 0 0 0 0 0 0 0 0 0 0 0 0 0 0 0 0 0 0 0 0 0 0 0 0 0 0 3261.31 3665.83 3984.26 3950.4 4154.44 4014.68 3886.08 3879.52 3756.02 3731.62 3755.43 3747.21 3765.97 3648.13 3621.05 3659.99 3574.76 3490.5 3641.4 3360.33 3172.21 2843.31 2916.87 2667.38 2371.26 2651.99 2611.54 0 0 0 0 0 0 0 0 0 0 0 0 0 0 0 0 0 0 0 0 0 0 0 0 0 0 0 0 0 0 0 0 0 0 0 0 0 0 0 0 0 0 0 0 0 0 0 0 0 0 0 0 0 3495.3 3797.25 3634.93 3872 4178.66 4068.71 3845.55 3845.64 3232.47 3251.89 0 2942.08 2356.44 1765.89 1581.79 1814.65 1710.69 0 0 0 0 0 0 0 0 0 0 0 0 0 0 0 0 0 0 0 0 0 0 0 0 0 0 0 0 0 0 0 0 0 0 0 0 0 0 0 0 0 0 0 0 0 0 0 0 0 0 0 0 0 0 0 0 0 0 0 0 0 0 0 0 0 0 0 0 0 0 0 0 0 0 0 0 0 0 0 0 0 0 0 0 0 0 0 0 0 0 0 0 0 0 0 0 0 0 0 0 0 0 0 3020.47 2914.18 3049.4 2759.15 2890.29 3060.08 3070.5 3115.25 3007.8 3126.22 3196.44 3296.16 3442.37 3461.26 3485.42 3460.19 3416.92 3457.13 3537.3 3487.81 3916.01 3220.06 3234.21 3121.97 3066.9 2955.82 2886.41 2532.47 2416.65 2404.64 2827.79 2604.73 2528.84 2865.02 0 0 0 0 0 0 0 0 0 0 0 0 0 0 0 0 0 0 0 0 0 0 0 0 0 0 0 0 0 0 0 0 0 0 0 0 0 0 0 0 0 0 0 0 0 0 0 0 0 0 0 0 0 0 0 0 0 0 0 0 0 0 0 0 0 0 0 0 0 0 0 0 0 0 0 0 0 0 0 0 0 0 0 0 0 0 0 0 0 0 0 0 0 0 0 0 0 0 0 0 0 0 0 0 0 0 0 0 0 0 0 0 0 0 0 0 0 0 0 0 0 0 0 0 0 0 0 0 0 0 0 0 0 0 0 0 0 0 0 0 0 0 3304.28 2980.13 3097.14 3132.93 3205.48 2949.43 4727.17 4675.4 4658.53 4507.35 4056.8 3820.16 2976.06 2839.99 2801.21 2687.77 2586.54 2388.78 2300.23 2398.21 2212.04 2120.35 1803.26 2231.52 0
0 0 0 0 0 0 0 0 0 0 0 0 2482.04 2801.53 2804.16 2859.06 2950.46 2861.01 2916.46 2947.98 3058.96 3130.54 3107.98 3214.08 3220 3231.84 3183.52 3201.75 3306.62 3281.66 4159.28 3265.5 3238.39 3210.57 3205.42 3298.75 3250.25 2988.46 2901.53 2798.4 2536.72 2200.81 1935.77 1785.28 1574.06 1251.96 921.401 973.816 0 0 0 0 0 0 0 0 0 0 0 0 0 0 0 0 0 0 0 0 0 0 0 0 0 0 0 0 0 0 0 0 0 0 0 0 0 0 0 0 0 0 0 0 0 0 0 0 0 0 0 0 0 0 0 0 0 0 0 0 0 0 0 3446.05 3760.82 3909.62 3881.76 4016.5 3961.5 3814.6 3824.07 3700.51 3708.77 3711.4 3733.87 3704.11 3610.92 3552.96 3628.8 3532.24 3487.31 3610.53 3382.48 3283.07 3138.68 3239.71 3155.62 2877.94 3321.35 3346.19 0 0 0 0 0 0 0 0 0 0 0 0 0 0 0 0 0 0 0 0 0 0 0 0 0 0 0 0 0 0 0 0 0 0 0 0 0 0 0 0 0 0 0 0 0 0 0 0 0 2837.5 3074.72 3195.59 3392.67 3271.54 3642.67 3488.83 3584.92 3724 3711.65 3645.52 3639.98 3116.12 3114.04 2485.39 2739.69 0 1696.09 1433.55 1809.7 1686.14 0 0 0 0 0 0 0 0 0 0 0 0 0 0 0 0 0 0 0 0 0 0 0 0 0 0 0 0 0 0 0 0 0 0 0 0 0 0 0 0 0 0 0 0 0 0 0 0 0 0 0 0 0 0 0 0 0 0 0 0 0 0 0 0 0 0 0 0 0 0 0 0 0 0 0 0 0 0 0 0 0 0 0 0 0 0 0 0 0 0 0 0 0 0 0 0 0 0 0 0 0 0 0 2500.91 2645.43 2733.44 2429.74 2560.41 2819.57 2918.34 2898.42 2781.33 2910.69 3058.41 3136.92 3290.15 3325.82 3335.34 3314.26 3327.47 3397.62 3489.92 3373.16 3310.6 3191.33 3274.23 3197.29 3256.24 3198.02 3250.12 2799.94 2566.32 2690.96 3028.43 2603.6 2329.06 1964.76 0 0 0 0 0 0 0 0 0 0 0 0 0 0 0 0 0 0 0 0 0 0 0 0 0 0 0 0 0 0 0 0 0 0 0 0 0 0 0 0 0 0 0 0 0 0 0 0 0 0 0 0 0 0 0 0 0 0 0 0 0 0 0 0 0 0 0 0 0 0 0 0 0 0 0 0 0 0 0 0 0 0 0 0 0 0 0 0 0 0 0 0 0 0 0 0 0 0 0 0 0 0 0 0 0 0 0 0 0 0 0 0 0 0 0 0 0 0 0 0 0 0 0 0 0 0 0 0 0 0 0 0 0 0 0 0 0 0 0 0 0 0 2996.89 2730.15 2845.24 2898.42 2939.81 2713.02 2773.15 4704.5 4677.88 4597 3959.16 3907.07 2900.58 2819.57 2773.61 2654.47 2509.55 2349.71 2343.44 2466.82 2233.71 2128.15 1708.96 2186.13 0
0 0 0 0 0 0 0 0 0 0 0 1997.46 2540.75 2908.12 2931.9 3087.11 3153.96 2967 3077.31 3108.15 3197.23 3277.55 3221.3 3311.45 3320.56 3292.02 3278 3265.81 3355.29 3354.01 3337.6 3351.4 3319.44 3214.38 3229.23 3292.34 3256.62 2974.47 2812.62 2705.75 2316.87 1920.66 1599.16 1419.74 1271.72 966.379 763.24 642.737 0 0 0 0 0 0 0 0 0 0 0 0 0 0 0 0 0 0 0 0 0 0 0 0 0 0 0 0 0 0 0 0 0 0 0 0 0 0 0 0 0 0 0 0 0 0 0 0 0 0 0 0 0 0 0 0 0 0 0 0 0 0 0 3383.91 3670.56 3948.07 3996.32 4221.45 4096.12 3829.05 3851.11 3769.43 3792.44 3808.02 3788.67 3766.81 3664.71 3588.14 3687.26 3567.76 3436.87 3545.37 3323.52 3285.83 3069.32 3050.57 2993.53 2673.16 3369.91 3558.08 0 0 0 0 0 0 0 0 0 0 0 0 0 0 0 0 0 0 0 0 0 0 0 0 0 0 0 0 0 0 0 0 0 0 0 0 0 0 0 0 0 0 0 0 0 0 0 0 3008.93 3015.48 3371.88 3523.56 3576.74 3412.34 3610.06 3529.56 3510.58 3603.55 3562.31 3442.8 3326.02 2925.16 2857.55 2441.09 2338.64 2111.67 1621.31 1582.9 1534.22 1415.38 0 0 0 0 0 0 0 0 0 0 0 0 0 0 0 0 0 0 0 0 0 0 0 0 0 0 0 0 0 0 0 0 0 0 0 0 0 0 0 0 0 0 0 0 0 0 0 0 0 0 0 0 0 0 0 0 0 0 0 0 0 0 0 0 0 0 0 0 0 0 0 0 0 0 0 0 0 0 0 0 0 0 0 0 0 0 0 0 0 0 0 0 0 0 0 0 0 0 0 0 0 0 0 0 2433.55 2764.88 2444.75 2534.92 2658.59 2822.08 2747.45 2634.96 2860.08 2973.68 2996.89 3191.7 3252.46 3273.59 3200.53 3265.37 3357.03 3436.31 3384.8 3373.64 3235.77 3368.56 3265.81 3379.96 3354.82 3410.12 2898.88 2452.26 2514.63 2920.83 2373.85 2494.63 2475.08 0 0 0 0 0 0 0 0 0 0 0 0 0 0 0 0 0 0 0 0 0 0 0 0 0 0 0 0 0 0 0 0 0 0 0 0 0 0 0 0 0 0 0 0 0 0 0 0 0 0 0 0 0 0 0 0 0 0 0 0 0 0 0 0 0 0 0 0 0 0 0 0 0 0 0 0 0 0 0 0 0 0 0 0 0 0 0 0 0 0 0 0 0 0 0 0 0 0 0 0 0 0 0 0 0 0 0 0 0 0 0 0 0 0 0 0 0 0 0 0 0 0 0 0 0 0 0 0 0 0 0 0 0 0 0 0 0 0 0 0 0 0 2947.46 2697.18 2896.67 2915.25 2910.74 2770.26 2742.69 2807.86 4791.02 4782.69 4059.75 2932.62 2952.59 2861.3 2770.68 2660.15 2579.1 2344.95 2234.82 2394 2420.8 0 0 0 0
0 0 0 0 0 0 0 0 0 0 0 0 2335.74 2764.42 2855.56 2797.52 2998.02 2792.63 2892.93 3004.35 3079.51 3189.51 3152.06 3281.91 3278.32 3266.26 3298.69 3304.28 3375.27 3383.98 3342.59 3349.73 3298.23 3247.48 3266.39 3283.2 3246.98 3031.55 2926.33 2782.49 2366.38 1938.07 1555.04 1404.38 1354.64 1088.4 878.635 0 0 0 0 0 0 0 0 0 0 0 0 0 0 0 0 0 0 0 0 0 0 0 0 0 0 0 0 0 0 0 0 0 0 0 0 0 0 0 0 0 0 0 0 0 0 0 0 0 0 0 0 0 0 0 0 0 0 0 0 0 0 0 0 3544.25 3833.77 4050.05 3987.96 4231.67 4037.67 3781.41 3723.01 3662.47 3723.26 3734.95 3688.8 3642.35 3557.85 3517.72 3598.45 3507.57 3381.05 3442.23 3190.3 3204.44 3004.03 2953.06 2784.47 2545.11 3294.8 0 0 0 0 0 0 0 0 0 0 0 0 0 0 0 0 0 0 0 0 0 0 0 0 0 0 0 0 0 0 0 0 0 0 0 0 0 0 0 0 0 0 0 0 0 0 0 2434.93 2486.64 2978.8 3055.07 3395.83 3435.46 3442.65 3292.22 3418.87 3382.21 3417.27 3453.64 3465.62 3328.27 3297.26 3101.09 3142.32 2958.27 3027.39 2975.32 2476.03 2522.64 2272.5 2100.68 0 0 0 0 0 0 0 0 0 0 0 0 0 0 0 0 0 0 0 0 0 0 0 0 0 0 0 0 0 0 0 0 0 0 0 0 0 0 0 0 0 0 0 0 0 0 0 0 0 0 0 0 0 0 0 0 0 0 0 0 0 0 0 0 0 0 0 0 0 0 0 0 0 0 0 0 0 0 0 0 0 0 0 0 0 0 0 0 0 0 0 0 0 0 0 0 0 0 0 0 0 0 0 0 2057.48 2307.19 2208.86 2378.49 2532.12 2716.79 2654.47 2501.66 2812.9 2938.27 2987.45 3166.34 3219.69 3230.29 3156.87 3237.89 3351.33 3419.08 3308.71 3260.55 3132.35 3282.68 3175.03 3310.73 3217.53 3107.06 2729.26 2450.22 2404.32 2661.08 0 0 0 0 0 0 0 0 0 0 0 0 0 0 0 0 0 0 0 0 0 0 0 0 0 0 0 0 0 0 0 0 0 0 0 0 0 0 0 0 0 0 0 0 0 0 0 0 0 0 0 0 0 0 0 0 0 0 0 0 0 0 0 0 0 0 0 0 0 0 0 0 0 0 0 0 0 0 0 0 0 0 0 0 0 0 0 0 0 0 0 0 0 0 0 0 0 0 0 0 0 0 0 0 0 0 0 0 0 0 0 0 0 0 0 0 0 0 0 0 0 0 0 0 0 0 0 0 0 0 0 0 0 0 0 0 0 0 0 0 0 0 0 0 0 0 2820.56 3034.18 3092.97 2942.7 2705.62 2547.12 2578.75 2777.88 2709.47 2893.88 2726.29 2727.17 2768.94 2654.05 2651.53 2693.63 2385.49 2316.55 2362.51 2479.25 0 0 0 0
0 0 0 0 0 0 0 0 0 0 0 0 2007.24 2312.66 2483.73 2408.05 2716.88 2532.2 2591.25 2863.75 2940.69 3001.45 3023.25 3144.62 3180.14 3219.01 3247.11 3252.14 3689.69 3383.57 3364.84 3406.73 3366.8 3352.87 3336.67 3338.93 3356.63 3078.38 2865.21 2698.75 2073.01 1643.03 1080.54 1029.68 0 0 0 0 0 0 0 0 0 0 0 0 0 0 0 0 0 0 0 0 0 0 0 0 0 0 0 0 0 0 0 0 0 0 0 0 0 0 0 0 0 0 0 0 0 0 0 0 0 0 0 0 0 0 0 0 0 0 0 0 0 0 0 0 3130.95 3506.99 4020.26 3812.6 3888.69 4231.13 4088.64 4265.45 4159.39 3868.16 3760.23 3711.81 3762 3747.79 3720.78 3703.62 3617.22 3538.12 3624.96 3542.38 3452.15 3495.59 3276.85 3236.83 2963.6 2990.06 2983.68 2859.16 0 0 0 0 0 0 0 0 0 0 0 0 0 0 0 0 0 0 0 0 0 0 0 0 0 0 0 0 0 0 0 0 0 0 0 0 0 0 0 0 0 0 0 0 0 0 0 0 2626.17 2536.68 2861.5 3012.01 3235.9 3306.68 3299.92 3134.1 3267.02 3199.18 3251.89 3272.69 3282.1 3200.77 3175.63 3070.27 3173.89 3099.71 3264.73 3261.88 3143.21 3188.66 2905.3 2821.51 0 2703.88 2224.18 1405.11 2003.43 0 0 2597.19 0 0 0 0 0 0 0 0 0 0 0 0 0 0 0 0 0 0 0 0 0 0 0 0 0 0 0 0 0 0 0 0 0 0 0 0 0 0 0 0 0 0 0 0 0 0 0 0 0 0 0 0 0 0 0 0 0 0 0 0 0 0 0 0 0 0 0 0 0 0 0 0 0 0 0 0 0 0 0 0 0 0 0 0 0 0 0 0 0 0 0 0 0 0 0 0 1667.01 0 1852.15 2217.48 2316.07 2639.85 2686.39 2511.88 2817.1 2971.63 3036.93 3237.14 3297.39 3291.83 3152.54 3172.63 3343.39 3447.96 3292.6 3283.9 3188.6 3295.13 3260.1 3427.25 3467.34 0 0 0 3138.21 0 0 0 0 0 0 0 0 0 0 0 0 0 0 0 0 0 0 0 0 0 0 0 0 0 0 0 0 0 0 0 0 0 0 0 0 0 0 0 0 0 0 0 0 0 0 0 0 0 0 0 0 0 0 0 0 0 0 0 0 0 0 0 0 0 0 0 0 0 0 0 0 0 0 0 0 0 0 0 0 0 0 0 0 0 0 0 0 0 0 0 0 0 0 0 0 0 0 0 0 0 0 0 0 0 0 0 0 0 0 0 0 0 0 0 0 0 0 0 0 0 0 0 0 0 0 0 0 0 0 0 0 0 0 0 0 0 0 0 0 0 0 0 0 0 0 0 0 2964.17 3028.65 2879.27 2473.19 2236.01 2228.82 2223.86 2039.89 2159.23 2160.96 2153.11 2280.72 2250.46 2333.31 2435.46 2304.37 2482.7 2754.08 2567.7 0 0 0 0
0 0 0 0 0 0 0 0 0 0 0 0 1786.71 2214.32 2266.15 2099.2 2440.2 2465.08 2511.96 3011.09 3014.39 3098.68 3084.44 3162.58 3228.05 3250.88 3235.02 3285.25 3306.68 3390.07 3384.94 3440.11 3443.43 3415.81 3425.85 3416.58 3433.43 3144.15 2845 2674.4 2088.88 1584.71 1096.67 1016.28 1035.6 842.674 0 0 0 0 0 0 0 0 0 0 0 0 0 0 0 0 0 0 0 0 0 0 0 0 0 0 0 0 0 0 0 0 0 0 0 0 0 0 0 0 0 0 0 0 0 0 0 0 0 0 0 0 0 0 0 0 0 0 0 0 0 0 0 3258.71 3513.15 3563.67 3583.77 3904.25 3990.71 4387.82 4176.47 3967.31 3819.46 3785.76 3783.97 3876.92 3898.54 3811.74 3672.89 3612.24 3604.87 3576.89 3467.84 3627.62 3360.93 3251.89 3004.95 3014.39 3013.53 3166.7 0 0 0 0 0 0 0 0 0 0 0 0 0 0 0 0 0 0 0 0 0 0 0 0 0 0 0 0 0 0 0 0 0 0 0 0 0 0 0 0 0 0 0 0 0 0 2992.3 2925.72 2806.6 2817.01 3034.73 3191.45 3219.26 3228.92 3290.54 3155.8 3323.85 3301.93 3317.67 3378.6 3358.98 3302.71 3252.9 3123.89 3231.84 3171.13 3228.86 3231.41 2951.87 2956.44 2819.38 2713.94 2426.44 2227.72 1833.89 1376.52 0 0 0 0 0 0 0 0 0 2133.34 2109.39 2301.96 2113.64 2158.95 1873.64 1952.96 0 0 0 0 0 0 0 0 0 0 0 0 0 0 0 0 0 0 0 0 0 0 0 0 0 0 0 0 0 0 0 0 0 0 0 0 0 0 0 0 0 0 0 0 0 0 0 0 0 0 0 0 0 0 0 0 0 0 0 0 0 0 0 0 0 0 0 0 0 0 0 0 0 0 0 0 0 0 0 0 0 0 0 0 1024.76 0 1486.23 2074.21 2103.89 2492.74 2509.21 2373.51 2714.16 2846.06 2939.76 3056.85 3022.16 3112.77 2918.59 2985.38 3158.83 3253.65 3101.32 3092 3070.61 3258.14 3281.08 3460.33 3476.25 3530.08 0 0 3412.48 0 0 0 0 0 0 0 0 0 0 0 0 0 0 0 0 0 0 0 0 0 0 0 0 0 0 0 0 0 0 0 0 0 0 0 0 0 0 0 0 0 0 0 0 0 0 0 0 0 0 0 0 0 0 0 0 0 0 0 0 0 0 0 0 0 0 0 0 0 0 0 0 0 0 0 0 0 0 0 0 0 0 0 0 0 0 0 0 0 0 0 0 0 0 0 0 0 0 0 0 0 0 0 0 0 0 0 0 0 0 0 0 0 0 0 0 0 0 0 0 0 0 0 0 0 0 0 0 0 0 0 0 0 0 0 0 0 0 0 0 0 0 0 0 0 0 0 0 0 0 0 0 0 1943.51 2015.58 1917.61 2049.13 2234.67 2110.51 2176.91 2233.86 2315.69 2370.12 2298.72 2654.22 0 2529.15 0 0 0 0
0 0 0 0 0 0 0 0 0 0 0 0 1722.4 2084.39 2164.89 2117.51 2364.71 2469.11 2496.78 2903.69 2952.54 3031.77 3021.99 3027.5 3149.28 3191.82 3172.75 3172.93 3181.41 3285 3286.41 3356.77 3401.27 3317.41 3273.46 3286.73 3428.86 3228.86 2896.42 2654.3 2049.23 1656.51 1151.59 1097.44 0 0 0 0 0 0 0 0 0 0 0 0 0 0 1737.22 0 0 0 0 0 0 0 0 0 0 0 0 0 0 0 0 0 0 0 0 0 0 0 0 0 0 0 0 0 0 0 0 0 0 0 0 0 0 0 0 0 744.217 737.345 926.121 1230.31 0 0 2041.03 1809.43 2399.17 2725.71 2998.88 3070.44 3165.8 3545.3 3788.41 4220.6 4190.66 4052.1 4005.38 3937.51 3975.11 4114.3 4154.75 4054.55 3889.05 3789.53 3760.73 3710.25 3656.96 3731.04 3411.71 3266 2979.7 2911.1 2843.46 0 0 0 0 0 0 0 0 0 0 0 0 0 0 0 0 0 0 0 0 0 0 0 0 0 0 0 0 0 0 0 0 0 0 0 0 0 0 0 0 0 0 0 0 0 1984.07 2622.6 3069.32 3180.56 3044.7 2779.86 3015.69 3101.43 3168.61 3220.31 3219.56 3158.35 3228.8 3217.84 3268.49 3303.23 3330.38 3277.81 3238.27 3175.93 3228.36 3185.09 3251.7 3247.99 3014.83 3002.36 2835.05 2804.81 2641.81 2618.47 2280.07 1764.29 2545.03 3134.46 0 3104.41 0 0 0 0 0 2535.49 2406.15 2562.99 2447.46 2464.43 2203.93 2181.5 1930.2 2049.86 2036.74 0 0 1405.41 0 0 0 0 0 0 0 0 0 0 0 0 0 0 0 0 0 0 0 0 0 0 0 0 0 0 0 0 0 0 0 0 0 0 0 0 0 0 0 0 0 0 0 0 0 0 0 0 0 0 0 0 0 0 0 0 0 0 0 0 0 0 0 0 0 0 0 0 0 0 0 0 0 0 0 0 0 0 0 0 0 1998.72 1971.43 2381.49 2664.93 2445.29 2790.45 2851.96 2913.73 2912.77 2825.93 2979.39 2768.98 2661.46 2897.12 2973.05 2880.71 2895.42 3043.1 3233.15 3122.09 3223.4 3254.29 0 0 0 0 0 0 0 0 0 0 0 0 0 0 0 0 0 0 0 0 0 0 0 0 0 0 0 0 0 0 0 0 0 0 0 0 0 0 0 0 0 0 0 0 0 0 0 0 0 0 0 0 0 0 0 0 0 0 0 0 0 0 0 0 0 0 0 0 0 0 0 0 0 0 0 0 0 0 0 0 0 0 0 0 0 0 0 0 0 0 0 0 0 0 0 0 0 0 0 0 0 0 0 0 0 0 0 0 0 0 0 0 0 0 0 0 0 0 0 0 0 0 0 0 0 0 0 0 0 0 0 0 0 0 0 0 0 0 0 0 0 0 0 0 0 0 0 0 0 0 0 0 0 0 0 0 0 0 1605.87 1629.15 1591.35 1682.99 1516.28 1669.41 0 1859.97 0 0 0 0 0 0 0 0 0
0 0 0 0 0 0 0 0 0 0 0 0 0 0 2216.39 2319.11 2518.25 2589.65 2649.15 3015.31 3057.4 3145.27 3052.4 3024.55 3155.09 3272.06 3273.65 3240.14 3238.33 3263.15 3272.06 3353.88 3440.54 3351.07 3330.58 3322.99 3423.9 3199.24 2992.4 2637.69 2133.1 1742.94 1252.34 1342.9 1434.63 1581.82 0 0 0 0 0 0 0 0 0 0 0 0 2036.77 2029.99 0 0 0 0 0 0 0 0 0 0 0 0 0 0 0 0 0 0 0 0 0 0 0 0 0 0 0 0 0 0 0 0 0 0 0 0 0 1173.14 1271.27 1258.74 1072.67 1360.54 1443.92 1747.84 0 2015.17 2445.18 2382 2574.43 2683.51 2665.56 2835.58 2790.63 3057.79 3328.79 3712.88 3711.73 3756.86 3724.25 3691.39 3685.23 3987.58 3969.46 3970.5 3810.18 3730.96 3670.48 3737.61 3721.86 3866.55 3584.38 3489.7 3214.75 3015.91 3020.31 3400.86 0 0 0 0 0 0 0 0 0 0 0 0 0 0 0 0 0 0 0 0 0 0 0 0 0 0 0 0 0 0 0 0 0 0 0 0 0 0 0 0 0 0 0 0 2492.11 2837.06 3212.6 3360.66 3340.59 3086.6 3219.26 3092.74 3167.53 3187.94 3271.74 3246.67 3262 3234.9 3277.81 3298.95 3363.9 3333.16 3323.58 3280.82 3310.8 3290.67 3335.48 3327.74 3218.7 3158.59 2930.42 2814.55 2594.42 2632.6 2239.32 1852.07 3041.06 3012.61 0 0 3303.1 3178.76 2865.46 2845.29 2855.9 2451 2550.37 2569.86 2483.92 2468.97 2128.31 2184.39 2025.97 2076.24 2064.31 1766.75 1574.59 1469.71 1283.64 0 0 0 0 0 0 0 0 0 0 0 0 0 0 0 0 0 0 0 0 0 0 0 0 0 0 0 0 0 0 0 0 0 0 0 0 0 0 0 0 0 0 0 0 0 0 0 0 0 0 0 0 0 0 0 0 0 0 0 0 0 0 0 0 0 0 0 0 0 0 0 0 0 0 0 0 0 0 0 0 0 2023.92 2452.94 2688.97 2515.76 2790.4 2854.78 2831.6 2715.39 2622.44 2801.25 2445.89 2329.09 2497.22 2632.6 2548.35 2612.92 2783.32 3027.67 2896.42 0 0 0 0 0 0 0 0 0 0 0 0 0 0 0 0 0 0 0 0 0 0 0 0 0 0 0 0 0 0 0 0 0 0 0 0 0 0 0 0 0 0 0 0 0 0 0 0 0 0 0 0 0 0 0 0 0 0 0 0 0 0 0 0 0 0 0 0 0 0 0 0 0 0 0 0 0 0 0 0 0 0 0 0 0 0 0 0 0 0 0 0 0 0 0 0 0 0 0 0 0 0 0 0 0 0 0 0 0 0 0 0 0 0 0 0 0 0 0 0 0 0 0 0 0 0 0 0 0 0 0 0 0 0 0 0 0 0 0 0 0 0 0 0 0 0 0 0 0 0 0 0 0 0 0 0 0 0 0 0 0 1461.49 1473.22 0 0 0 0 0 0 0 0 0 0 0 0 0 0
0 0 0 0 0 0 0 0 0 0 0 0 0 0 1774.84 1924.31 2110.98 2414.25 2563.73 3091.6 3274.8 3228.73 3163.95 3184.97 3254.54 3443.71 3428.58 3329.45 3318.98 3327.54 3388.83 3504.42 3523.63 3468.42 3375.34 3357.64 3491.3 3341.59 3182.25 2956.5 2457.43 2177.56 1637.37 1613.94 1792.78 2160.51 0 0 0 0 0 0 0 2692.12 2522.45 2597.07 2457.29 2385.35 2166.76 2260.44 2126.66 2441.41 0 0 0 0 0 0 0 0 0 0 0 0 0 0 0 0 0 0 0 0 0 0 0 0 0 0 0 0 0 0 0 0 0 0 0 0 0 0 1307.55 1641.87 1678.7 2018.32 2224.53 2475.12 2942.65 2809.09 2835.48 2884.87 2748.44 2828.22 2824.22 3059.69 3306.29 3466.48 3512.05 3684.26 3582.62 3599.61 3619.72 3900.8 3816.85 3863.17 3755.26 3728.8 3583.23 3760.56 3749.3 3929.12 3679.9 3646.94 3280.82 2898.93 2770.49 3168.85 0 0 0 0 0 0 0 0 0 0 0 0 0 0 0 0 0 0 0 0 0 0 0 0 0 0 0 0 0 0 0 0 0 0 0 0 0 0 0 0 0 0 0 0 0 3219.5 3710.83 3805.51 3724.91 3440.89 3511.1 3403.41 3315.24 3255.99 3276.08 3270.27 3250.44 3254.03 3225.57 3239.58 3262.89 3291.63 3303.95 3291.96 3300.51 3298.56 3299.66 3382.82 3278.51 3244.03 3030.51 2961.35 2757.15 2882.54 2494.59 2247.66 3258.52 2876.86 2661.97 3183.28 3035.39 2959.83 2792.67 2693.42 2691.56 2505.92 2647.85 2686.78 2605.94 2669.42 2380.72 2350.14 2217.56 2308.08 2205.27 2119.97 1955.78 1917.32 1732.13 0 0 0 0 0 0 0 0 0 0 0 0 0 0 0 0 0 0 0 0 0 0 0 0 0 0 0 0 0 0 0 0 0 0 0 0 0 0 0 0 0 0 0 0 0 0 0 0 0 0 0 0 0 0 0 0 0 0 0 0 0 0 0 0 0 0 0 0 0 0 0 0 0 0 0 0 0 0 0 0 0 0 0 0 2028.96 2198.53 2309.92 2396.39 2318.38 2154.05 2305.79 2042.3 1897.33 2115.51 2282.64 2227.66 2268.72 2332.33 2498.08 2407.43 0 0 0 0 0 0 0 0 0 0 0 0 0 0 0 0 0 0 0 0 0 0 0 0 0 0 0 0 0 0 0 0 0 0 0 0 0 0 0 0 0 0 0 0 0 0 0 0 0 0 0 0 0 0 0 0 0 0 0 0 0 0 0 0 0 0 0 0 0 0 0 0 0 0 0 0 0 0 0 0 0 0 0 0 0 0 0 0 0 0 0 0 0 0 0 0 0 0 0 0 0 0 0 0 0 0 0 0 0 0 0 0 0 0 0 0 0 0 0 0 0 0 0 0 0 0 0 0 0 0 0 0 0 0 0 0 0 0 0 0 0 0 0 0 0 0 0 0 0 0 0 0 0 0 0 0 0 0 0 0 0 0 0 0 0 0 0 0 0 0 0 0 0 0 0 0 0
0 0 0 0 0 0 0 0 0 0 0 0 0 0 0 1743.83 2007.36 2438.15 2596.23 3255.8 3339.33 3104.99 3093.65 3119.71 3215.55 3304.67 3317.67 3199.85 3092.23 3158.65 3277.3 3336.27 3368.83 3253.28 3257.13 3136.33 3281.91 3265.05 2940.69 2683.55 2234.96 1880.3 1721.04 1759.83 1716.53 2190.87 2134.67 0 1841.28 0 0 2740.54 2582.72 2654.51 2539.44 2605.7 2621.29 2667.26 2384.24 2464.72 2378.62 2601.38 0 0 0 0 0 0 0 0 0 0 0 0 0 0 0 0 0 0 0 0 0 0 0 0 0 0 0 0 0 0 0 0 0 0 0 0 0 1689.87 1591.83 1899.52 2003.38 2324 2430.34 2656.19 3013.69 3032.54 3051.68 3043.48 2885.61 3068.03 3047.85 3212.6 3339.33 3401.61 3405 3634.07 3583.08 3571.94 3530.75 3776.39 3726.9 3732.21 3643.85 3679.09 3565.11 3688.88 3713.54 3843.52 3638.64 3571.56 3220.62 2803.59 2603.07 2737.18 0 0 0 0 0 0 0 0 0 0 0 0 0 0 0 0 0 0 0 0 0 0 0 0 0 0 0 0 0 0 0 0 0 0 0 0 0 0 0 0 0 0 0 0 0 2897.12 3341.66 3478.27 3594.05 3400.72 3483.32 3456.2 3359.92 3293.96 3279.09 3280.5 3245.6 3238.83 3194.25 3232.72 3261.31 3288.28 3280.56 3270.08 3256.43 3280.63 3277.49 3360.26 3204.5 3092.85 2899.53 2854.97 2642.6 2716.18 2304.91 2048.83 2637.44 2503.33 2530.67 2989.53 3082.4 2966.16 2815.78 2742.1 2734.59 2645.68 2835.48 2798.59 2734.28 2786.32 2653.8 2614.27 2505.65 2635.29 2533.19 2279.14 2233.09 2198.04 1921.56 0 0 0 0 0 0 0 0 0 0 0 0 0 0 0 0 0 0 0 0 0 0 0 0 0 0 0 0 0 0 0 0 0 0 0 0 0 0 0 0 0 0 0 0 0 0 0 0 0 0 0 0 0 0 0 0 0 0 0 0 0 0 0 0 0 0 0 0 0 0 0 0 0 0 0 0 0 0 0 0 0 0 0 0 1862.41 0 2560.96 2618.18 2531.55 2236.78 2271.85 1895.38 1770.77 2180.3 2329.61 2049.93 2022.21 2089.43 2249.44 0 0 0 0 0 0 0 0 0 0 0 0 0 0 0 0 0 0 0 0 0 0 0 0 0 0 0 0 0 0 0 0 0 0 0 0 0 0 0 0 0 0 0 0 0 0 0 0 0 0 0 0 0 0 0 0 0 0 0 0 0 0 0 0 0 0 0 0 0 0 0 0 0 0 0 0 0 0 0 0 0 0 0 0 0 0 0 0 0 0 0 0 0 0 0 0 0 0 0 0 0 0 0 0 0 0 0 0 0 0 0 0 0 0 0 0 0 0 0 0 0 0 0 0 0 0 0 0 0 0 0 0 0 0 0 0 0 0 0 0 0 0 0 0 0 0 0 0 0 0 0 0 0 0 0 0 0 0 0 0 0 0 0 0 0 0 0 0 0 0 0 0 0 0 0 0 0 0
0 0 0 0 0 0 0 0 0 0 0 0 0 0 0 1862.12 2070.48 2512.9 2662.43 3142.03 3160.49 2880.91 2939.92 2985.59 3183.76 3263.78 3382.28 3322.79 3289.57 3358.65 3544.7 3667.91 3705.33 3508.53 3566.17 3369.98 3554.39 3611.38 3381.73 3096.79 2473.7 2015.36 0 2002.25 2057.58 2412.03 2310.65 2339.81 2133.59 2602.55 2691.56 2705.58 2796.72 2769.21 2598.92 2575.74 2542.87 2700.61 2402.98 2524.73 2538.64 2610.08 2578.67 0 0 0 0 0 0 0 0 0 0 0 0 0 0 0 0 0 0 0 0 0 0 0 0 0 0 0 0 0 0 0 0 0 0 0 0 2100.75 1974.4 2200.09 2283.73 2580.25 2732.59 2806.45 3050.79 3113.52 3135.92 3058.41 2900.78 3038.96 2996.84 3073.87 3184.67 3181.65 3184.61 3393.15 3561.02 3611.93 3624.18 3842.11 3710.66 3781.24 3748.21 3853.85 3745.45 3767.23 3782.01 3931.88 3761.49 3861.92 3375.74 2928.27 2745.69 3029.47 0 0 0 0 0 0 0 0 0 0 0 0 0 0 0 0 0 0 0 0 0 0 0 0 0 0 0 0 0 0 0 0 0 0 0 0 0 0 0 0 0 0 0 0 0 0 3734.12 3812.08 3939.73 3655.76 3745.28 3703.86 3531.27 3381.46 3305.38 3250.06 3202.42 3223.15 3170.77 3238.14 3265.11 3268.55 3319.51 3338.13 3355.76 3384.6 3306.36 3385.96 3098.22 2934.52 2787.8 2592.65 2371.6 2404.7 2042.87 1888.96 2523.14 2766.52 2842.45 3122.21 3260.1 3201.87 3090.52 3165.86 3141.97 3000.27 3069.09 3129.14 3157.64 3209.46 3165.5 3093.77 2847.61 2972.37 2792.91 2671.97 2469.15 2349.58 0 0 0 0 0 0 0 0 0 0 0 0 0 0 0 0 0 0 0 0 0 0 0 0 0 0 0 0 0 0 0 0 0 0 0 0 0 0 0 0 0 0 0 0 0 0 0 0 0 0 0 0 0 0 0 0 0 0 0 0 0 0 0 0 0 0 0 0 0 0 0 0 0 0 0 0 0 0 0 0 0 0 0 0 0 0 0 2825.74 2907.31 2755.7 2518.55 2552.35 2189.12 0 0 0 0 0 0 0 0 0 0 0 0 0 0 0 0 0 0 0 0 0 0 0 0 0 0 0 0 0 0 0 0 0 0 0 0 0 0 0 0 0 0 0 0 0 0 0 0 0 0 0 0 0 0 0 0 0 0 0 0 0 0 0 0 0 0 0 0 0 0 0 0 0 0 0 0 0 0 0 0 0 0 0 0 0 0 0 0 0 0 0 0 0 0 0 0 0 0 0 0 0 0 0 0 0 0 0 0 0 0 0 0 0 0 0 0 0 0 0 0 0 0 0 0 0 0 0 0 0 0 0 0 0 0 0 0 0 0 0 0 0 0 0 0 0 0 0 0 0 0 0 0 0 0 0 0 0 0 0 0 0 0 0 0 0 0 0 0 0 0 0 0 0 0 0 0 0 0 0 0 0 0 0 0 0
0 0 0 0 0 0 0 0 0 0 0 0 0 0 0 0 0 2178.27 2115.43 2326.19 2425.46 2269.12 2426.69 2401.16 2748.84 2918.49 3148.34 3122.67 3161.92 3236.08 3480.36 3581.17 3690.18 3527.78 3565.57 3232.34 3530.38 3571.87 3299.21 0 0 0 0 0 2002.42 2329.68 2143.02 2185.64 2174.23 2386.07 2522.53 2552.11 2745.6 2754.03 2554.37 2649.02 2708.2 2814.84 2631.94 2694.93 2699.96 2639.06 2672.95 0 0 0 0 0 0 0 0 0 0 0 0 0 0 0 0 0 0 0 0 0 0 0 0 0 0 0 0 0 0 0 0 0 0 0 2262.21 2301.81 2354.42 2603.15 2714.51 3009.96 3079.12 3152.36 3364.64 3420.55 3458.41 3330.11 3205.72 3289.96 3320.23 3380.03 3402.37 3283.84 3222.53 3344.52 3432.65 3430.27 3342.19 3487.89 3383.78 3379.62 3485.2 3586.6 3392.26 3595.29 3643.62 3908.34 3590.52 3462.05 3017.59 2695.36 2484.8 0 0 0 0 0 0 0 0 0 0 0 0 0 0 0 0 0 0 0 0 0 0 0 0 0 0 0 0 0 0 0 0 0 0 0 0 0 0 0 0 0 0 0 0 0 0 0 3890.31 3874.5 3974.73 3744.53 3773.93 3776.22 3525.48 3389.18 3291.05 3259.98 3204.44 3231.1 3189.94 3280.18 3300.64 3335.88 3389.59 3431.53 3460.41 3523.85 3444.85 3519.79 3195.1 2978.01 2845.39 2559.94 2341.84 2293.63 1958.73 1936.15 2704.79 2853.52 3003.71 3189.51 3335.68 3248.36 3085.4 3084.27 2999.68 2915.8 2941.26 3000.86 3031.5 3026.85 2995.02 2970.58 2856.48 2979.07 2731.39 2764.42 2533.12 2483.8 2019.46 2050.16 0 0 0 0 0 0 0 0 0 0 0 0 0 0 0 0 0 0 0 0 0 0 0 0 0 0 0 0 0 0 0 0 0 0 0 0 0 0 0 0 0 0 0 0 0 0 0 0 0 0 0 0 0 0 0 0 0 0 0 0 0 0 0 0 0 0 0 0 0 0 0 0 0 0 0 0 0 0 0 0 0 0 0 0 0 0 0 0 0 0 0 0 0 0 0 0 0 0 0 0 0 0 0 0 0 0 0 0 0 0 0 0 0 0 0 0 0 0 0 0 0 0 0 0 0 0 0 0 0 0 0 0 0 0 0 0 0 0 0 0 0 0 0 0 0 0 0 0 0 0 0 0 0 0 0 0 0 0 0 0 0 0 0 0 0 0 0 0 0 0 0 0 0 0 0 0 0 0 0 0 0 0 0 0 0 0 0 0 0 0 0 0 0 0 0 0 0 0 0 0 0 0 0 0 0 0 0 0 0 0 0 0 0 0 0 0 0 0 0 0 0 0 0 0 0 0 0 0 0 0 0 0 0 0 0 0 0 0 0 0 0 0 0 0 0 0 0 0 0 0 0 0 0 0 0 0 0 0 0 0 0 0 0 0 0 0 0 0 0 0 0 0 0 0 0 0
0 0 0 0 0 0 0 0 0 0 0 0 0 0 0 0 0 0 2032.11 2148.97 2283.82 2038.97 2306.87 2288.81 2721.42 2933.03 2988.94 2955.61 3093.31 3179.6 3492.17 3585.91 3791.67 3510.73 3579.64 3251.13 0 0 0 0 0 2394.89 0 2254.27 2202.43 2472.42 2275.71 2316.55 2298.28 2595.78 2605.66 2661.5 2903.84 3004.46 2835.34 2893.53 2848.19 2960.25 2730.68 2782.62 2820.04 2599.64 2545.53 2861.3 2888.64 3259.53 0 0 1628.88 0 0 0 0 0 0 0 0 0 0 0 0 0 0 0 0 0 0 0 0 0 0 0 0 0 0 0 0 2272.69 2313.49 2327.74 2400.88 2681.41 2780.96 2926.94 3031.28 3091.94 3307.47 3368.83 3387.33 3199.73 3050.18 3050.4 3119.59 3181.65 3151.53 3081.32 3106.25 3243.15 3547.85 3528.52 3539.02 3715.34 3760.31 3706.97 3718.97 3669.03 3509.92 3583.84 3723.59 4288.56 3961.5 3664.87 0 0 0 0 0 0 0 0 0 0 0 0 0 0 0 0 0 0 0 0 0 0 0 0 0 0 0 0 0 0 0 0 0 0 0 0 0 0 0 0 0 0 0 0 0 0 0 0 0 3477.19 0 3776.99 3979.92 3893.92 4409.85 3825.21 3600.84 3466.98 3348.26 3321.48 3267.72 3285.83 3173.29 3284.67 3307.08 3356.16 3389.25 3451.29 3471.5 3493.19 3395.49 3528.23 3208.3 3011.85 2895.42 2677.94 2402.26 2388.82 2246.97 2134.32 2787.11 2832.94 2977.17 3065.73 3184.79 3209.1 3014.99 3011.9 3021.67 2940.18 2986.12 3037.86 3139.56 3168.55 3129.37 3201.2 3114.73 3181.41 3001.18 3146.15 3005.97 2864.53 2595.7 0 0 0 0 0 0 0 0 0 0 0 0 0 0 0 0 0 0 0 0 0 0 0 0 0 0 0 0 0 0 0 0 0 0 0 0 0 0 0 0 0 0 0 0 0 0 0 0 0 0 0 0 0 0 0 0 0 0 0 0 0 0 0 0 0 0 0 0 0 0 0 0 0 0 0 0 0 0 0 0 0 0 0 0 0 0 0 0 0 0 0 0 0 0 0 0 0 0 0 0 0 0 0 0 0 0 0 0 0 0 0 0 0 0 0 0 0 0 0 0 0 0 0 0 0 0 0 0 0 0 0 0 0 0 0 0 0 0 0 0 0 0 0 0 0 0 0 0 0 0 0 0 0 0 0 0 0 0 0 0 0 0 0 0 0 0 0 0 0 0 0 0 0 0 0 0 0 0 0 0 0 0 0 0 0 0 0 0 0 0 0 0 0 0 0 0 0 0 0 0 0 0 0 0 0 0 0 0 0 0 0 0 0 0 0 0 0 0 0 0 0 0 0 0 0 0 0 0 0 0 0 0 0 0 0 0 0 0 0 0 0 0 0 0 0 0 0 0 0 0 0 0 0 0 0 0 0 0 0 0 0 0 0 0 0 0 0 0 0 0 0 0 0 0 0 0 0
0 0 0 0 0 0 0 0 0 0 0 0 0 0 0 0 0 0 0 0 0 0 2088.78 1902.04 2406.57 2661.63 2760.01 2772.78 3112.71 3059.35 3264.16 3225.38 3547.55 3227.49 0 0 0 0 0 0 0 0 0 0 2549.48 2621.91 2595.7 2582.88 2516.59 2686.13 2675.93 2805.09 2935.8 2973.1 2878.58 2857.79 2859.5 3020.74 2846.3 2879.92 2914.79 2730.59 2699.44 2931.8 2881.05 3138.85 2696.32 2694.59 0 0 0 0 0 0 0 0 0 0 0 0 0 0 0 0 0 0 0 0 0 0 0 0 0 0 0 0 2503.48 2566.44 2450.25 2499.75 2592.85 2773.52 2862.33 2948.44 3017.81 3096.45 3211.06 3309.75 3329.39 3133.69 3057.79 2935.44 2948.29 2938.94 2924.09 2807.44 2759.92 2831.32 3172.21 3080.81 3215.06 3525.56 3462.98 3198.33 3154.73 3075.56 2852.79 2779.77 3007.69 3491.51 0 0 0 0 0 0 0 0 0 0 0 0 0 0 0 0 0 0 0 0 0 0 0 0 0 0 0 0 0 0 0 0 0 0 0 0 0 0 0 0 0 0 0 0 0 0 0 0 0 0 0 0 0 3909.98 4036.7 3967.49 4466.07 3948.17 3736.44 3538.12 3370.93 3352.14 3278.19 3324.37 3196.5 3314.26 3290.21 3320.95 3362.75 3456.48 3480.43 3500.84 3366.13 3484.84 3073.31 2946.47 2873.46 2689.53 2468.6 2528.31 2560.8 2593.1 3205.23 2833.8 2979.44 3019 4738.92 3201.38 3067.18 3031.66 3010.44 2981.72 3130.48 3152.54 3265.37 3259.15 3252.83 3271.74 3260.42 3341.46 3173.89 3254.92 3134.81 2978.8 2828.6 0 0 0 0 0 0 0 0 0 0 0 0 0 0 0 0 0 0 0 0 0 0 0 0 0 0 0 0 0 0 0 0 0 0 0 0 0 0 0 0 0 0 0 0 0 0 0 0 0 0 0 0 0 0 0 0 0 0 0 0 0 0 0 0 0 0 0 0 0 0 0 0 0 0 0 0 0 0 0 0 0 0 0 0 0 0 0 0 0 0 0 0 0 0 0 0 0 0 0 0 0 0 0 0 0 0 0 0 0 0 0 0 0 0 0 0 0 0 0 0 0 0 0 0 0 0 0 0 0 0 0 0 0 0 0 0 0 0 0 0 0 0 0 0 0 0 0 0 0 0 0 0 0 0 0 0 0 0 0 0 0 0 0 0 0 0 0 0 0 0 0 0 0 0 0 0 0 0 0 0 0 0 0 0 0 0 0 0 0 0 0 0 0 0 0 0 0 0 0 0 0 0 0 0 0 0 0 0 0 0 0 0 0 0 0 0 0 0 0 0 0 0 0 0 0 0 0 0 0 0 0 0 0 0 0 0 0 0 0 0 0 0 0 0 0 0 0 0 0 0 0 0 0 0 0 0 0 0 0 0 0 0 0 0 0 0 0 0 0 0 0 0 0 0 0 0 0
0 0 0 0 0 0 0 0 0 0 0 0 0 0 0 0 0 0 0 0 0 0 0 1597.35 0 2586.86 2862.18 2676.75 2879.97 2810.59 3058.24 0 0 0 0 0 0 0 0 0 0 0 0 3103.61 2888.74 2853.18 2767.84 2716.66 2686.95 2717.94 2716.57 2823.84 2946.63 2992.83 2925.62 2925 2936.26 3069.09 2930.52 2928.27 2927.15 2769.21 2764.56 2940.54 2933.24 3135.86 2803.17 3036.21 2846.35 0 0 0 0 0 0 0 0 0 0 0 0 0 0 0 0 0 0 0 0 0 0 0 0 0 0 0 2579.42 2761.42 2642.51 2648.39 2765.79 2874.49 2962.08 2960.93 3026.25 3105.56 3211.06 4003.95 3310.6 3146.57 3098.11 2998.88 3088.47 3060.64 3020.25 2900.98 2877.5 2943.32 3215.12 3179.18 3244.59 3120.76 3023.14 2737.63 2707.94 2555.03 2298.62 2199.66 2480.24 2687.08 0 0 0 0 0 0 0 0 0 0 0 0 0 0 0 0 0 0 0 0 0 0 0 0 0 0 0 0 0 0 0 0 0 0 0 0 0 0 0 0 0 0 0 0 0 0 0 0 0 0 0 0 0 3976.33 4018.52 3948.07 4527.9 3880.95 3766.9 3537.52 3368.15 3354.28 3248.55 3312.56 3203.03 3299.14 3246.67 3251.89 3347.79 3447.46 3422.22 3424.39 3286.15 3412.41 3101.72 3018.19 2949.79 2735.67 2586.34 2824.88 2866.68 2856.63 3265.24 2814.6 3067.63 3025.21 3175.33 3145.56 3029.96 3067.24 3053.62 3034.9 3171.73 3146.03 3284.1 3270.27 3273.14 3298.49 3258.08 3377.24 3276.91 3411.71 3411.16 3197.35 3144.97 0 0 0 0 0 0 0 0 0 0 0 0 0 0 0 0 0 0 0 0 0 0 0 0 0 0 0 0 0 0 0 0 0 0 0 0 0 0 0 0 0 0 0 0 0 0 0 0 0 0 0 0 0 0 0 0 0 0 0 0 0 0 0 0 0 0 0 0 0 0 0 0 0 0 0 0 0 0 0 0 0 0 0 0 0 0 0 0 0 0 0 0 0 0 0 0 0 0 0 0 0 0 0 0 0 0 0 0 0 0 0 0 0 0 0 0 0 0 0 0 0 0 0 0 0 0 0 0 0 0 0 0 0 0 0 0 0 0 0 0 0 0 0 0 0 0 0 0 0 0 0 0 0 0 0 0 0 0 0 0 0 0 0 0 0 0 0 0 0 0 0 0 0 0 0 0 0 0 0 0 0 0 0 0 0 0 0 0 0 0 0 0 0 0 0 0 0 0 0 0 0 0 0 0 0 0 0 0 0 0 0 0 0 0 0 0 0 0 0 0 0 0 0 0 0 0 0 0 0 0 0 0 0 0 0 0 0 0 0 0 0 0 0 0 0 0 0 0 0 0 0 0 0 0 0 0 0 0 0 0 0 0 0 0 0 0 0 0 0 0 0 0 0 0 0 0 0
0 0 0 0 0 0 0 0 0 0 0 0 0 0 0 0 0 0 0 0 0 0 0 0 1826.84 2456.13 2863.99 2774.43 2683.68 2526.06 2710.34 0 0 0 0 0 0 0 0 0 0 3497.12 3527.71 3052.84 2979.28 2919.71 2855.56 2744.93 2735.09 2728.37 2676.4 2797.8 2885.86 2921.85 2879.92 2914.59 2946.32 3040.28 2945.18 3029.96 3769.26 2881.7 2821.51 2987.66 3057.57 3241.15 3120.35 3353.81 0 0 0 0 0 0 0 0 0 0 0 0 0 0 0 0 0 0 0 0 0 0 0 0 0 2681.32 0 0 2741.97 2966.37 2812.67 2833.47 2970.79 3046.41 3107.12 3090.52 3117.57 3198.94 3905.89 4143.36 3381.73 3210.75 3164.37 3074.21 3117.74 3084.21 3015.59 2879.52 2737.5 2827.12 3005.7 2996.15 3057.63 2918.39 2837.83 2567.42 2461.25 2344.13 2068.92 1987.64 2099.57 2188.41 0 0 0 0 0 0 0 0 0 0 0 0 0 0 0 0 0 0 0 0 0 0 0 0 0 0 0 0 0 0 0 0 0 0 0 0 0 0 0 0 0 0 0 0 0 0 0 0 0 0 0 0 3587.14 3830.97 3889.5 3959.91 4356.94 4262.85 3782.52 3566.63 3411.3 3406.24 3330.51 3407.28 3246.35 3375.81 3312.95 3297.39 3412.55 3535.44 3509.33 3506.33 3333.89 3461.69 3164.25 3149.76 3121.45 2857.26 2590.01 2857.4 2841.97 2902.44 3272.44 2731.26 3013.96 3011.36 3108.79 3160.2 3062.93 3069.77 3073.36 3017.59 3186.06 3166.16 3261.37 3282.94 3229.54 3232.28 3261.81 3318.39 3262.32 3250.5 3250.31 3117.16 3069.26 0 0 0 0 0 0 0 0 0 0 0 0 0 0 0 0 0 0 0 0 0 0 0 0 0 0 0 0 0 0 0 0 0 0 0 0 0 0 0 0 0 0 0 0 0 0 0 0 0 0 0 0 0 0 0 0 0 0 0 0 0 0 0 0 0 0 0 0 0 0 0 0 0 0 0 0 0 0 0 0 0 0 0 0 0 0 0 0 0 0 0 0 0 0 0 0 0 0 0 0 0 0 0 0 0 0 0 0 0 0 0 0 0 0 0 0 0 0 0 0 0 0 0 0 0 0 0 0 0 0 0 0 0 0 0 0 0 0 0 0 0 0 0 0 0 0 0 0 0 0 0 0 0 0 0 0 0 0 0 0 0 0 0 0 0 0 0 0 0 0 0 0 0 0 0 0 0 0 0 0 0 0 0 0 0 0 0 0 0 0 0 0 0 0 0 0 0 0 0 0 0 0 0 0 0 0 0 0 0 0 0 0 0 0 0 0 0 0 0 0 0 0 0 0 0 0 0 0 0 0 0 0 0 0 0 0 0 0 0 0 0 0 0 0 0 0 0 0 0 0 0 0 0 0 0 0 0 0 0 0 0 0 0 0 0 0 0 0 0 0 0 0 0 0 0 0 0
0 0 0 0 0 0 0 0 0 0 0 0 0 0 0 0 0 0 0 0 0 0 0 0 0 0 0 0 0 0 0 0 0 0 0 0 0 0 0 0 0 0 3622.61 3344.39 3253.59 3095.99 3115.6 2868.15 2876.17 2869.33 2848.09 2925.92 2996.25 3022.43 3024.23 2995.34 3065.56 3138.56 3112.53 3601.31 3805.34 3007.37 2978.96 3062.82 3181.83 3371.27 3249.87 3257.51 2739.51 1181.62 0 0 0 0 0 0 0 0 0 0 0 0 0 0 0 0 0 0 0 0 0 0 0 2728.06 0 2817.91 2972.47 3119.71 2905.15 2915.09 3059.47 3082.8 3081.95 3064.78 3101.95 4088.04 4091.13 4164.86 3379.89 4125.13 3229.36 3173.41 3237.52 3230.04 3130.48 3015.64 2873.75 2970.68 3054.4 3099.88 3212.84 3025.21 2900.98 2651.24 2445.22 2371.66 1934.21 1866.97 1766.82 1851.76 0 0 0 0 0 0 0 0 0 0 0 0 0 0 0 0 0 0 0 0 0 0 0 0 0 0 0 0 0 0 0 0 0 0 0 0 0 0 0 0 0 0 0 0 0 0 0 0 0 0 0 0 3509.92 3787.9 3856.33 3865.04 3896.09 3891.12 3806.2 3559.14 3383.78 3335.81 3244.41 3338.4 3156.75 3287.96 3156.57 3134.34 3297.46 3431.67 3458.84 3470.93 3269.25 3470.14 3177.25 3222.41 3324.64 3026.9 2739.33 3041.99 3098.45 3075.05 3189.21 2784.1 2990.32 2916.66 3024.23 3097.31 3018.79 3040.34 3059.19 3008.66 3154.91 3119.48 3262.83 3297.59 3281.21 3243.21 3242.84 3283.07 3302.58 3317.01 3377.1 3786.02 3164.91 0 0 0 0 0 0 0 0 0 0 0 0 0 0 0 0 0 0 0 0 0 0 0 0 0 0 0 0 0 0 0 0 0 0 0 0 0 0 0 0 0 0 0 0 0 0 0 0 0 0 0 0 0 0 0 0 0 0 0 0 0 0 0 0 0 0 0 0 0 0 0 0 0 0 0 0 0 0 0 0 0 0 0 0 0 0 0 0 0 0 0 0 0 0 0 0 0 0 0 0 0 0 0 0 0 0 0 0 0 0 0 0 0 0 0 0 0 0 0 0 0 0 0 0 0 0 0 0 0 0 0 0 0 0 0 0 0 0 0 0 0 0 0 0 0 0 0 0 0 0 0 0 0 0 0 0 0 0 0 0 0 0 0 0 0 0 0 0 0 0 0 0 0 0 0 0 0 0 0 0 0 0 0 0 0 0 0 0 0 0 0 0 0 0 0 0 0 0 0 0 0 0 0 0 0 0 0 0 0 0 0 0 0 0 0 0 0 0 0 0 0 0 0 0 0 0 0 0 0 0 0 0 0 0 0 0 0 0 0 0 0 0 0 0 0 0 0 0 0 0 0 0 0 0 0 0 0 0 0 0 0 0 0 0 0 0 0 0 0 0 0 0 0 0 0 0 0
0 0 0 0 0 0 0 0 0 0 0 0 0 0 0 0 0 0 0 0 0 0 0 0 0 0 0 0 0 0 0 0 0 0 0 0 0 0 0 0 0 0 3149.1 3167.83 2978.22 2879.32 2987.87 2861.64 4143.88 2901.58 2847.66 2974.32 3021.02 3071.56 3047.02 2999.04 3048.46 3161.75 3074.55 3122.09 3099.08 2951.09 2913.63 2981.5 3085.69 3224.27 2981.77 3195.83 2787.99 1304.39 0 0 1183.26 0 0 0 0 0 0 0 0 0 0 0 0 0 0 0 0 0 0 0 0 0 3118.61 3044.59 3216.85 3273.4 3078.61 3046.69 3175.03 3201.56 3211.43 3187.39 4045.75 4070.39 4057.79 4090.53 3977.56 3261.12 3219.94 3169.93 3202.05 3215.99 3164.43 3117.74 3050.12 3095.08 3257.13 3284.87 3371.47 3213.83 3189.7 2869.67 2606.71 2369.22 1978.85 1807.11 1723.14 1683.85 1610.8 1530.53 1646.85 1486.06 1034.9 0 0 0 0 0 0 0 0 0 0 0 0 0 0 0 0 0 0 0 0 0 0 0 0 0 0 0 0 0 0 0 0 0 0 0 0 0 0 0 0 0 0 0 0 0 0 3150.88 0 3425.36 3494.57 3607.97 3612.16 3703.04 3744.03 3503.25 3305.84 3221.42 3149.64 3247.42 3062.65 3258.39 3082.68 2973.21 3198.33 3331.17 3408.32 3423.69 3246.54 3385.62 3052.29 3141.2 3222.04 2887 2754.3 3086.71 3178.76 3124.53 3245.85 2945.29 3044.15 3018.41 3137.62 3834.91 3058.8 3091.88 3117.62 3054.62 3160.02 3156.39 3292.02 3253.4 3205.54 3217.59 3189.7 3208.73 3281.21 3906.43 3309.16 3064.44 3121.16 0 0 0 0 0 0 0 0 0 0 0 0 0 0 0 0 0 0 0 0 0 0 0 0 0 0 0 0 0 0 0 0 0 0 0 0 0 0 0 0 0 0 0 0 0 0 0 0 0 0 0 0 0 0 0 0 0 0 0 0 0 0 0 0 0 0 0 0 0 0 0 0 0 0 0 0 0 0 0 0 0 0 0 0 0 0 0 0 0 0 0 0 0 0 0 0 0 0 0 0 0 0 0 0 0 0 0 0 0 0 0 0 0 0 0 0 0 0 0 0 0 0 0 0 0 0 0 0 0 0 0 0 0 0 0 0 0 0 0 0 0 0 0 0 0 0 0 0 0 0 0 0 0 0 0 0 0 0 0 0 0 0 0 0 0 0 0 0 0 0 0 0 0 0 0 0 0 0 0 0 0 0 0 0 0 0 0 0 0 0 0 0 0 0 0 0 0 0 0 0 0 0 0 0 0 0 0 0 0 0 0 0 0 0 0 0 0 0 0 0 0 0 0 0 0 0 0 0 0 0 0 0 0 0 0 0 0 0 0 0 0 0 0 0 0 0 0 0 0 0 0 0 0 0 0 0 0 0 0 0 0 0 0 0 0 0 0 0 0 0 0 0 0 0 0 0 0
0 0 0 0 0 0 0 0 0 0 0 0 0 0 0 0 0 0 0 0 0 0 0 0 0 0 0 0 0 0 0 0 0 0 0 0 0 0 0 0 0 0 3385.21 3404.17 3149.52 3045.47 3088.24 2994.01 2957.54 3001.56 2900.43 3025.48 3101.54 3162.04 3133.4 3109.48 3115.6 3191.27 3100.74 3135.8 3098.34 2933.24 2873.7 2911.5 2938.99 3112.53 2919 3147.27 2906.51 1274.23 2515.99 0 0 0 0 0 0 0 0 0 0 0 0 0 0 0 0 0 0 0 0 0 0 0 3261.12 3130.19 3187.09 3277.68 3120.46 3098.51 3250.12 3291.83 3287.31 3230.29 3242.71 4088.84 4035.53 4038.45 3908.07 3275.31 4036.99 3172.51 3231.22 3215.49 3181.29 3152.36 3147.45 3147.81 3226.06 3298.36 3374.52 3054.68 3028.05 2614.8 2479.73 2133.53 1871.91 1779.55 1595.3 1516.2 1458.66 1538.07 1715.97 0 0 0 0 0 0 0 0 0 0 0 0 0 0 0 0 0 0 0 0 0 0 0 0 0 0 0 0 0 0 0 0 0 0 0 0 0 0 0 0 0 0 0 0 0 0 0 0 3217.77 3163.24 3550.25 3541.93 3696.68 3683.13 3782.35 3841.5 3539.91 3319.18 3230.91 3139.5 3256.56 3031.82 3196.26 2970.26 2908.27 3153.01 3311.19 3391.3 3435.11 3267.28 3485.28 3167.06 3373.71 4290.86 3059.13 2786.04 3128.79 3277.87 3250.19 3291.96 3002.85 3032.48 3025.81 3058.91 3760.48 3020.69 3092.4 3140.68 3093.94 3163.95 3171.91 3280.56 3267.66 3204.81 3246.85 3683.94 3761.41 3957.85 4067.62 3316.55 3041.44 3134.34 0 0 0 0 0 0 0 0 0 0 0 0 0 0 0 0 0 0 0 0 0 0 0 0 0 0 0 0 0 0 0 0 0 0 0 0 0 0 0 0 0 0 0 0 0 0 0 0 0 0 0 0 0 0 0 0 0 0 0 0 0 0 0 0 0 0 0 0 0 0 0 0 0 0 0 0 0 0 0 0 0 0 0 0 0 0 0 0 0 0 0 0 0 0 0 0 0 0 0 0 0 0 0 0 0 0 0 0 0 0 0 0 0 0 0 0 0 0 0 0 0 0 0 0 0 0 0 0 0 0 0 0 0 0 0 0 0 0 0 0 0 0 0 0 0 0 0 0 0 0 0 0 0 0 0 0 0 0 0 0 0 0 0 0 0 0 0 0 0 0 0 0 0 0 0 0 0 0 0 0 0 0 0 0 0 0 0 0 0 0 0 0 0 0 0 0 0 0 0 0 0 0 0 0 0 0 0 0 0 0 0 0 0 0 0 0 0 0 0 0 0 0 0 0 0 0 0 0 0 0 0 0 0 0 0 1001.3 1371.03 1306.16 0 0 0 0 0 0 0 0 0 0 0 0 0 0 0 0 0 0 0 0 0 0 0 0 0 0 0 0 0 0 0 0 0 0 0 0 0 0 0
0 0 0 0 0 0 0 0 0 0 0 0 0 0 0 0 0 0 0 0 0 0 0 0 0 0 0 0 0 0 0 0 0 0 0 0 0 0 0 0 0 0 3161.21 3345.59 3126.92 3101.2 3205.54 3170.71 3131.76 3067.02 3037.86 3160.14 3209.71 3285.06 3269.63 3221.54 3198.15 3243.03 3247.42 3233.46 3184.67 3037.81 2940.79 2909.53 2939.92 3150.82 2990.11 3075.17 3047.3 1711.42 2262.85 0 0 0 0 0 0 0 0 0 0 0 0 0 0 0 0 0 0 0 0 0 0 0 3344.45 3210.69 3251.01 3328.73 3189.76 3159.42 3289.5 3368.29 3340.19 3258.96 3234.71 3283 3290.34 3929.58 3317.8 3240.27 3164.19 3119.13 3175.27 3222.66 3206.58 3206.64 3160.91 3187.39 3239.83 3305.64 3317.34 3035.72 3070.72 2680.47 2301.4 2020.26 1624.65 1535.06 1397.33 1325.8 1323.06 1262.79 1433.07 0 0 0 0 0 0 0 0 0 0 0 0 0 0 0 0 0 0 0 0 0 0 0 0 0 0 0 0 0 0 0 0 0 0 0 0 0 0 0 0 0 0 0 0 0 0 0 0 2948.75 2733.13 3395.21 3414.35 3582.31 3538.12 3702.88 3841.59 3631.55 3438.99 3439.2 3272.95 3372.69 3115.08 3289.25 3032.37 2958.79 3143.62 3259.34 3273.97 3349.39 3254.85 3529.34 3306.36 4368.62 4370.79 3449.45 4364.53 4596.37 4506.01 4392.76 4375.57 3028.59 3023.63 2989.53 3002.1 3079.91 2937.81 2963.96 2982.03 2961.92 3080.87 3069.15 3185.94 3214.88 3157.46 3201.38 3715.51 3817.38 4008.44 4715.48 4000.13 3712.96 2938.01 2805.23 0 0 0 0 0 0 0 0 0 0 0 0 0 0 0 0 0 0 0 0 0 0 0 0 0 0 0 0 0 0 0 0 0 0 0 0 0 0 0 0 0 0 0 0 0 0 0 0 0 0 0 0 0 0 0 0 0 0 0 0 0 0 0 0 0 0 0 0 0 0 0 0 0 0 0 0 0 0 0 0 0 0 0 0 0 0 0 0 0 0 0 0 0 0 0 0 0 0 0 0 0 0 0 0 0 0 0 0 0 0 0 0 0 0 0 0 0 0 0 0 0 0 0 0 0 0 0 0 0 0 0 0 0 0 0 0 0 0 0 0 0 0 0 0 0 0 0 0 0 0 0 0 0 0 0 0 0 0 0 0 0 0 0 0 0 0 0 0 0 0 0 0 0 0 0 0 0 0 0 0 0 0 0 0 0 0 0 0 0 0 0 0 0 0 0 0 0 0 0 0 0 0 0 0 0 0 0 0 0 0 0 0 0 0 0 0 0 0 0 0 0 0 0 0 0 0 0 0 0 0 1440.62 0 1787.93 1894.42 1184.21 1358.02 1438.24 0 1138.68 976.798 860.515 904.605 0 0 0 0 0 0 0 0 0 0 0 0 0 0 0 0 0 0 0 0 0 0 0 0 0 0 0 0 0 0 0 0 0 0
0 0 0 0 0 0 0 0 0 0 0 0 0 0 0 0 0 0 0 0 0 0 0 0 0 0 0 0 0 0 0 0 0 0 0 0 0 0 0 0 0 3171.25 3057.91 3307.21 3080.98 3064.72 3159.19 3186.55 3133.17 3091.14 3034.13 3182.13 3216.54 3290.02 3302.58 3274.67 3212.54 3488.47 3230.35 3236.33 3162.76 3029.74 2921.49 2812.15 2781.93 2980.6 2806.5 2899.18 2825.6 1609.24 1764.96 0 0 0 0 0 0 0 0 0 0 0 0 0 0 0 0 0 0 0 0 0 0 0 3510.43 3370.32 3281.33 3408.8 3238.27 3213.15 3290.54 3360.06 3326.22 3248.24 3234.4 3299.34 3291.89 3905.61 3282.04 3199.92 3131.18 3115.48 3142.26 3175.63 3134.98 3095.94 3099.25 3146.39 3269.12 3372.35 3380.44 3175.21 3132.47 2896.22 2775.95 2346.75 2033.95 1760.65 1341.16 996.394 0 0 0 0 0 0 0 0 0 0 0 0 0 0 0 0 0 0 0 0 0 0 0 0 0 0 0 0 0 0 0 0 0 0 0 0 0 0 0 0 0 0 0 0 0 0 0 0 0 0 0 0 0 3142.2 3171.97 3351.33 3341.52 3541.93 3794.67 3537.45 3364.24 3333.95 3227.18 3304.73 2989.26 3137.21 2905.4 2787.8 3007.15 3151.89 3218.7 3213.03 3201.81 3551.75 3420.34 4267.4 4492.38 4327.72 4344.19 4667.08 3904.71 4131.22 4343.97 3907.34 3000.75 3923.97 3045.75 3889.5 3714.28 3066.29 3537.38 3115.89 3252.83 3542.83 3620.19 3669.03 3644.49 3758.37 3247.86 3265.18 4050.63 3618.63 3262.7 3009.53 2978.8 2913.98 0 0 0 0 0 0 0 0 0 0 0 0 0 0 0 0 0 0 0 0 0 0 0 0 0 0 0 0 0 0 0 0 0 0 0 0 0 0 0 0 0 0 0 0 0 0 0 0 0 0 0 0 0 0 0 0 0 0 0 0 0 0 0 0 0 0 0 0 0 0 0 0 0 0 0 0 0 0 0 0 0 0 0 0 0 0 0 0 0 0 0 0 0 0 0 0 0 0 0 0 0 0 0 0 0 0 0 0 0 0 0 0 0 0 0 0 0 0 0 0 0 0 0 0 0 0 0 0 0 0 0 0 0 0 0 0 0 0 0 0 0 0 0 0 0 0 0 0 0 0 0 0 0 0 0 0 0 0 0 0 0 0 0 0 0 0 0 0 0 0 0 0 0 0 0 0 0 0 0 0 0 0 0 0 0 0 0 0 0 0 0 0 0 0 0 0 0 0 0 0 0 0 0 0 0 0 0 0 0 0 0 0 0 0 0 0 0 0 0 0 0 0 0 0 2062.91 2081.91 1951.21 0 0 1413.46 1736.7 0 2235.59 2093.02 1576.56 1601.15 1840.99 1590.29 1521.38 1430.32 1175.26 1096.88 1295.28 1473.9 1452.89 0 0 753.035 710.018 1020.61 0 0 0 0 0 0 0 0 0 0 0 0 0 0 0 0 0 0 0 0 0 0 0 0 0 0
0 0 0 0 0 0 0 0 0 0 0 0 0 0 0 0 0 0 0 0 0 0 0 0 0 0 0 0 0 0 0 0 0 0 0 0 0 0 0 0 0 2961.66 2944.87 3276.21 3137.74 3090.29 3207.75 4078.2 3159.84 3079.63 3067.13 3170.77 3183.28 3218.95 3224.45 3202.54 3185.58 3510.29 3206.03 3201.69 3125.93 3015.96 2963.91 2895.02 2913.47 2999.3 2780.04 3019.06 2858.72 1652.61 1584.96 0 0 0 0 0 0 0 0 0 0 0 0 0 0 0 0 0 0 0 0 0 0 0 3471 3535.66 3362.28 3375.2 3203.4 3162.34 3240.52 3327.94 3313.93 3264.1 3220.99 3262.45 3234.83 3317.6 3267.09 3211.25 3126.22 3119.07 3135.33 3180.26 3144.44 3161.15 3137.03 3136.04 3191.39 3331.9 3231.72 2929.5 2784.84 2635.99 2465.16 2234.7 1922.24 1668.76 1238.63 860.652 0 0 0 0 0 0 0 0 0 0 0 0 0 0 0 0 0 0 0 0 0 0 0 0 0 0 0 0 0 0 0 0 0 0 0 0 0 0 0 0 0 0 0 0 0 0 0 0 0 0 0 0 0 3036.54 3097.88 3300.96 3247.73 3482.96 3694.65 3474.02 3414.35 3388.49 3230.35 3306.68 2983.57 3174.73 2856.87 2754.3 3026.85 3016.07 3042.16 3061.25 3013.8 3396.66 3202.79 3781.33 3896 3463.91 3399.61 3813.82 3778.6 3586.53 5234.83 4786.51 3006.61 3038.52 3059.97 3150.17 3080.42 3114.5 3149.93 3179.78 3586.76 3585.22 3651.71 3704.11 3713.78 3770.62 3174.19 3168.37 3700.35 3089.84 3124.01 2871.1 2770.45 2731.43 0 0 0 0 0 0 0 0 0 0 0 0 0 0 0 0 0 0 0 0 0 0 0 0 0 0 0 0 0 0 0 0 0 0 0 0 0 0 0 0 0 0 0 0 0 0 0 0 0 0 0 0 0 0 0 0 0 0 0 0 0 0 0 0 0 0 0 0 0 0 0 0 0 0 0 0 0 0 0 0 0 0 0 0 0 0 0 0 0 0 0 0 0 0 0 0 0 0 0 0 0 0 0 0 0 0 0 0 0 0 0 0 0 0 0 0 0 0 0 0 0 0 0 0 0 0 0 0 0 0 0 0 0 0 0 0 0 0 0 0 0 0 0 0 0 0 0 0 0 0 0 0 0 0 0 0 0 0 0 0 0 0 0 0 0 0 0 0 0 0 0 0 0 0 0 0 0 0 0 0 0 0 0 0 0 0 0 0 0 0 0 0 0 0 0 0 0 0 0 0 0 0 0 0 0 0 0 0 0 0 0 0 0 0 0 0 0 0 0 0 0 0 0 0 2661 2678.67 2596.95 2323.74 2089.35 2241.53 2187.04 2738.34 2517.99 2549.01 2322.49 2237.62 2246.06 2198.94 1964.6 1975.82 1489.62 1463.26 1508.1 1639.64 1651.94 1355.45 1207.98 766.878 692.382 944.578 1165.62 0 0 0 0 0 0 0 0 0 0 0 0 0 0 0 0 0 0 0 0 0 0 0 0 0
0 0 0 0 0 0 0 0 0 0 0 0 0 0 0 0 0 0 0 0 0 0 0 0 0 0 0 0 0 0 0 0 0 0 0 0 0 0 0 0 0 2879.87 3026.9 3266.45 3145.27 3139.26 3190.67 4159.7 3972.47 3857.48 3141.79 3687.99 3688.72 3680.46 3612.16 3619.88 3586.14 3588.75 3183.82 3197.96 3112.01 3020.69 2899.08 2776.82 2804.11 2892.78 2650.99 2780.59 2538.56 1554.27 1446.5 0 0 0 0 0 0 0 0 0 0 0 0 0 0 0 0 0 0 0 0 0 2745.42 3278.26 3513.67 3441.81 3368.97 3300.18 3234.27 3189.09 3252.33 3365.25 3340.66 3313.8 3283.26 3303.89 3301.02 3343.05 3286.22 3263.27 3163.41 3194.61 3196.81 3231.78 3197.29 3207.99 3207.32 3223.03 3245.47 3393.77 3239.52 3030.4 2892.28 2643.39 2483.22 2328.06 2062.2 1844.72 1296.88 0 0 0 0 0 0 0 0 0 0 0 0 0 0 0 0 0 0 0 0 0 0 0 0 0 0 0 0 0 0 0 0 0 0 0 0 0 0 0 0 0 0 0 0 0 0 0 0 0 0 0 0 0 0 0 0 3174.61 3064.27 3237.71 3467.84 3303.62 3338.4 3395.28 3227 3301.61 2988.35 3226.56 3005.54 2946.47 3318.85 3226.87 3206.89 3201.93 3052.45 3286.28 3072.97 0 3435.53 2993.47 2958.01 3167 3223.21 3184.49 3112.25 4801.99 2934.52 3017.37 2978.59 3109.48 3059.69 3135.69 3168.07 3209.4 3631.79 3657.2 3720.04 3788.07 3792.95 3855.62 3096.34 3080.25 3990.71 3898.26 3776.65 2739.42 2727.35 2621.37 0 0 0 0 0 0 0 0 0 0 0 0 0 0 0 0 0 0 0 0 0 0 0 0 0 0 0 0 0 0 0 0 0 0 0 0 0 0 0 0 0 0 0 0 0 0 0 0 0 0 0 0 0 0 0 0 0 0 0 0 0 0 0 0 0 0 0 0 0 0 0 0 0 0 0 0 0 0 0 0 0 0 0 0 0 0 0 0 0 0 0 0 0 0 0 0 0 0 0 0 0 0 0 0 0 0 0 0 0 0 0 0 0 0 0 0 0 0 0 0 0 0 0 0 0 0 0 0 0 0 0 0 0 0 0 0 0 0 0 0 0 0 0 0 0 0 0 0 0 0 0 0 0 0 0 0 0 0 0 0 0 0 0 0 0 0 0 0 0 0 0 0 0 0 0 0 0 0 0 0 0 0 0 0 0 0 0 0 0 0 0 0 0 0 0 0 0 0 0 0 0 0 0 0 0 0 0 0 0 0 0 0 0 0 0 0 0 0 0 0 0 0 0 0 0 0 0 2574.83 2550.1 2594.58 2404.57 2834.09 2615.16 2712.84 2595.98 2612.35 2489.59 2531.4 2269.24 2645.64 2098.13 2068.33 2013.77 2171.16 2153.19 1981.87 1889.79 1626.13 990.745 1173.7 1932 3890.49 1532.67 1317.16 1320.76 0 0 0 0 0 0 0 0 0 0 0 0 0 0 0 0 0 0 0 0 0
0 0 0 0 0 0 0 0 0 0 0 0 0 0 0 0 0 0 0 0 0 0 0 0 0 0 0 0 0 0 0 0 0 0 0 0 0 0 0 0 0 2834.91 2866.14 3246.04 3005.7 3005.97 3121.74 3169.57 3217.22 3110.86 3042.32 3126.22 3110.63 3202.05 3608.43 3669.84 3613.95 3566.78 3171.67 3224.58 3136.62 3074.04 2946.37 2815.87 2807.07 2852.35 2619.66 2582.48 2283.92 1509.51 1521.04 0 0 0 0 0 0 0 0 0 0 0 0 0 0 0 0 0 0 0 0 2585.58 2523.48 3145.68 3295.71 3286.54 3279.22 3269.89 3234.21 3220.74 3278.58 3423.2 3389.52 4121.99 3349.26 3343.52 3311.45 3354.08 3317.15 3283.45 3171.79 3209.83 3174.37 3248.61 3232.59 3254.6 3262.77 3263.21 3317.67 3473.23 3340.66 3278.9 3014.56 2795.09 2692.73 2449.47 2222.91 2021.29 1403.79 1160.38 1161.4 1315.26 0 0 0 0 0 0 0 0 0 0 0 0 0 0 0 0 0 0 0 0 0 0 0 0 0 0 0 0 0 0 0 0 0 0 0 0 0 0 0 0 0 0 0 0 0 0 0 0 0 0 0 0 0 0 2626.38 2856.24 3091.66 3060.19 3033.74 3131.65 3013.74 2979.49 2784.47 3049.24 2961.82 2979.7 3249.56 3162.34 3263.27 3245.97 3126.8 3335.54 0 0 3171.13 2755.12 2818.15 2813.33 2990.16 3113.98 3131 3005.86 2866.19 3038.8 2981.24 3154.37 3107.12 3142.68 3108.27 3110.63 3199 3213.09 3235.96 3245.91 3076.07 3071.9 3840.97 3872.26 3893.2 3724.5 2806.5 2593.1 2507.41 2524.2 0 0 0 0 0 0 0 0 0 0 0 0 0 0 0 0 0 0 0 0 0 0 0 0 0 0 0 0 0 0 0 0 0 0 0 0 0 0 0 0 0 0 0 0 0 0 0 0 0 0 0 0 0 0 0 0 0 0 0 0 0 0 0 0 0 0 0 0 0 0 0 0 0 0 0 0 0 0 0 0 0 0 0 0 0 0 0 0 0 0 0 0 0 0 0 0 0 0 0 0 0 0 0 0 0 0 0 0 0 0 0 0 0 0 0 0 0 0 0 0 0 0 0 0 0 0 0 0 0 0 0 0 0 0 0 0 0 0 0 0 0 0 0 0 0 0 0 0 0 0 0 0 0 0 0 0 0 0 0 0 0 0 0 0 0 0 0 0 0 0 0 0 0 0 0 0 0 0 0 0 0 0 0 0 0 0 0 0 0 0 0 0 0 0 0 0 0 0 0 0 0 0 0 0 0 0 0 0 0 0 0 0 0 0 0 0 0 0 0 0 0 0 0 0 0 2045.14 2262.82 2446.11 2585.7 2645.3 2474.76 2864.28 2686.86 2811.06 2748.35 2753.35 2595.5 2594.34 2451.68 2831.08 2517.72 2477.2 2331.98 2340.73 2328.84 2397.04 2479.88 2450.82 1649.54 1522.46 1939.35 3331.57 1433.5 1123.75 1179.12 0 0 0 0 0 0 0 0 0 0 0 0 0 0 0 0 0 0 0 0 0
0 0 0 0 0 0 0 0 0 0 0 0 0 0 0 0 0 0 0 0 0 0 0 0 0 0 0 0 0 0 0 0 0 0 0 0 0 0 0 0 0 0 2717.59 3149.99 2877.84 2893.63 3020.04 3189.51 3255.74 3168.43 3094.57 3117.22 3130.71 3235.02 3816.51 3762.33 3695.22 3646.63 3215.06 3240.08 3201.63 3088.87 2996.52 2814.22 2751.1 2745.65 2462.41 2383.66 2166.48 1527.52 1599.62 0 0 0 0 0 0 0 0 0 0 0 0 0 0 0 0 0 0 0 0 2770.95 2782.12 3575.75 3718.31 3490.93 3357.71 3269.57 3254.03 3221.42 3230.41 3383.5 3333.29 3296.36 3295.13 3333.22 3295 3275.76 3269.7 3270.65 3179.84 3220.24 3224.51 3282.17 3257 3301.09 3387.88 3370.93 3422.85 3546.65 3421.45 3361.27 3169.63 2934.83 2876.56 2640.97 2497.37 2380.78 1957.5 0 1684.24 0 0 0 0 0 0 0 0 0 0 0 0 0 0 0 0 0 0 0 0 0 0 0 0 0 0 0 0 0 0 0 0 0 0 0 0 0 0 0 0 0 0 0 0 0 0 0 0 0 0 0 0 0 0 0 0 2645.05 2732.81 2904.14 2896.92 2868.4 2707.11 2521.39 2442.65 2617.86 2475.81 2591.01 2812.1 2515.08 2585.7 2596.14 0 0 0 0 2791.75 2407.22 2752.49 2859.35 3036.1 3175.09 3175.45 3145.15 2971.05 3070.27 3089.61 3177.01 3077.88 3130.65 3067.41 3112.19 3155.56 3156.33 3221.11 3182.98 3065.78 3106.25 3892.02 3889.77 3816.42 3697.58 2808.1 2541.14 2442.9 0 0 0 0 0 0 0 0 0 0 0 0 0 0 0 0 0 0 0 0 0 0 0 0 0 0 0 0 0 0 0 0 0 0 0 0 0 0 0 0 0 0 0 0 0 0 0 0 0 0 0 0 0 0 0 0 0 0 0 0 0 0 0 0 0 0 0 0 0 0 0 0 0 0 0 0 0 0 0 0 0 0 0 0 0 0 0 0 0 0 0 0 0 0 0 0 0 0 0 0 0 0 0 0 0 0 0 0 0 0 0 0 0 0 0 0 0 0 0 0 0 0 0 0 0 0 0 0 0 0 0 0 0 0 0 0 0 0 0 0 0 0 0 0 0 0 0 0 0 0 0 0 0 0 0 0 0 0 0 0 0 0 0 0 0 0 0 0 0 0 0 0 0 0 0 0 0 0 0 0 0 0 0 0 0 0 0 0 0 0 0 0 0 0 0 0 0 0 0 0 0 0 0 0 0 0 0 0 0 0 0 0 0 0 0 0 0 0 0 0 0 0 0 0 0 0 2358.79 2727.7 2906.36 2867.71 2891.38 2734.15 3105.91 2856.33 2895.82 2894.27 2805.33 2575.74 2535.8 2299.22 2603.68 2364.88 2411.82 2333.37 2377.88 2434.25 2604.37 2890.83 3182.56 2866.58 2844.08 3325.96 4561.14 3685.39 1400.02 1263.98 956.681 0 0 0 0 0 0 0 0 0 0 0 0 0 0 0 0 0 0 0 0
0 0 0 0 0 0 0 0 0 0 0 0 0 0 0 0 0 0 0 0 0 0 0 0 0 0 0 0 0 0 0 0 0 0 0 0 0 0 0 0 0 0 2577.48 2950.88 2710.56 2749.2 2824.17 3105.85 3168.25 3080.42 3001.51 3046.25 3076.75 3687.34 3820.07 3768.84 3669.11 3610.3 3087.79 3100.23 3058.46 2928.53 2821.23 2621.91 2558.42 2564.52 2280.04 2296.99 2212.89 1613.31 1755.16 0 0 0 0 0 0 0 0 0 0 0 0 0 0 0 0 0 0 0 0 0 0 0 3560.57 3424.46 3273.84 3256.94 3254.73 3202.36 3245.72 3412.55 3400.37 3372.28 3358.38 3388.97 3330.91 3292.86 3291.7 3271.61 3187.51 3205.91 3201.75 3225.94 3223.9 3288.47 3400.99 3386.65 3446.9 3556.34 3452.29 3432.16 3356.56 3025.75 2794.91 2511.99 2366.25 2347.41 1770.14 0 0 0 0 0 0 0 0 0 0 0 0 0 0 0 0 0 0 0 0 0 0 0 0 0 0 0 0 0 0 0 0 0 0 0 0 0 0 0 0 0 0 0 0 0 0 0 0 0 0 0 0 0 0 0 0 0 0 0 0 0 2751.68 2794.86 2602.87 2498.86 2341.77 2580.33 2419.44 2709.73 2854.63 2384.84 2274.04 0 0 0 0 0 0 1972.62 0 0 0 2945.7 3031.77 3053.06 2903.09 3098.97 3123.02 3192.97 3109.36 3194.8 3100.46 3915.46 3850.14 3869.49 3860.59 3961.31 3921.77 4000.03 3918.02 3077.71 2978.96 2789.61 2694.37 2404.01 2368.72 0 0 0 0 0 0 0 0 0 0 0 0 0 0 0 0 0 0 0 0 0 0 0 0 0 0 0 0 0 0 0 0 0 0 0 0 0 0 0 0 0 0 0 0 0 0 0 0 0 0 0 0 0 0 0 0 0 0 0 0 0 0 0 0 0 0 0 0 0 0 0 0 0 0 0 0 0 0 0 0 0 0 0 0 0 0 0 0 0 0 0 0 0 0 0 0 0 0 0 0 0 0 0 0 0 0 0 0 0 0 0 0 0 0 0 0 0 0 0 0 0 0 0 0 0 0 0 0 0 0 0 0 0 0 0 0 0 0 0 0 0 0 0 0 0 0 0 0 0 0 0 0 0 0 0 0 0 0 0 0 0 0 0 0 0 0 0 0 0 0 0 0 0 0 0 0 0 0 0 0 0 0 0 0 0 0 0 0 0 0 0 0 0 0 0 0 0 0 0 0 0 0 0 0 0 0 0 0 0 0 0 0 0 0 0 0 0 0 0 0 0 0 0 1491.82 0 1929.98 2056.87 2392.87 2780.55 2897.97 2865.36 2833.23 3030.78 2926.89 3051.4 3122.96 3089.95 2941.98 2832.94 2774.94 2874.98 2806.22 2853.91 2621.87 2650.15 2608.29 2767.71 3103.32 3277.23 3223.03 3182.19 3384.53 4391.15 3693.91 3668.55 2476.4 1129.12 0 0 0 0 0 0 0 0 0 0 0 0 0 0 0 0 0 0 0 0
0 0 0 0 0 0 0 0 0 0 0 0 0 0 0 0 0 0 0 0 0 0 0 0 0 0 0 0 0 0 0 0 0 0 0 0 0 0 0 0 0 0 2876.91 3114.32 2917.37 2955.3 2882.69 3055.68 3098.45 2919.46 2901.08 2903.74 2936.37 3765.97 3886.98 3877.45 3813.47 3752.15 3813.38 3160.43 3150.11 3102.92 3012.44 2808.05 2723.98 2760.78 2476.55 2184.05 2116.82 1577.84 1728.72 0 0 0 0 0 0 0 0 0 0 0 0 0 0 0 0 0 0 0 0 0 0 0 3366.53 3361.41 3260.67 3232.84 3240.71 3173.53 3246.35 3414.35 3398.17 3392.26 3370.18 3432.23 3401.96 3367.21 3370.66 3310.86 3239.46 3268.1 3261.12 3263.15 3237.39 3255.11 3339.86 3326.62 3386.51 3499.89 3403.82 3387.88 3430.62 3155.86 2948.49 2796.35 2725.93 2812.24 0 0 0 0 0 0 0 0 0 0 0 0 0 0 0 0 0 0 0 0 0 0 0 0 0 0 0 0 0 0 0 0 0 0 0 0 0 0 0 0 0 0 0 0 0 0 0 0 0 0 0 0 0 0 0 0 0 0 0 0 0 0 0 3039.51 2867.42 2871.49 2716.13 3027.67 0 0 0 0 0 0 0 0 0 0 0 0 0 0 2693.03 2869.48 2876.46 2912.56 2839.61 2992.3 2974.58 2975.11 3007.8 3095.54 3015.86 3141.56 3222.35 3247.23 3250.5 3217.34 3934.74 4054.35 3046.85 3107 2956.7 2695.06 2580.89 2305.03 2222.85 2183.99 0 1328.56 0 0 0 0 0 0 0 0 0 0 0 0 0 0 0 0 0 0 0 0 0 0 0 0 0 0 0 0 0 0 0 0 0 0 0 0 0 0 0 0 0 0 0 0 0 0 0 0 0 0 0 0 0 0 0 0 0 0 0 0 0 0 0 0 0 0 0 0 0 0 0 0 0 0 0 0 0 0 0 0 0 0 0 0 0 0 0 0 0 0 0 0 0 0 0 0 0 0 0 0 0 0 0 0 0 0 0 0 0 0 0 0 0 0 0 0 0 0 0 0 0 0 0 0 0 0 0 0 0 0 0 0 0 0 0 0 0 0 0 0 0 0 0 0 0 0 0 0 0 0 0 0 0 0 0 0 0 0 0 0 0 0 0 0 0 0 0 0 0 0 0 0 0 0 0 0 0 0 0 0 0 0 0 0 0 0 0 0 0 0 0 0 0 0 0 0 0 0 0 0 0 0 0 0 0 0 0 0 0 0 0 0 0 0 0 0 0 2397.21 0 0 2081.75 2596.83 2371.06 2574.32 2799.85 3029.69 3151.12 3142.62 3079.68 3180.75 3128.96 3267.72 3319.44 3294.28 3246.85 3143.68 3071 3063.77 3000.43 2982.93 2747.72 2729.3 2682.95 2870.75 3009.91 3082.97 3161.03 3267.98 3364.3 4260.79 3717.81 3684.67 2604.41 1315.16 0 0 0 0 0 0 0 0 0 0 0 0 0 0 0 0 0 0 0 0
0 0 0 0 0 0 0 0 0 0 0 0 0 0 0 0 0 0 0 0 0 0 0 0 0 0 0 0 0 0 0 0 0 0 0 0 0 0 0 0 0 0 0 2942.24 2842.49 2901.03 2914.33 3067.97 3117.16 2909.13 2914.79 2896.87 2905.6 2987.02 3934.83 3929.76 2997.7 2965.27 3132.35 3115.48 3159.9 3115.02 3030.13 2827.22 2718.91 2623.79 2316.01 2007.29 1860.24 0 0 0 0 0 0 0 0 0 0 0 0 0 0 0 0 0 0 0 0 0 0 0 0 0 3331.83 3449.59 3350.67 3319.24 3267.09 3151.23 3150.46 3331.7 3331.37 3371.54 3337.53 3378.8 3395.01 3353.01 3359.52 3298.82 3251.2 3274.35 3220.92 3227.93 3220.99 3216.11 3293.06 3350.73 3435.25 3500.33 3425.99 3544.17 3578.19 3345.52 3201.32 3159.96 2931.49 3038.85 0 0 0 0 0 0 0 0 0 0 0 0 0 0 0 0 0 0 0 0 0 0 0 0 0 0 0 0 0 0 0 0 0 0 0 0 0 0 0 0 0 0 0 0 0 0 0 0 0 0 0 0 0 0 0 0 0 0 0 0 0 0 0 0 0 0 0 0 0 0 0 0 0 0 0 0 0 0 0 0 0 0 2717.63 2960.41 3085.01 3039.84 2871 3051.29 3093.2 3040.56 3163.24 3185.4 3022.76 3122.32 3189.94 3269.63 3253.97 3159.78 3153.72 3072.58 2919.56 3045.03 2881.85 2584.31 2500.87 2316.59 2230.69 2134.97 0 0 0 0 0 0 0 0 0 0 0 0 0 0 0 0 0 0 0 0 0 0 0 0 0 0 0 0 0 0 0 0 0 0 0 0 0 0 0 0 0 0 0 0 0 0 0 0 0 0 0 0 0 0 0 0 0 0 0 0 0 0 0 0 0 0 0 0 0 0 0 0 0 0 0 0 0 0 0 0 0 0 0 0 0 0 0 0 0 0 0 0 0 0 0 0 0 0 0 0 0 0 0 0 0 0 0 0 0 0 0 0 0 0 0 0 0 0 0 0 0 0 0 0 0 0 0 0 0 0 0 0 0 0 0 0 0 0 0 0 0 0 0 0 0 0 0 0 0 0 0 0 0 0 0 0 0 0 0 0 0 0 0 0 0 0 0 0 0 0 0 0 0 0 0 0 0 0 0 0 0 0 0 0 0 0 0 0 0 0 0 0 0 0 0 0 0 0 0 0 0 0 0 0 0 0 0 0 0 0 0 0 0 0 0 0 0 0 2434.5 2119.7 0 0 2413.18 3097.48 2909.43 3009.2 3106.66 3175.81 3238.71 3284.61 3200.59 3245.66 3146.57 3230.29 3295.38 3263.4 3283.45 3218.21 3176.53 3155.5 3111.84 3053.06 2838.31 2839.66 2818.67 2967.11 3084.1 3053.9 3150.17 3246.35 3552.96 4516.69 4005.09 3951.33 2886.41 1747.5 0 0 0 0 0 0 0 0 0 0 0 0 0 0 0 0 0 0 0 0
0 0 0 0 0 0 0 0 0 0 0 0 0 0 0 0 0 0 0 0 0 0 0 0 0 0 0 0 0 0 0 0 0 0 0 0 0 0 0 0 0 0 0 3140.5 2958.16 2946.73 2900.23 2937.5 2994.86 2851.09 2783.59 2779.17 2761.06 2858.62 3931.42 2974.21 2945.23 4310.04 2959.57 2984.95 2943.79 2875.72 2710.69 2500.54 2246.91 2055.53 1834.01 1574.28 1345.68 0 0 0 0 0 0 0 0 0 0 0 0 0 0 0 0 0 0 0 0 0 0 0 0 0 3324.64 3342.12 3275.76 3165.62 3124.3 3002.85 3038.85 3211.61 3246.41 3345.32 3361.34 3424.39 3488.18 3424.11 3435.32 3429.15 3408.46 3452.79 3380.57 3354.22 3312.89 3279.99 3382.62 4166 3456.34 4382.66 4540.4 3485.06 3501.64 3365.32 3378.12 3291.96 3196.38 3221.73 0 0 0 0 0 0 0 0 0 0 0 0 0 0 0 0 0 0 0 0 0 0 0 0 0 0 0 0 0 0 0 0 0 0 0 0 0 0 0 0 0 0 0 0 0 0 0 0 0 0 0 0 0 0 0 0 0 0 0 0 0 0 0 0 0 0 0 0 0 0 0 0 0 0 0 0 0 0 0 0 0 0 0 0 0 2858.72 2800.37 3072.58 3154.08 3112.48 3250.75 3278.32 3180.32 4583.19 3354.35 3439.06 3381.39 3169.09 3107.12 3008.39 2864.92 2917.98 2749.65 2367.98 2281.59 2102.18 2310.56 2202.8 0 0 0 0 0 0 0 0 0 0 0 0 0 0 0 0 0 0 0 0 0 0 0 0 0 0 0 0 0 0 0 0 0 0 0 0 0 0 0 0 0 0 0 0 0 0 0 0 0 0 0 0 0 0 0 0 0 0 0 0 0 0 0 0 0 0 0 0 0 0 0 0 0 0 0 0 0 0 0 0 0 0 0 0 0 0 0 0 0 0 0 0 0 0 0 0 0 0 0 0 0 0 0 0 0 0 0 0 0 0 0 0 0 0 0 0 0 0 0 0 0 0 0 0 0 0 0 0 0 0 0 0 0 0 0 0 0 0 0 0 0 0 0 0 0 0 0 0 0 0 0 0 0 0 0 0 0 0 0 0 0 0 0 0 0 0 0 0 0 0 0 0 0 0 0 0 0 0 0 0 0 0 0 0 0 0 0 0 0 0 0 0 0 0 0 0 0 0 0 0 0 0 0 0 0 0 0 0 0 0 0 0 0 0 2450.22 0 0 2018.54 2141.48 1888.85 2698.01 2697.18 2775.86 3264.86 3190.06 3264.73 3290.54 3286.86 3394.8 3362.55 3229.92 3167.65 3089.44 3171.49 3222.16 3223.71 3250.69 3147.63 3155.26 3179.96 3188.42 3125.46 2917.42 2905.3 2861.4 2989.26 3067.91 2993.79 3030.95 5725.75 3406.17 4821.31 3683.45 3423.62 2676.49 1861.11 0 0 0 0 0 0 0 0 0 0 0 0 0 0 0 0 0 0 0 0
0 0 0 0 0 0 0 0 0 0 0 0 0 0 0 0 0 0 0 0 0 0 0 0 0 0 0 0 0 0 0 0 0 0 0 0 0 0 0 0 0 0 0 3113.98 3110.86 3107.06 3078.38 3032.32 3109.3 2926.48 2896.42 2822.79 2828.98 2900.68 2933.19 4104.44 2987.08 4492.02 3033.52 3042.71 3035.22 2948.65 2778.43 2646.22 2434.4 2155.4 2050.36 1657.46 1471.21 0 0 0 0 0 0 0 0 0 0 0 0 0 0 0 0 0 0 0 0 0 0 0 0 3241.15 3137.15 3298.88 3432.58 3149.81 3107.86 2943.37 2967.79 3133.87 3176.83 3279.67 3313.35 3332.69 3404.17 3328.13 3360.33 3372.08 3338.33 3374.93 3314.07 3288.67 3271.03 3286.6 3333.69 4249.03 4208.32 4454.1 4562.01 4560.52 3505.74 3370.12 3150.88 3313.8 3262.7 3380.16 2831.37 0 0 0 0 0 0 0 0 0 0 0 0 0 0 0 0 0 0 0 0 0 0 0 0 0 0 0 0 0 0 0 0 0 0 0 0 0 0 0 0 0 0 0 0 0 0 0 0 0 0 0 0 0 0 0 0 0 0 0 0 0 0 0 0 0 0 0 0 0 0 0 0 0 0 0 0 0 0 0 0 0 0 0 0 2559.12 2614.02 2938.27 2972.58 2850.17 3075.73 3065.62 2961.71 3042.38 3177.49 3166.28 3175.63 3047.85 3107.98 2995.77 2812.67 2904.9 2762.33 2236.07 2161.6 0 0 0 0 0 0 0 0 0 0 0 0 0 0 0 0 0 0 0 0 0 0 0 0 0 0 0 0 0 0 0 0 0 0 0 0 0 0 0 0 0 0 0 0 0 0 0 0 0 0 0 0 0 0 0 0 0 0 0 0 0 0 0 0 0 0 0 0 0 0 0 0 0 0 0 0 0 0 0 0 0 0 0 0 0 0 0 0 0 0 0 0 0 0 0 0 0 0 0 0 0 0 0 0 0 0 0 0 0 0 0 0 0 0 0 0 0 0 0 0 0 0 0 0 0 0 0 0 0 0 0 0 0 0 0 0 0 0 0 0 0 0 0 0 0 0 0 0 0 0 0 0 0 0 0 0 0 0 0 0 0 0 0 0 0 0 0 0 0 0 0 0 0 0 0 0 0 0 0 0 0 0 0 0 0 0 0 0 0 0 0 0 0 0 0 0 0 0 0 0 0 0 0 0 0 0 0 0 0 0 0 0 0 0 0 0 2226.25 1951.94 2422.87 1658.72 2022.82 2138.62 1696.35 2141.62 2475.89 2534.34 3065 3039.02 3074.21 3120.99 3225.32 3263.21 3334.68 3201.32 3124.77 3095.99 3176.41 3260.8 3302.71 3282.04 3292.6 3284.67 3320.82 3379.82 3312.5 3180.5 3112.94 3028.27 3221.6 3200.59 3084.27 5520.04 5594.4 3338.66 4919.41 3428.37 3149.46 2601.34 2287.37 0 0 0 0 0 0 0 0 0 0 0 0 0 0 0 0 0 0 0 0
0 0 0 0 0 0 0 0 0 0 0 0 0 0 0 0 0 0 0 0 0 0 0 0 0 0 0 0 0 0 0 0 0 0 0 0 0 0 0 0 0 0 0 3204.38 3171.25 3225.82 3129.9 3156.87 3207.38 2975.05 2832.04 2790.26 2776.59 2907.72 2972.31 4164.03 2988.73 4600.53 3065.34 3096.28 3063.1 3023.63 2742.82 2465.27 2098.76 1855.41 2012.61 1463.53 1280.42 0 0 0 0 0 0 0 0 0 0 0 0 0 0 0 0 0 0 0 0 0 0 0 0 0 3576.59 3459.91 3468.27 3230.35 3213.83 3047.3 3116.35 3177.01 3182.44 3282.43 3340.79 3388.83 3471.72 3357.71 3330.05 3345.65 3344.85 3394.04 3326.55 3298.56 3284.42 3249.87 3303.56 3428.72 4209.06 4500.21 4615.72 4660.73 3689.28 3456.84 3451.93 3656.72 3554.91 3697.82 3119.83 0 0 0 0 0 0 0 0 0 0 0 0 0 0 0 0 0 0 0 0 0 0 0 0 0 0 0 0 0 0 0 0 0 0 0 0 0 0 0 0 0 0 0 0 0 0 0 0 0 0 0 0 0 0 0 0 0 0 0 0 0 0 0 0 0 0 0 0 0 0 0 0 0 0 0 0 0 0 0 0 0 0 0 0 2215.43 2420.66 2714.68 2859.99 2665.22 2811.72 2909.94 2790.49 2855.07 2986.49 3029.96 2985.16 2830.6 2923.88 2855.61 2672.52 2803.83 2480.65 1921.47 1707.07 0 0 0 0 0 0 0 0 0 0 0 0 0 0 0 0 0 0 0 0 0 0 0 0 0 0 0 0 0 0 0 0 0 0 0 0 0 0 0 0 0 0 0 0 0 0 0 0 0 0 0 0 0 0 0 0 0 0 0 0 0 0 0 0 2876.21 0 0 0 0 0 0 0 0 0 0 0 0 0 0 0 0 0 0 0 0 0 0 0 0 0 0 0 0 0 0 0 0 0 0 0 0 0 0 0 0 0 0 0 0 0 0 0 0 0 0 0 0 0 0 0 0 0 0 0 0 0 0 0 0 0 0 0 0 0 0 0 0 0 0 0 0 0 0 0 0 0 0 0 0 0 0 0 0 0 0 0 0 0 0 0 0 0 0 0 0 0 0 0 0 0 0 0 0 0 0 0 0 0 0 0 0 0 0 0 0 0 0 0 0 0 0 0 0 0 0 0 0 0 0 0 0 0 0 0 0 0 0 0 0 0 0 0 0 0 0 0 2718.51 3014.56 0 2389.91 2724.65 2693.07 1848.64 1989.17 2283.39 2489.92 2965.54 3114.85 3168.13 3224.02 3238.58 3383.98 3443.08 3260.1 3165.62 3197.11 3225.01 3308.71 3307.86 4154.13 3339.79 4004.9 4366.35 3514.04 3413.93 3352.34 3298.82 3256.31 3407.21 3359.32 3236.64 5355.98 3281.46 3405.27 4991.86 4602.3 3206.09 2743.76 2525.87 2445.47 0 0 0 0 0 0 0 0 0 0 0 0 0 0 0 0 0 0 0
0 0 0 0 0 0 0 0 0 0 0 0 0 0 0 0 0 0 0 0 0 0 0 0 0 0 0 0 0 0 0 0 0 0 0 0 0 0 0 0 0 0 0 3335.28 0 3241.08 3217.03 3192.49 3140.56 2820.37 2683.25 2620.19 2627.94 2805.89 2879.23 2988.09 2958.89 2801.49 3159.48 3142.91 3134.69 3007.37 2663.28 2437.08 1998.08 1624.76 1890.62 0 0 0 0 0 0 0 0 0 0 0 0 0 0 0 0 0 0 0 0 0 0 0 0 0 0 0 2935.65 3064.89 3140.73 3075.62 2867.81 2772.19 2968.79 3062.26 3071.34 3182.25 3235.21 3349.53 3422.29 3382.96 3353.08 3341.12 3325.76 3407.35 3388.22 3359.66 3323.32 3298.17 3316.75 4278.17 4278.72 4578.06 4546.8 3536.63 3648.77 3514.7 3494.64 3887.07 4025.27 4125.74 0 0 0 0 0 0 0 0 0 0 0 0 0 0 0 0 0 0 0 0 0 0 0 0 0 0 0 0 0 0 0 0 0 0 0 0 0 0 0 0 0 0 0 0 0 0 0 0 0 0 0 0 0 0 0 0 0 0 0 0 0 0 0 0 0 0 0 0 0 0 0 0 0 0 0 0 0 0 0 0 0 0 0 0 0 0 2597.63 2642.43 2916.87 2618.02 2774.66 2869.33 2747.4 2729.79 2816.77 2832.08 2870.85 2776.55 2895.87 2818.86 2597.07 2825.07 0 0 0 0 0 0 0 0 0 0 0 0 0 0 0 0 0 0 0 0 0 0 0 0 0 0 0 0 0 0 0 0 0 0 0 0 0 0 0 0 0 0 0 0 0 0 0 0 0 0 0 0 0 0 0 0 0 0 0 0 0 0 2715.91 2544.1 2597.55 2672.31 2904.6 2788.78 3025.1 2979.86 2809.51 3136.86 3354.08 3268.23 3285.06 3087.05 3342.99 0 0 0 0 0 0 0 0 0 0 0 0 0 0 0 0 0 0 0 0 0 0 0 0 0 0 0 0 0 0 0 0 0 0 0 0 0 0 0 0 0 0 0 0 0 0 0 0 0 0 0 0 0 0 0 0 0 0 0 0 0 0 0 0 0 0 0 0 0 0 0 0 0 0 0 0 0 0 0 0 0 0 0 0 0 0 0 0 0 0 0 0 0 0 0 0 0 0 0 0 0 0 0 0 0 0 0 0 0 0 0 0 0 0 0 0 0 0 0 0 0 0 0 0 0 0 0 0 0 0 0 0 0 0 0 0 0 0 0 0 0 0 0 0 0 2538.44 2825.07 2675.72 2356.28 2379.47 2440.03 2561.82 2998.88 3079.85 3119.65 3181.77 3255.36 3328.6 3309.03 3199.18 3162.52 3209.46 3250.94 3290.15 3268.87 3258.9 3256.75 3336.14 3360.66 3384.53 3289.44 3269.82 3245.22 3215.99 3314 3309.69 3174.61 3135.74 3289.38 3402.1 4359.2 3299.47 3161.98 3008.77 2889.99 2767.48 0 0 0 0 0 0 0 0 0 0 0 0 0 0 0 0 0 0 0
0 0 0 0 0 0 0 0 0 0 0 0 0 0 0 0 0 0 0 0 0 0 0 0 0 0 0 0 0 0 0 0 0 0 0 0 0 0 0 0 0 0 0 2876.86 0 3362.28 3167.71 3095.99 3032.7 2890.54 2778.29 2631.28 2668.15 2669.21 2678.33 2862.67 2828.17 2599.24 2876.17 2821.23 2889.24 2623.92 2336.82 2094.49 1706.65 1411.3 0 0 0 0 0 0 0 0 0 0 0 0 0 0 0 0 0 0 0 0 0 0 0 0 0 0 0 0 0 3767.83 3590.13 3142.15 2878.63 2595.82 2712.58 2854.2 2926.28 3022.76 3060.08 3215.74 3340.72 3317.08 3274.87 3311.38 3317.54 3416.09 3402.86 3350.33 3313.15 3282.43 3244.59 3388.36 3373.91 3408.8 3306.88 3292.47 3430.48 3282.3 3218.58 3673.37 3685.72 0 0 0 0 0 0 0 0 0 0 0 0 0 0 0 0 0 0 0 0 0 0 0 0 0 0 0 0 0 0 0 0 0 0 0 0 0 0 0 0 0 0 0 0 0 0 0 0 0 0 0 0 0 0 0 0 0 0 0 0 0 0 0 0 0 0 0 0 0 0 0 0 0 0 0 0 0 0 0 0 0 0 0 0 0 0 0 2652.12 2640.39 2993.31 2689.45 2783.09 2890.49 2857.94 2916.87 3027.28 2962.66 2995.77 0 0 0 0 0 0 0 0 0 0 0 0 0 0 0 0 0 0 0 0 0 0 0 0 0 0 0 0 0 0 0 0 0 0 0 0 0 0 0 0 0 0 0 0 0 0 0 0 0 0 0 0 0 0 0 0 0 0 0 0 0 0 0 0 0 2122.33 2739.42 2784.75 2760.19 2854.05 3040.39 3306.36 3162.28 3290.41 3329.85 3081.32 3438.77 3534.25 3482.67 3335.74 3031.55 3227.37 0 0 0 0 0 0 0 0 0 0 0 0 0 0 0 0 0 0 0 0 0 0 0 0 0 0 0 0 0 0 0 0 0 0 0 0 0 0 0 0 0 0 0 0 0 0 0 0 0 0 0 0 0 0 0 0 0 0 0 0 0 0 0 0 0 0 0 0 0 0 0 0 0 0 0 0 0 0 0 0 0 0 0 0 0 0 0 0 0 0 0 0 0 0 0 0 0 0 0 0 0 0 0 0 0 0 0 0 0 0 0 0 0 0 0 0 0 0 0 0 0 0 0 0 0 0 0 0 0 0 0 0 0 0 0 0 2847.37 2634.09 2566.44 2636.66 2668.44 2605.82 2585.66 2595.42 2659.22 2776.32 3147.63 3032.59 2797.38 2831.08 2982.51 3118.2 3330.38 3319.31 3177.79 3197.05 3251.64 3330.25 3287.96 3202.18 3171.37 3216.66 3266.39 4078.7 3348.86 3282.3 3267.98 3326.48 3364.37 3341.86 3256.56 3254.85 3199.24 3147.04 3252.46 3240.77 3145.86 3056.96 3251.45 3308.25 3201.93 3175.03 3079.17 2935.19 2902.39 2827.12 3288.73 0 0 0 0 0 0 0 0 0 0 0 0 0 0 0 0 0 0
0 0 0 0 0 0 0 0 0 0 0 0 0 0 0 0 0 0 0 0 0 0 0 0 0 0 0 0 0 0 0 0 0 0 0 0 0 0 0 0 0 0 0 0 0 0 3580.17 3055.57 2787.52 2663.15 2610.73 2587.5 2559 2555.77 2504.64 2654.22 2769.85 2646.72 2912.77 2771.18 2797.52 2447.82 2163.55 1901.07 1513.9 0 0 0 0 0 0 0 0 0 0 0 0 0 0 0 0 0 0 0 0 0 0 0 0 0 0 0 0 0 0 3139.44 3132.41 3061.09 2871.73 2564.71 2597.83 2819.9 2952.13 3229.36 3203.76 3269.57 3350.4 3361.47 3304.47 3326.09 3287.89 3368.29 3307.47 3255.42 3250.19 3199 3095.71 3227.12 3219.13 3275.89 3188.3 3152.12 3233.59 3043.7 3010.99 3460.41 3506.84 0 0 0 0 0 0 0 0 0 0 0 0 0 0 0 0 0 0 0 0 0 0 0 0 0 0 0 0 0 0 0 0 0 0 0 0 0 0 0 0 0 0 0 0 0 0 0 0 0 0 0 0 0 0 0 0 0 0 0 0 0 0 0 0 0 0 0 0 0 0 0 0 0 0 0 0 0 0 0 0 0 0 0 0 0 0 0 0 0 0 0 0 2708.02 2587.1 2648.48 2769.67 0 0 0 0 0 0 0 0 0 0 0 0 0 0 0 0 0 0 0 0 0 0 0 0 0 0 0 0 0 0 0 0 0 0 0 0 0 0 0 0 0 0 0 0 0 0 0 0 0 0 0 0 0 0 0 0 0 0 0 0 0 0 0 0 0 0 2829.98 3022.1 3504.5 3143.03 3055.9 3063.94 3234.34 3388.36 3256.12 3404.17 3428.09 3214.75 3551.23 3619.88 3618.31 3450.09 3188.06 3438.35 3099.6 2794.44 0 0 0 0 0 0 0 0 0 0 0 0 0 0 0 0 0 0 0 0 0 0 0 0 0 0 0 0 0 0 0 0 0 0 0 0 0 0 0 0 0 0 0 0 0 0 0 0 0 0 0 0 0 0 0 0 0 0 0 0 0 0 0 0 0 0 0 0 0 0 0 0 0 0 0 0 0 0 0 0 0 0 0 0 0 0 0 0 0 0 0 0 0 0 0 0 0 0 0 0 0 0 0 0 0 0 0 0 0 0 0 0 0 0 0 0 0 0 0 0 0 0 0 0 0 0 0 0 0 0 0 2993.1 2980.66 2977.22 2952.13 2778.29 2688.89 2697.53 2760.47 2698.83 2582 2531.97 2388.65 2459.84 2611.95 2597.07 2478.63 2504.76 2765.83 3085.01 6069.81 5910.51 3192.3 3262.45 3290.54 3372.76 3258.27 3142.5 3101.09 3138.68 3177.61 3254.54 3229.6 3170.53 3162.64 3286.28 3360.53 3327.47 3265.75 3264.99 3210.14 3182.5 3289.96 3262.96 3128.84 3034.79 3248.68 3269.31 3145.09 3161.45 3003.33 2986.7 2877.15 2671.93 2942.44 1825.87 0 0 0 0 0 0 0 0 0 0 0 0 0 0 0 0 0
0 0 0 0 0 0 0 0 0 0 0 0 0 0 0 0 0 0 0 0 0 0 0 0 0 0 0 0 0 0 0 0 0 0 0 0 0 0 0 0 0 0 0 0 0 0 3576.82 2913.93 0 2669.93 2584.23 2539.52 2490.26 2481.31 2252.03 2469.91 2719.7 2456.6 2780.87 2764.65 2740.36 0 0 0 0 0 0 0 0 0 0 0 0 0 0 0 0 0 0 0 0 0 0 0 0 0 0 0 0 0 0 0 0 0 0 2494 2547.27 2655.14 2576.02 2367.61 2166.31 2411.48 2601.86 2931.49 2941 3092.63 3259.15 3241.21 3170.47 3289.44 3245.53 3344.65 3307.08 3287.18 3250.5 3160.26 4499.25 3216.91 3201.26 3260.74 3201.01 3136.92 3167.12 3044.59 3051.29 3491.37 3611.23 0 0 0 0 0 0 0 0 0 0 0 0 0 0 0 0 0 0 0 0 0 0 0 0 0 0 0 0 0 0 0 0 0 0 0 0 0 0 0 0 0 0 0 0 0 0 0 0 0 0 0 0 0 0 0 0 0 0 0 0 0 0 0 0 0 0 0 0 0 0 0 0 0 0 0 0 0 0 0 0 0 0 0 0 0 0 0 0 0 0 0 0 0 0 0 0 0 0 0 0 0 0 0 0 0 0 0 0 0 0 0 0 0 0 0 0 0 0 0 0 0 0 0 0 0 0 0 0 0 0 0 0 0 0 0 0 0 0 0 0 0 0 0 0 0 0 0 0 0 0 0 0 0 0 0 0 0 0 0 0 0 0 3442.58 3509.26 3729.47 3455.42 3354.48 3307.6 3437.72 3549.35 3434.97 3513.15 3438.63 3290.99 3528.45 3526.22 3487.74 3331.5 3057.96 3237.21 2987.56 2811.68 0 2507.26 0 0 0 0 0 0 0 0 0 0 0 0 0 0 0 0 0 0 0 0 0 0 0 0 0 0 0 0 0 0 0 0 0 0 0 0 0 0 0 0 0 0 0 0 0 0 0 0 0 0 0 0 0 0 0 0 0 0 0 0 0 0 0 0 0 0 0 0 0 0 0 0 0 0 0 0 0 0 0 0 0 0 0 0 0 0 0 0 0 0 0 0 0 0 0 0 0 0 0 0 0 0 0 0 0 0 0 0 0 0 0 0 0 0 0 0 0 0 0 0 0 0 0 0 0 0 0 0 0 3461.76 3424.81 3331.64 3315.31 3174.73 3130.36 2958.37 2975.84 2858.52 2737.41 2599.08 2441.3 2454.41 2475.85 2493.62 2511.32 2530.1 2927.15 3260.93 5431.41 5373.14 3372.55 4844.42 3385.21 3429.5 3334.02 3218.27 3155.09 3162.88 3183.52 3266.32 3225.75 3164.97 3159.96 3268.1 3350.6 3329.78 3254.22 3266.51 3208.97 3229.42 3346.59 3324.97 3189.45 3071.23 3267.28 3336.07 3142.97 4549.14 2871.93 2893.33 2872.57 2604.93 2557.17 1629.65 0 0 0 0 0 0 0 0 0 0 0 0 0 0 0 0 0
0 0 0 0 0 0 0 0 0 0 0 0 0 0 0 0 0 0 0 0 0 0 0 0 0 0 0 0 0 0 0 0 0 0 0 0 0 0 0 0 0 0 0 0 0 0 0 0 0 3265.37 2965.12 2735.44 2794.86 2723.63 0 0 0 0 0 0 0 0 0 0 0 0 0 0 0 0 0 0 0 0 0 0 0 0 0 0 0 0 0 0 0 0 0 0 0 0 0 0 0 0 0 0 0 2479.73 2469.33 2266.02 2104.13 2328.55 2505.84 2851.38 2901.78 2976.9 3102.46 3093.2 3030.56 3180.56 3163.53 3257.25 3243.46 3262.26 3227 3149.81 3062.76 3209.46 3187.09 3198.88 3121.8 3005.05 2893.23 2787.57 2826.98 3268.1 3347.79 0 0 0 0 0 0 0 0 0 0 0 0 0 0 0 0 0 0 0 0 0 0 0 0 0 0 0 0 0 0 0 0 0 0 0 0 0 0 0 0 0 0 0 0 0 0 0 0 0 0 0 0 0 0 0 0 0 0 0 0 0 0 0 0 0 0 0 0 0 0 0 0 0 0 0 0 0 0 0 0 0 0 0 0 0 0 0 0 0 0 0 0 0 0 0 0 0 0 0 0 0 0 0 0 0 0 0 0 0 0 0 0 0 0 0 0 0 0 0 0 0 0 0 0 0 0 0 0 0 0 0 0 0 0 0 0 0 0 0 0 0 0 0 0 0 0 0 0 0 0 0 0 0 0 0 0 0 0 0 0 0 0 3613.09 3486.58 3667.83 3488.83 3402.92 3346.39 3430.76 3444.21 3323.72 3424.95 3393.77 3220.37 3443.15 3449.17 3417.34 3339.66 3170.11 3397.14 3132.29 3053.68 3328.99 2763.83 2501.43 0 0 0 0 0 0 0 0 0 0 0 0 0 0 0 0 0 0 0 0 0 0 0 0 0 0 0 0 0 0 0 0 0 0 0 0 0 0 0 0 0 0 0 0 0 0 0 0 0 0 0 0 0 0 0 0 0 0 0 0 0 0 0 0 0 0 0 0 0 0 0 0 0 0 0 0 0 0 0 0 0 0 0 0 0 0 0 0 0 0 0 0 0 0 0 0 0 0 0 0 0 0 0 0 0 0 0 0 0 0 0 0 0 0 0 0 0 0 0 0 0 0 0 0 0 0 0 3734.28 3785.68 3512.86 3392.81 3353.01 3295.51 3299.21 3051.56 3041.28 2884.47 2749.56 2692.25 2594.7 2586.78 2436.2 2430.02 2469.29 2474.72 2804.44 3102.81 5451.53 5495.09 3368.42 5150.94 3302.71 3339.33 3232.09 3165.26 3137.39 3140.62 3110.98 3190.18 3135.57 3112.19 3087.62 3235.96 3310.86 3275.63 3269.5 3306.23 3246.04 3301.02 3425.64 3474.23 3298.36 3166.64 3321.41 3274.29 3129.66 3188.48 2828.93 2888.74 2834.71 2570.45 2393.96 1390.44 0 0 0 0 0 0 0 0 0 0 0 0 0 0 0 0 0
0 0 0 0 0 0 0 0 0 0 0 0 0 0 0 0 0 0 0 0 0 0 0 0 0 0 0 0 0 0 0 0 0 0 0 0 0 0 0 0 0 0 0 0 0 0 0 0 0 0 0 0 0 0 0 0 0 0 0 0 0 0 0 0 0 0 0 0 0 0 0 0 0 0 0 0 0 0 0 0 0 0 0 0 0 0 0 0 0 0 0 0 0 0 0 0 0 2250.73 2441.84 2251.07 2279.2 2419.65 2608.09 2889.04 2895.37 3043.04 3147.86 3135.33 3069.93 3193.09 3189.33 3231.91 3215.55 3268.23 3222.66 3151.83 3024.06 3141.62 3101.95 3142.2 3123.08 3015.37 2909.53 2770.04 2772.42 3256.18 3317.67 0 0 0 0 0 0 0 0 0 0 0 0 0 0 0 0 0 0 0 0 0 0 0 0 0 0 0 0 0 0 0 0 0 0 0 0 0 0 0 0 0 0 0 0 0 0 0 0 0 0 0 0 0 0 0 0 0 0 0 0 0 0 0 0 0 0 0 0 0 0 0 0 0 0 0 0 0 0 0 0 0 0 0 0 0 0 0 0 0 0 0 0 0 0 0 0 0 0 0 0 0 0 0 0 0 0 0 0 0 0 0 0 0 0 0 0 0 0 0 0 0 0 0 0 0 0 0 0 0 0 0 0 0 0 0 0 0 0 0 0 0 0 0 0 0 0 0 0 0 0 0 0 0 0 0 0 0 0 0 0 0 3514.63 3470.35 3448.67 3555.89 3425.15 3422.36 3351.94 3372.28 3400.79 3295 3403.55 3332.3 3208.18 3368.97 3353.34 3360.93 3339.66 3230.04 3390.34 3058.8 3038.96 3264.48 2883.13 2648.77 2768.16 2053.65 1456.23 0 0 0 0 0 0 0 0 0 0 0 0 0 0 0 0 0 0 0 0 0 0 0 0 0 0 0 0 0 0 0 0 0 0 0 0 0 0 0 0 0 0 0 0 0 0 0 0 0 0 0 0 0 0 0 0 0 0 0 0 0 0 0 0 0 0 0 0 0 0 0 0 0 0 0 0 0 0 0 0 0 0 0 0 0 0 0 0 0 0 0 0 0 0 0 0 0 0 0 0 0 0 0 0 0 0 0 0 0 0 0 0 0 0 0 0 0 0 0 0 0 0 0 3709.51 3680.62 3613.87 3299.6 3198.27 3113.28 3116.64 3104.76 2893.48 2848.09 2768.57 2665.86 2652.41 2600.13 2660.66 2488.11 2435.49 2402.95 2461.47 2645.05 2786 5271.67 3210.94 3088.7 3166.1 3129.37 3232.16 3132.64 3122.44 3131.59 3144.21 3113.98 3197.84 3172.87 3131.41 3101.49 3249.94 3322.27 3300.83 3299.08 3360.6 3299.47 3356.5 3455.2 3516.47 3346.12 3175.87 3261.94 3232.65 3115.83 3105.74 2713.02 2796.72 2652.54 2250.7 1673.54 830.828 0 0 0 0 0 0 0 0 0 0 0 0 0 0 0 0 0
0 0 0 0 0 0 0 0 0 0 0 0 0 0 0 0 0 0 0 0 0 0 0 0 0 0 0 0 0 0 0 0 0 0 0 0 0 0 0 0 0 0 0 0 0 0 0 0 0 0 0 0 0 0 0 0 0 0 0 0 0 0 0 0 0 0 0 0 0 0 0 0 0 0 0 0 0 0 0 0 0 0 0 0 0 0 0 0 0 0 0 0 0 0 0 0 0 2500.65 2611.13 2581.96 2504.57 2446.71 2589.33 2894.27 2736.51 2885.07 2937.45 2974.58 2907.97 2968.63 2976.06 2987.08 2935.96 3044.31 3022.32 2961.82 2795.98 2911.3 2942.65 3048.29 3118.67 3051.29 2936.62 2716.09 2748.39 3372.15 0 0 0 0 0 0 0 0 0 0 0 0 0 0 0 0 0 0 0 0 0 0 0 0 0 0 0 0 0 0 0 0 0 0 0 0 0 0 0 0 0 0 0 0 0 0 0 0 0 0 0 0 0 0 0 0 0 0 0 0 0 0 0 0 0 0 0 0 0 0 0 0 0 0 0 0 0 0 0 0 0 0 0 0 0 0 0 0 0 0 0 0 0 0 0 0 0 0 0 0 0 0 0 0 0 0 0 0 0 0 0 0 0 0 0 0 0 0 0 0 0 0 0 0 0 0 0 0 0 0 0 0 0 0 0 0 0 0 0 0 0 0 0 0 0 0 0 0 0 0 0 0 0 0 0 0 0 0 0 0 0 0 3522 3454.35 3358.31 3493.99 3436.1 3505.96 3422.99 3384.39 3407 3345.25 3396.24 3362.35 3276.02 3383.16 3346.12 4251.5 3394.32 3283.65 3388.9 3151.06 3163.95 3291.25 2974.37 2635.62 2567.46 1753.86 1403.52 0 0 0 0 0 0 0 0 0 0 0 0 0 0 0 0 0 0 0 0 0 0 0 0 0 0 0 0 0 0 0 0 0 0 0 0 0 0 0 0 0 0 0 0 0 0 0 0 0 0 0 0 0 0 0 0 0 0 0 0 0 0 0 0 0 0 0 0 0 0 0 0 0 0 0 0 0 0 0 0 0 0 0 0 0 0 0 0 0 0 0 0 0 0 0 0 0 0 0 0 0 0 0 0 0 0 0 0 0 0 0 0 0 0 0 0 0 0 0 0 0 0 3803.1 3754.17 3705.83 3609.21 3309.16 3250.44 3090.12 3122.73 3168.79 2972.73 2966.64 2926.43 2808.57 2811.96 2766.47 2950.36 2672.14 2575.3 2594.46 2458.98 2555.46 2660.49 2919.4 3109.82 2946.01 3075.45 3084.89 3176.41 3123.31 3146.74 3181.29 3180.75 3146.62 3220.55 3194.43 3126.28 3103.27 3258.08 3325.17 3308.9 3329.98 3368.29 3335.94 3393.15 3510.14 3583.38 3403.34 3202.91 3268.93 3215.86 3169.99 3147.81 2894.92 2959.73 2946.99 2633.72 2046.46 1241.74 542.265 0 0 0 0 0 0 0 0 0 0 0 0 0 0 0 0
0 0 0 0 0 0 0 0 0 0 0 0 0 0 0 0 0 0 0 0 0 0 0 0 0 0 0 0 0 0 0 0 0 0 0 0 0 0 0 0 0 0 0 0 0 0 0 0 0 0 0 0 0 0 0 0 0 0 0 0 0 0 0 0 0 0 0 0 0 0 0 0 0 0 0 0 0 0 0 0 0 0 0 0 0 0 0 0 0 0 0 0 0 0 0 0 0 2444.68 5005.42 5180.52 2334.67 2286 2407.53 2756.38 2569.23 2800.23 2943.48 3003.33 2969.58 3038.63 3118.26 3075.34 3080.02 3212.41 3185.03 3073.31 2952.49 3075.9 3089.66 3118.03 3229.6 3131.82 3039.18 2799.48 0 3329.52 0 0 0 0 0 0 0 0 0 0 0 0 0 0 0 0 0 0 0 0 0 0 0 0 0 0 0 0 0 0 0 0 0 0 0 0 0 0 0 0 0 0 0 0 0 0 0 0 0 0 0 0 0 0 0 0 0 0 0 0 0 0 0 0 0 0 0 0 0 0 0 0 0 0 0 0 0 0 0 0 0 0 0 0 0 0 0 0 0 0 0 0 0 0 0 0 0 0 0 0 0 0 0 0 0 0 0 0 0 0 0 0 0 0 0 0 0 0 0 0 0 0 0 0 0 0 0 0 0 0 0 0 0 0 0 0 0 0 0 0 0 0 0 0 0 0 0 0 0 0 0 0 0 0 0 0 0 0 0 0 0 0 3443.57 3389.52 3308.64 3471.07 3440.96 3488.1 3498.8 3494.2 3491.15 3792.87 3736.19 3745.45 3332.56 3383.78 3330.51 3281.91 3216.05 3135.33 3315.38 3221.05 3318.46 3270.72 3106.77 2974.63 3000.91 2007.36 1672.02 0 0 0 0 0 0 0 0 0 0 0 0 0 0 0 0 0 0 0 0 0 0 0 0 0 0 0 0 0 0 0 0 0 0 0 0 0 0 0 0 0 0 0 0 0 0 0 0 0 0 0 0 0 0 0 0 0 0 0 0 0 0 0 0 0 0 0 0 0 0 0 0 0 0 0 0 0 0 0 0 0 0 0 0 0 0 0 0 0 0 0 0 0 0 0 0 0 0 0 0 0 0 0 0 0 0 0 0 0 0 0 0 0 0 0 0 0 0 0 0 0 0 3822.51 3761.74 3625.74 3537.3 3202.85 3200.83 3051.45 3084.44 3179.12 3020.85 3021.4 3053.51 2916.82 2965.01 2930.01 3136.21 2937.86 2783.45 2823.6 2711.48 2703.01 6375.9 5322.85 5325.55 3058.41 3241.15 3235.02 3316.55 3208.97 3220.12 3260.86 3250.5 3232.16 3271.54 3196.32 3150.46 3101.77 3257.89 3310.8 3277.81 3319.57 3310.27 3305.32 3393.98 3445.06 3552.43 3399.68 3233.96 3291.96 3211.68 3296.87 3282.55 3063.15 3239.08 3095.82 2404.88 1871.36 950.944 620.053 467.333 0 0 0 0 0 0 0 0 0 0 0 0 0 0 0
0 0 0 0 0 0 0 0 0 0 0 0 0 0 0 0 0 0 0 0 0 0 0 0 0 0 0 0 0 0 0 0 0 0 0 0 0 0 0 0 0 0 0 0 0 0 0 0 0 0 0 0 0 0 0 0 0 0 0 0 0 0 0 0 0 0 0 0 0 0 0 0 0 0 0 0 0 0 0 0 0 0 0 0 0 0 0 0 0 0 0 0 0 0 0 2015.87 2464 2589.37 2701.44 2790.26 2586.86 2406.88 2569.98 2891.93 2562.09 2798.22 2991.34 3014.5 2995.98 3099.94 3180.26 3172.33 3105.56 3298.23 3251.51 3104.82 2958.58 3028.21 3066.62 3091.14 3130.36 3148.99 3114.67 0 0 3258.71 0 0 0 0 0 0 0 0 0 0 0 0 0 0 0 0 0 0 0 0 0 0 0 0 0 0 0 0 0 0 0 0 0 0 0 0 0 0 0 0 0 0 0 0 0 0 0 0 0 0 0 0 0 0 0 0 0 0 0 0 0 0 0 0 0 0 0 0 0 0 0 0 0 0 0 0 0 0 0 0 0 0 0 0 0 0 0 0 0 0 0 0 0 0 0 0 0 0 0 0 0 0 0 0 0 0 0 0 0 0 0 0 0 0 0 0 0 0 0 0 0 0 0 0 0 0 0 0 0 0 0 0 0 0 0 0 0 0 0 0 0 0 0 0 0 0 0 0 0 0 0 0 0 0 0 0 0 0 0 0 3306.82 3477.26 3222.72 3257.19 3148.51 3284.93 3317.34 3362.55 3365.92 3382.07 3376.69 3294.03 3263.65 3207.99 3260.36 3251.89 3175.93 3153.54 3088.58 3015.96 3213.52 3220.92 3389.59 3132.23 3114.56 3104.76 2980.39 2173.1 1703.15 0 0 0 0 0 0 0 0 0 0 0 0 0 0 0 0 0 0 0 0 0 0 0 0 0 0 0 0 0 0 0 0 0 0 0 0 0 0 0 0 0 0 0 0 0 0 0 0 0 0 0 0 0 0 0 0 0 0 0 0 0 0 0 0 0 0 0 0 0 0 0 0 0 0 0 0 0 0 0 0 0 0 0 0 0 0 0 0 0 0 0 0 0 0 0 0 0 0 0 0 0 0 0 0 0 0 0 0 0 0 0 0 0 0 0 0 0 0 0 0 4117.43 3740.61 4221.13 4106.65 3813.38 4195.48 3410.05 3338.26 3220.37 3245.22 3349.19 3193.4 3149.05 3145.74 3001.67 3069.32 3059.13 3160.43 2981.82 2852.69 2920.07 2880.66 2769.08 6277.85 5205.6 3121.57 3026.96 3161.8 3194.31 3243.15 3175.87 3238.27 3275.19 3246.92 3223.21 3244.66 3191.33 3113.8 3040.01 3150.58 3181.29 3155.44 3214.45 3189.45 3183.34 3252.46 3322.01 3462.26 3337.6 3222.16 3273.08 3182.74 3306.62 3289.5 3089.78 3246.35 3167.06 2301.36 1666.92 881.887 503.219 379.483 0 0 0 0 0 0 0 0 0 0 0 0 0 0 0
0 0 0 0 0 0 0 0 0 0 0 0 0 0 0 0 0 0 0 0 0 0 0 0 0 0 0 0 0 0 0 0 0 0 0 0 0 0 0 0 0 0 0 0 0 0 0 0 0 0 0 0 0 0 0 0 0 0 0 0 0 0 0 0 0 0 0 0 0 0 0 0 0 0 0 0 0 0 0 0 0 0 0 0 0 0 0 0 0 0 0 0 0 0 0 2702.57 2694.2 2807.35 2934.42 3032.65 2722.17 2376.47 2446.79 2707.72 2475.85 2720.8 2822.79 2804.34 2775.58 2931.49 3116.52 3060.19 2965.64 3210.75 3201.44 3086.99 2990.75 3105.56 3075.45 2894.42 3104.99 3181.95 3081.49 0 0 0 0 0 0 0 0 0 0 0 0 0 0 0 0 0 0 0 0 0 0 0 0 0 0 0 0 0 0 0 0 0 0 0 0 0 0 0 0 0 0 0 0 0 0 0 0 0 0 0 0 0 0 0 0 0 0 0 0 0 0 0 0 0 0 0 0 0 0 0 0 0 0 0 0 0 0 0 0 0 0 0 0 0 0 0 0 0 0 0 0 0 0 0 0 0 0 0 0 0 0 0 0 0 0 0 0 0 0 0 0 0 0 0 0 0 0 0 0 0 0 0 0 0 0 0 0 0 0 0 0 0 0 0 0 0 0 0 0 0 0 0 0 0 0 0 0 0 0 0 0 0 0 0 0 0 0 0 0 0 0 0 3336.61 3539.61 3306.16 3392.67 3216.11 3308.9 3350.26 3417.55 3419.92 3383.37 3365.05 3300.38 3233.03 3179.66 3250.19 3215.99 3120.58 3109.42 3068.25 3006.18 3116.75 3132.7 3314.39 3083.02 3022.1 3099.31 2741.88 2017.66 1592.18 0 0 0 0 0 0 0 0 0 0 0 0 0 0 0 0 0 0 0 0 0 0 0 0 0 0 0 0 0 0 0 0 0 0 0 0 0 0 0 0 0 0 0 0 0 0 0 0 0 0 0 0 0 0 0 0 0 0 0 0 0 0 0 0 0 0 0 0 0 0 0 0 0 0 0 0 0 0 0 0 0 0 0 0 0 0 0 0 0 0 0 0 0 0 0 0 0 0 0 0 0 0 0 0 0 0 0 0 0 0 0 0 0 0 0 0 0 0 0 0 3424.53 3207.44 3544.17 3566.25 3601 3478.92 3116.12 3106.02 3076.41 3159.3 3253.59 3120.41 3073.25 3065.39 2992.94 3084.67 3061.09 3100.63 2881.95 2784.24 2760.06 2748.21 2685.01 2773.75 2932.67 3145.15 3060.02 3210.94 3168.43 3273.2 3227.43 3284.1 3318.06 3294.61 3254.03 3296.74 3246.98 3192.18 3101.6 3194.74 3253.53 3241.52 3314.33 3301.22 3299.6 3375.47 3466.05 3632.89 3498.72 3366.33 3386.03 3253.53 3338.73 3191.27 2955.71 2906.16 2786.46 1910.31 1133.3 848.826 536.363 0 0 0 0 0 0 0 0 0 0 0 0 0 0 0 0
0 0 0 0 0 0 0 0 0 0 0 0 0 0 0 0 0 0 0 0 0 0 0 0 0 0 0 0 0 0 0 0 0 0 0 0 0 0 0 0 0 0 0 0 0 0 0 0 0 0 0 0 0 0 0 0 0 0 0 0 0 0 0 0 0 0 0 0 0 0 0 0 0 0 0 0 0 0 0 0 0 0 0 0 0 0 0 0 0 0 0 0 0 0 0 3049.79 3088.19 3027.78 3075.17 3862.01 2720.01 2417.28 2498.19 2705.45 2592.77 2833.42 2963.02 2955.25 2955.61 3085.74 3253.34 3145.56 3060.58 3199.18 3165.14 3034.4 2945.96 2974.05 2963.96 2779.95 3154.85 3336.74 3323.32 3030.4 3081.49 0 0 0 0 0 0 0 0 0 0 0 0 0 0 0 0 0 0 0 0 0 0 0 0 0 0 0 0 0 0 0 0 0 0 0 0 0 0 0 0 0 0 0 0 0 0 0 0 0 0 0 0 0 0 0 0 0 0 0 0 0 0 0 0 0 0 0 0 0 0 0 0 0 0 0 0 0 0 0 0 0 0 0 0 0 0 0 0 0 0 0 0 0 0 0 0 0 0 0 0 0 0 0 0 0 0 0 0 0 0 0 0 0 0 0 0 0 0 0 0 0 0 0 0 0 0 0 0 0 0 0 0 0 0 0 0 0 0 0 0 0 0 0 0 0 0 0 0 0 0 0 0 0 0 0 0 0 0 0 0 0 3484.48 3630.37 3399.68 3456.13 3306.68 3309.23 4147.15 4055.53 3995.74 3323.85 3286.28 3245.03 3154.49 3099.08 3226.62 3175.45 3066.62 3079.51 3092.68 3090.4 3158.89 3217.22 3363.36 3096.39 3108.55 3350.6 2933.65 1939.22 0 0 0 0 0 0 0 0 0 0 0 0 0 0 0 0 0 0 0 0 0 0 0 0 0 0 0 0 0 0 0 0 0 0 0 0 0 0 0 0 0 0 0 0 0 0 0 0 0 0 0 0 0 0 0 0 1408.3 1368.6 0 0 0 0 0 0 0 0 0 0 0 0 0 0 0 0 0 0 0 0 0 0 0 0 0 0 0 0 0 0 0 0 0 0 0 0 0 0 0 0 0 0 0 0 0 0 0 0 0 0 0 0 0 0 0 0 0 0 0 0 0 0 2969.95 3354.48 3201.01 3439.48 3478.27 3588.6 3446.05 3097.08 3125.35 3130.07 3232.59 3274.29 3158.41 3100.91 3075.84 3029.63 3100.57 3093.71 3088.24 2877.84 2753.35 2744.75 2771.36 2710.21 2721.82 2855.02 3041.11 3105.39 3307.6 3215.74 3250.94 3214.51 3268.8 3297.39 3284.22 3212.78 3188.79 3115.89 3144.62 3044.42 3125.99 3159.24 3177.07 3259.72 3268.17 3344.79 3443.71 3502.96 3714.77 3625.51 3567.46 3539.84 3454.71 4851.14 3412.75 3228.05 5519.68 2843.46 1422.82 491.023 0 414.257 0 0 0 0 0 0 0 0 0 0 0 0 0 0 0 0
0 0 0 0 0 0 0 0 0 0 0 0 0 0 0 0 0 0 0 0 0 0 0 0 0 0 0 0 0 0 0 0 0 0 0 0 0 0 0 0 0 0 0 0 0 0 0 0 0 0 0 0 0 0 0 0 0 0 0 0 0 0 0 0 0 0 0 0 0 0 0 0 0 0 0 0 0 0 0 0 0 0 0 0 0 0 0 0 0 0 0 0 0 0 0 0 3592.67 3233.34 3828 3948.91 2692.73 2334.93 2258.61 2455.88 2401.09 2559.82 2757.65 2864.77 2821.79 2851.67 3064.78 3122.9 3075.39 3271.86 3225.32 3068.08 3020.36 3196.44 3207.81 3063.43 3299.53 3384.39 3311.19 3077.76 2944.98 0 0 0 0 0 0 0 0 0 0 0 0 0 0 0 0 0 0 0 0 0 0 0 0 0 0 0 0 0 0 0 0 0 0 0 0 0 0 0 0 0 0 0 0 0 0 0 0 0 0 0 0 0 0 0 0 0 0 0 0 0 0 0 0 0 0 0 0 0 0 0 0 0 0 0 0 0 0 0 0 0 0 0 0 0 0 0 0 0 0 0 0 0 0 0 0 0 0 0 0 0 0 0 0 0 0 0 0 0 0 0 0 0 0 0 0 0 0 0 0 0 0 0 0 0 0 0 0 0 0 0 0 0 0 0 0 0 0 0 0 0 0 0 0 0 0 0 0 0 0 0 0 0 0 0 0 0 0 0 0 0 3241.52 3423.69 3203.15 3265.75 3122.5 3123.37 3990.14 3955.15 3915.18 3265.5 3231.84 3195.53 3119.07 3058.13 3170.89 3121.97 3003.17 3002.53 3050.95 3061.98 3126.28 3201.01 3392.4 3192.3 3089.44 3317.6 2771.68 0 0 0 0 0 0 0 0 0 0 0 0 0 0 0 0 0 0 0 0 0 0 0 0 0 0 0 0 0 0 0 0 0 0 0 0 0 0 0 0 0 0 0 0 0 0 0 0 0 0 0 0 0 0 0 0 0 1533.38 1474.21 0 0 0 0 0 0 0 0 0 0 0 0 0 0 0 0 0 0 0 0 0 0 0 0 0 0 0 0 0 0 0 0 0 0 0 0 0 0 0 0 0 0 0 0 0 0 0 0 0 0 0 0 0 0 0 0 0 0 0 0 0 0 3264.1 3439.62 3299.4 3479.57 3600.69 3676.99 3473.95 3144.56 3137.62 3125.17 3166.04 3210.88 3145.74 3082.46 3054.68 3033.63 3110.63 3135.28 3155.8 3052.56 2940.64 2915.3 2920.42 2856.38 2917.37 2970.89 3112.42 3191.27 3269.12 3175.87 3203.89 3214.2 3301.54 3299.79 3296.74 3262.32 3240.27 3212.6 3257.57 3160.79 3207.44 3228.11 3270.27 3338.6 3317.74 3392.67 3447.04 3494.42 3697.9 5148.57 3509.85 3457.34 3368.09 3510.58 3206.4 3051.12 2662.94 2605.78 1303.93 503.66 0 0 0 0 0 0 0 0 0 0 0 0 0 0 0 0 0 0
0 0 0 0 0 0 0 0 0 0 0 0 0 0 0 0 0 0 0 0 0 0 0 0 0 0 0 0 0 0 0 0 0 0 0 0 0 0 0 0 0 0 0 0 0 0 0 0 0 0 0 0 0 0 0 0 0 0 0 0 0 0 0 0 0 0 0 0 0 0 0 0 0 0 0 0 0 0 0 0 0 0 0 0 0 0 0 0 0 0 0 0 0 0 0 3611.69 3788.59 3469.92 4156.4 4273.16 4267.18 2952.96 2865.21 2861.35 2728.95 2774.43 2946.84 3103.49 2978.49 2980.02 3185.88 3186.85 3169.81 3379.21 3364.91 3058.3 2834.04 2936.42 2912.26 2601.58 2876.76 3200.59 3109.59 0 0 0 0 0 0 0 0 0 0 0 0 0 0 0 0 0 0 0 0 0 0 0 0 0 0 0 0 0 0 0 0 0 0 0 0 0 0 0 0 0 0 0 0 0 0 0 0 0 0 0 0 0 0 0 0 0 0 0 0 0 0 0 0 0 0 0 0 0 0 0 0 0 0 0 0 0 0 0 0 0 0 0 0 0 0 0 0 0 0 0 0 0 0 0 0 0 0 0 0 0 0 0 0 0 0 0 0 0 0 0 0 0 0 0 0 0 0 0 0 0 0 0 0 0 0 0 0 0 0 0 0 0 0 0 0 0 0 0 0 0 0 0 0 0 0 0 0 0 0 0 0 0 0 0 0 0 0 0 0 0 0 2666.45 2975.58 3196.44 3083.53 3141.56 3035.33 3009.64 3925.35 3923.79 3321.81 3201.14 3100 3079.01 3021.99 2987.66 3121.8 3059.08 2979.49 2982.83 3050.23 3116.12 3175.75 3249.12 3419.08 3225.75 3078.44 3207.44 0 0 0 0 0 0 0 0 0 0 0 0 0 0 0 0 0 0 0 0 0 0 0 0 0 0 0 0 0 0 0 0 0 0 0 0 0 0 0 0 0 0 0 0 0 0 0 0 0 0 0 0 0 0 2890.24 2741.16 2307.19 2173.22 1897.16 1723.23 1408.73 1162.52 0 0 0 0 0 0 0 0 0 0 0 0 0 0 0 0 0 0 0 0 0 0 0 0 0 0 0 0 0 0 0 0 0 0 0 0 0 0 0 0 0 0 0 0 0 0 0 0 0 0 0 0 0 0 0 0 0 0 3171.31 3124.71 3366.73 3486 3312.95 3357.44 3451.37 3469.35 3263.72 2992.78 2987.4 2959.1 2973.47 3041.06 3034.9 2994.92 2989.69 3000.38 3075.79 3095.71 3955.43 3110.28 2981.87 2941 2943.58 2889.94 2880.02 2851.82 2976.48 3121.86 3174.31 3107.69 3127.21 3140.03 3222.04 3265.24 3249.81 3214.69 3168.79 3191.45 3262.51 3207.56 3259.09 3274.35 3324.7 3441.17 3407.42 3486.8 3473.95 3506.25 5192.22 3601.85 3495.01 3396.66 3209.89 3350 2973.16 2992.35 2377.11 2205.99 477.663 280.889 0 0 0 0 0 0 0 0 0 0 0 0 0 0 0 0 0 0
0 0 0 0 0 0 0 0 0 0 0 0 0 0 0 0 0 0 0 0 0 0 0 0 0 0 0 0 0 0 0 0 0 0 0 0 0 0 0 0 0 0 0 0 0 0 0 0 0 0 0 0 0 0 0 0 0 0 0 0 0 0 0 0 0 0 0 0 0 0 0 0 0 0 0 0 0 0 0 0 0 0 0 0 0 0 0 0 0 0 0 0 0 0 0 3645.68 3603.08 3386.85 3249.68 3368.63 3240.58 2905 2834.33 2876.61 2753.85 2786.97 2914.99 3089.1 2926.64 2915.55 3109.88 3104.76 3099.54 3201.26 3189.15 2829.98 2534.95 2633.8 2716.88 2499.16 2906.86 3232.28 3492.17 0 0 0 0 0 0 0 0 0 0 0 0 0 0 0 0 0 0 0 0 0 0 0 0 0 0 0 0 0 0 0 0 0 0 0 0 0 0 0 0 0 0 0 0 0 0 0 0 0 0 0 0 0 0 0 0 0 0 0 0 0 0 0 0 0 0 0 0 0 0 0 0 0 0 0 0 0 0 0 0 0 0 0 0 0 0 0 0 0 0 0 0 0 0 0 0 0 0 0 0 0 0 0 0 0 0 0 0 0 0 0 0 0 0 0 0 0 0 0 0 0 0 0 0 0 0 0 0 0 0 0 0 0 0 0 0 0 0 0 0 0 0 0 0 0 0 0 0 0 0 0 0 0 0 0 0 0 0 0 0 0 0 0 2915.65 3080.7 2935.08 3088.53 3022.16 2989.69 3087.67 3138.09 3253.09 3115.94 3070.72 3072.75 2972.47 2917.17 3054.45 3024.12 2926.33 2888.69 2965.59 3023.96 3040.61 3111.03 3228.3 3005.11 2870.06 3098.62 2689.23 1542.84 1118.81 973.844 0 0 0 0 0 0 0 0 0 0 0 0 0 0 0 0 0 0 0 0 0 0 0 0 0 0 0 0 0 0 0 0 0 0 0 0 0 0 0 0 2322.61 2133.21 2606.23 2816.82 2839.99 2871.49 2824.5 2739.55 2601.82 2745.83 2826.22 2729.03 2473.92 2278.92 2020.34 0 0 0 0 0 0 0 0 0 0 0 0 0 0 0 0 0 0 0 0 0 0 0 0 0 0 0 0 0 0 0 0 0 0 0 0 0 0 0 0 0 0 0 0 0 0 0 0 0 0 0 0 0 0 0 0 0 0 0 0 0 2694.33 2758.6 2817.81 3006.13 2924.7 3057.63 3312.3 3324.37 3099.88 2918.49 2963.39 2973.68 3001.99 3059.86 3041.83 3030.84 3033.36 3030.24 3693.34 3081.66 3125.99 3091.66 2980.13 2952.54 2859.01 2818.67 2906.46 2839.7 2986.86 3080.64 3088.81 3137.15 3136.86 3167.24 3216.42 3265.81 3252.14 3274.99 3223.21 3284.61 3324.9 3306.82 3312.5 3347.46 3381.87 3468.49 3383.71 3464.12 3411.16 3399.55 5110.93 3471.58 3323.65 3236.77 3169.75 3229.29 2845.19 2959.26 2413.84 2363.78 1185.02 264.017 0 0 0 0 0 0 0 0 0 0 0 0 0 0 0 0 0 0
0 0 0 0 0 0 0 0 0 0 0 0 0 0 0 0 0 0 0 0 0 0 0 0 0 0 0 0 0 0 0 0 0 0 0 0 0 0 0 0 0 0 0 0 0 0 0 0 0 0 0 0 0 0 0 0 0 0 0 386.314 0 0 0 0 0 0 0 0 0 0 0 0 0 0 0 0 0 0 0 0 0 0 0 0 0 0 0 0 0 0 0 0 0 0 3148.51 3069.88 3315.57 3183.76 3148.1 3232.9 3011.09 2720.54 2707.41 2726.73 2747.36 2761.06 2901.38 3023.46 2876.51 2955.82 3177.01 3201.14 3413.59 3438.99 3355.29 2817.81 2441.23 2521.66 2620.11 2288.96 2551.1 2493.51 2724.82 0 0 0 0 0 0 0 0 0 0 0 0 0 0 0 0 0 0 0 0 0 0 0 0 0 0 0 0 0 0 0 0 0 0 0 0 0 0 0 0 0 0 0 0 0 0 0 0 0 0 0 0 0 0 0 0 0 0 0 0 0 0 0 0 0 0 0 0 0 0 0 0 0 0 0 0 0 0 0 0 0 0 0 0 0 0 0 0 0 0 0 0 0 0 0 0 0 0 0 0 0 0 0 0 0 0 0 0 0 0 0 0 0 0 0 0 0 0 0 0 0 0 0 0 0 0 0 0 0 0 0 0 0 0 0 0 0 0 0 0 0 0 0 0 0 0 0 0 0 0 0 0 0 0 0 0 0 0 0 0 0 0 0 2707.63 2971.52 2845.92 3066.12 2932.88 2847.46 3011.31 3024.28 3197.6 3093.77 3028.98 3040.17 2900.98 2862.82 3047.74 3013.85 2952.54 2866.39 2927.15 2966.48 2978.96 3116.12 3234.9 2978.49 2745.56 2869.67 0 0 0 0 0 0 0 0 0 0 0 0 0 0 0 0 0 0 0 0 0 0 0 0 0 0 0 0 0 0 0 0 0 0 0 0 0 0 0 0 0 0 0 0 2010.7 1994.19 2436.3 2650.19 2766.88 2901.78 2865.9 2863.06 2688.89 2741.7 2795.37 2722.66 2611.34 2376.2 2081.52 2036.84 1973.45 1837.55 2172.93 0 0 0 0 0 0 0 0 0 0 0 0 0 0 0 0 0 0 0 0 0 0 0 0 0 0 0 0 0 0 0 0 0 0 0 0 0 0 0 0 0 0 0 0 0 0 0 0 0 0 0 0 0 0 0 0 0 2417.07 2575.74 2885.91 3038.19 2991.44 3179.18 3422.08 3469.21 3237.96 3098.57 3110.63 3084.55 3074.21 3127.09 3124.53 3141.09 3524.08 3612.47 3156.15 3160.91 3216.79 3202.85 3088.64 3068.7 2920.73 2946.84 3099.83 2991.28 3175.63 5090.61 3351.6 3350.67 3254.22 3238.58 3245.47 3317.28 3292.93 3312.04 3242.15 3236.27 3264.23 3274.61 3280.69 3330.78 3301.67 3442.73 3347.99 3443.01 3420.83 3452.86 3523.41 5275.15 3476.83 3476.68 3255.17 3189.76 2812.48 3016.18 2268.38 2376.23 1490.68 274.867 0 0 0 0 0 0 0 0 0 0 0 0 0 0 0 0 0 0
0 0 0 0 0 0 0 0 0 0 0 0 0 0 0 0 0 0 0 0 0 0 0 0 0 0 0 0 0 0 0 0 0 0 0 0 0 0 0 0 0 0 0 0 0 0 0 0 0 0 0 0 0 0 0 0 0 0 0 840.025 1115.29 2201.42 0 0 0 0 0 0 0 0 0 0 0 0 0 0 0 0 0 0 0 0 0 0 0 0 0 0 0 0 0 0 0 3196.81 3088.98 3030.95 3282.68 3188.91 3140.68 3206.4 3077.37 2840.19 2849.64 2865.36 2893.98 2873.26 3041.99 3174.07 3059.24 3097.31 3337.2 3335.81 3564.13 3539.76 3744.7 3197.54 2765.29 3165.32 3273.72 2585.82 2454.66 2303.39 2552.7 1515.85 848.938 0 0 0 0 0 0 0 0 0 0 0 0 0 0 0 0 0 0 0 0 0 0 0 0 0 0 0 0 0 0 0 0 0 0 0 0 0 0 0 0 0 0 0 0 0 0 0 0 0 0 0 0 0 0 0 0 0 0 0 0 0 0 0 0 0 0 0 0 0 0 0 0 0 0 0 0 0 0 0 0 0 0 0 0 0 0 0 0 0 0 0 0 0 0 0 0 0 0 0 0 0 0 0 0 0 0 0 0 0 0 0 0 0 0 0 0 0 0 0 0 0 0 0 0 0 0 0 0 0 0 0 0 0 0 0 0 0 0 0 0 0 0 0 0 0 0 0 0 0 0 0 0 0 0 0 0 0 0 0 0 0 2427.35 2773.93 2741.97 2994.33 2845.44 2751.73 2939.25 2924.49 3123.83 3037.92 2953.01 2969.74 2832.42 2840.09 3029.25 2999.84 2956.08 2886.41 2982.46 3056.62 3081.78 3221.11 3328.53 3096.96 2859.4 3002.2 0 0 0 0 0 0 0 0 0 0 0 0 0 0 0 0 0 0 0 0 0 0 0 0 0 0 0 0 0 0 0 0 0 0 0 0 0 0 0 0 0 0 0 2374.65 2363.88 2242.01 2780.69 2861.69 2956.5 3056.01 3051.62 3051.56 2920.42 2919.1 2988.57 2872.03 2863.5 2726.82 2401.43 2338.77 2178.83 2045.93 2333.5 0 0 0 0 0 0 0 0 0 0 0 0 0 0 0 0 0 0 0 0 0 0 0 0 0 0 0 0 0 0 0 0 0 0 0 0 0 0 0 0 0 0 0 0 0 0 0 0 0 0 0 0 0 0 0 0 0 2342.26 2584.63 2669.84 2760.51 2843.12 3059.41 3360.19 3399.75 3167.83 3087.05 3139.68 3174.43 3153.6 3191.94 3189.94 3171.13 3131.3 3666.71 3829.75 3150.64 3147.27 3150.82 3044.04 3019.38 2969.68 2957.85 3103.67 2954.83 3172.87 5173.49 3421.66 3375.61 3265.05 3226.19 3265.56 3317.74 3337.93 3316.42 3257.76 3228.36 3311.45 3319.9 3288.73 3324.77 3288.67 3421.17 3388.9 3475.1 3453.28 3416.3 3534.62 5399.42 3548.3 3560.57 3303.43 3079.57 2710.08 2759.15 1842.45 1675.88 332.909 215.17 0 0 0 0 0 0 0 0 0 0 0 0 0 0 0 0 0 0
0 0 0 0 0 0 0 0 0 0 0 0 0 0 0 0 0 0 0 0 0 0 0 0 0 0 0 0 0 0 0 0 0 0 0 0 0 0 0 0 0 0 0 0 0 0 0 0 0 0 0 0 0 0 0 0 0 0 0 0 2242.82 0 0 0 0 0 0 0 0 0 0 0 0 0 0 0 0 0 0 0 0 0 0 0 0 0 0 0 0 0 0 0 0 3246.6 3139.38 3091.14 3232.84 3152.77 4043.12 4081.77 3817.72 2913.07 2928.32 2951.45 2971.84 2969.89 3112.88 3235.52 3136.68 3122.15 3328.66 3341.26 3510.51 3437.08 3508.53 3047.74 2654.18 2757.61 2925.16 2354.59 1795.62 1407.26 835.187 0 0 0 0 0 0 0 0 0 0 0 0 0 0 0 0 0 0 0 0 0 0 0 0 0 0 0 0 0 0 0 0 0 0 0 0 0 0 0 0 0 0 0 0 0 0 0 0 0 0 0 0 0 0 0 0 0 0 0 0 0 0 0 0 0 0 0 0 0 0 0 0 0 0 0 0 0 0 0 0 0 0 0 0 0 0 0 0 0 0 0 0 0 2791.23 0 0 0 0 0 2785.07 2609.71 2617.24 0 0 0 0 0 0 0 0 0 0 0 0 0 0 0 0 0 0 0 0 0 0 0 0 0 0 0 0 0 0 0 0 0 0 0 0 0 0 0 0 0 0 0 0 0 0 0 0 0 0 0 0 0 0 0 0 0 0 0 0 0 0 2520.18 2651.7 2889.44 2791.09 2713.41 3015.96 2981.19 3103.49 3030.45 2929.24 2944.41 2885.07 2892.53 2998.34 2946.84 2928.73 2913.52 3052.51 3162.94 3100.74 3148.45 3229.54 3123.72 2865.51 0 0 0 0 0 0 0 0 0 0 0 0 0 0 0 0 0 0 0 0 0 0 0 0 0 0 0 0 0 0 0 0 0 0 0 0 0 0 0 0 0 2495.37 2107.43 2180.19 2734.46 2619.49 2597.79 3019.33 3121.34 3186.42 3174.13 3257.38 3248.3 3139.44 3221.48 3284.61 3195.34 3278.51 3161.39 2880.71 2638.77 2523.25 2248.98 2514.03 1957.75 0 0 0 990.055 1158.94 0 0 0 0 0 0 0 0 0 0 0 0 0 0 0 0 0 0 0 0 0 0 0 0 0 0 0 0 0 0 0 0 0 0 0 0 0 0 0 0 0 0 0 0 0 0 0 0 0 0 0 0 0 2542.56 2603.36 2735.8 2855.85 3261.37 3389.45 3135.74 3146.27 3201.44 3245.1 3219.19 3236.52 3237.27 3189.76 3110 3714.03 3165.98 3098.79 3076.86 3079.12 3025.48 3005.65 2995.45 3047.63 3170.89 2994.7 3324.05 3410.95 3451.51 3285.77 3189.15 3112.53 3189.63 3227.06 3248.05 3191.7 3144.74 3139.5 3254.98 3267.02 3241.58 3258.58 3219.13 3313.54 3320.16 3418.46 3345.59 3344.52 5344.04 5426.84 3531.42 3593.36 3465.69 3084.61 2640.1 2369.45 1069.02 619.803 243.344 154.906 0 0 0 0 0 0 0 0 0 0 0 0 0 0 0 0 0 0
0 0 0 0 0 0 0 0 0 0 0 0 0 0 0 0 0 0 0 0 0 0 0 0 0 0 0 0 0 0 0 0 0 0 0 0 0 0 0 0 0 0 0 0 0 0 0 0 0 0 0 0 0 0 0 0 0 0 1642.69 1487.81 1786.06 2147.54 0 0 0 0 0 0 0 0 0 0 0 0 0 0 0 0 0 0 0 0 0 0 0 0 0 0 0 0 0 0 3248.43 3007.75 2975.84 3052.73 3145.09 3048.52 4103.24 3111.38 3881.31 2937.81 2962.03 2970.42 2994.81 2976.69 3120.93 3237.39 3148.75 3160.55 3305.45 3332.3 3552.73 3477.11 3627.78 3251.51 2895.27 3075.22 3107.23 2536.76 1797.35 1001.34 0 0 0 0 0 0 0 0 0 0 0 0 0 0 0 0 0 0 0 0 0 0 0 0 0 0 0 0 0 0 0 0 0 0 0 0 0 0 0 0 0 0 0 0 0 0 0 0 0 0 0 0 0 0 0 0 0 0 0 0 0 0 0 0 0 0 0 0 0 0 0 0 0 0 0 0 0 0 0 0 0 0 0 0 0 0 0 0 0 0 0 0 0 2255.55 2451.11 2372.17 2705.32 2870.6 2987.61 3117.22 2894.57 2829.89 3120.58 0 3530.38 0 0 0 0 0 0 0 0 0 0 0 0 0 0 0 0 0 0 0 0 0 0 0 0 0 0 0 0 0 0 0 0 0 0 0 0 0 0 0 0 0 0 0 0 0 0 0 0 0 0 0 0 0 0 0 0 0 0 0 0 2473.59 2709.99 2950.1 2839.51 2765.7 3014.23 3040.67 3093.6 3017.1 2965.59 3001.4 2975.84 3008.29 3010.12 3013.96 3022.38 3007.85 3175.81 3285.32 3083.08 3028.81 3043.98 3162.58 2762.74 0 0 0 0 0 0 0 0 0 0 0 0 0 0 0 0 0 0 0 0 0 0 0 0 0 0 0 0 0 0 0 0 0 0 0 0 0 0 0 0 0 2565.22 2450.4 2534.8 2874.34 2907.31 2906.36 3134.87 3137.62 3195.59 3177.85 3188.12 3180.08 3105.68 3131.3 3201.01 3138.85 3228.98 3124.13 3049.07 2883.63 2808.29 2639.69 2853.42 2341.58 1647.04 1396.42 1262.28 1063.46 1308.27 0 0 0 0 0 0 0 0 0 0 0 0 0 0 0 0 0 0 0 0 0 0 0 0 0 0 0 0 0 0 0 0 0 0 0 0 0 0 0 0 0 0 0 0 0 0 0 0 0 0 0 1849.82 2227.69 2296.8 2274.84 2420 2584.51 2989.53 3062.82 2854.73 2945.18 3070.83 3127.79 3113.69 3143.21 3144.85 3077.31 3008.02 3096.91 3091.2 2979.49 4419.02 2950.1 2890.63 2892.98 2919.86 3071.68 3236.96 3127.15 5263.9 3413.03 3522.08 3323.45 3151.12 3060.42 3118.15 3163.95 3175.69 3136.98 3110.57 3120.76 3260.17 3327.21 3318.92 3344.25 3307.21 3379.76 3392.19 5658.17 3393.91 3312.04 3434.83 3553.03 3367.61 3322.79 3385.48 2781.89 2240.04 1778.92 582.115 392.271 0 0 0 0 0 0 0 0 0 0 0 0 0 0 0 0 0 0 0 0
0 0 0 0 0 0 0 0 0 0 0 0 0 0 0 0 0 0 0 0 0 0 0 0 0 0 0 0 0 0 0 0 0 0 0 0 0 0 0 0 0 0 0 0 0 0 0 0 0 0 0 0 0 0 0 0 0 0 2593.1 2144.55 2292.34 2385.42 2348.66 2342.56 0 2488.89 2488.56 2243.72 2321.49 2352.31 0 0 2389.19 0 0 0 0 0 0 0 0 0 0 0 0 0 0 0 0 0 3174.25 3246.73 3224.08 3010.88 2939.3 2969.84 4107.05 3069.2 3079.85 4008.06 3116.35 3022.16 3042.32 3084.89 3107.29 3072.3 3204.44 3289.63 3208.91 3195.53 3302.19 3326.02 3486.22 3448.17 3567.69 3234.4 2964.38 3117.8 3253.65 2903.24 1914.63 1070.19 604.687 0 0 0 0 0 0 0 0 0 0 0 0 0 0 0 0 0 0 0 0 0 0 0 0 0 0 0 0 0 0 0 0 0 0 0 0 0 0 0 0 0 0 0 0 0 0 0 0 0 0 0 0 0 0 0 0 0 0 0 0 0 0 0 0 0 0 0 0 0 0 0 0 0 0 0 0 0 0 0 0 0 0 0 0 0 0 0 0 0 0 0 2124.16 2172.93 2495.33 2293.88 2399.24 2452.15 2368.15 2645.43 2546.3 2511.28 2754.84 2749.25 3099.14 3085.52 0 0 0 0 0 0 0 0 0 0 0 0 0 0 0 0 0 0 0 0 0 0 0 0 0 0 0 0 0 0 0 0 0 0 0 0 0 0 0 0 0 0 0 0 0 0 0 0 0 0 0 0 0 0 0 0 0 0 0 2244.05 2404.53 2665.69 2679.05 2643.89 2883.98 2930.27 3024.77 2995.66 2949.89 3000.97 2960.72 3002.47 2974.1 2994.43 3026.3 2969.16 3082 3277.36 3091.32 3065.06 3061.48 3234.46 2907.87 0 0 0 0 0 0 0 0 0 0 0 0 0 0 0 0 0 0 0 0 0 0 0 0 0 0 0 0 0 0 0 0 0 0 0 0 0 0 0 0 2262.69 2306.74 2361.72 2476.14 2799.01 2741.52 2798.03 3028.27 3056.51 3113 3122.85 3167.42 3188.36 3130.25 3193.46 3282.36 3257.95 4261.11 4196.74 3278.45 3098.68 4239.26 2967.58 3095.76 2911.75 2341.15 1881.77 1541.55 0 1355.88 0 0 0 0 0 0 0 0 0 0 0 0 0 0 0 0 0 0 0 0 0 0 0 0 0 0 0 0 0 0 0 0 0 0 0 0 0 0 0 0 0 0 0 0 0 0 0 0 0 0 2289.87 2244.23 2773.33 2680.85 2711.35 2817.29 2863.7 3247.29 3193.22 3044.53 3185.03 3232.72 3243.84 3159.84 3204.32 3226.31 3157.28 3100.91 3133.75 3119.13 3043.59 3062.65 3121.92 4914.08 5254.01 4434.91 3176.65 3399.82 3284.29 3501.79 3970.4 3557.1 3338.46 3168.73 3071.96 3130.19 3112.25 3100.46 3057.96 3058.69 3064.1 3201.63 3263.53 3290.6 3254.85 3225.07 3283.07 3273.33 5382.96 3104.87 2912.71 2961.92 2879.67 2782.99 2840.28 2856.63 2600.69 2359.99 1613.63 425.458 0 0 0 0 0 0 0 0 0 0 0 0 0 0 0 0 0 0 0 0 0
0 0 0 0 0 0 0 0 0 0 0 0 0 0 0 0 0 0 0 0 0 0 0 0 0 0 0 0 0 0 0 0 0 0 0 0 0 0 0 0 0 0 0 0 0 0 0 0 0 0 0 0 3213.21 0 0 0 3046.02 3106.31 3130.13 2570.81 2627.86 2671.08 2592.45 2574.16 2752.72 2591.97 2600.21 2387.97 2511.84 2521.43 2473.84 2485.09 2403.36 0 0 0 0 0 0 0 0 0 0 0 0 0 0 0 0 0 3119.01 3043.65 3092.17 2975.37 2898.78 2950.1 3009.53 3052.34 4042.73 3136.98 3158.11 3075.28 3039.46 3046.63 3065.22 3016.02 3103.49 3160.73 3094.57 3048.68 3086.37 3134.92 3326.48 3282.23 3436.24 3151.12 2966.22 3192.3 3308.31 3162.4 2045.98 846.907 0 0 0 0 0 0 0 0 0 0 0 0 0 0 0 0 0 0 0 0 0 0 0 0 0 0 0 0 0 0 0 0 0 0 0 0 0 0 0 0 0 0 0 0 0 0 0 0 0 0 0 0 0 0 0 0 0 0 0 0 0 0 0 0 0 0 0 0 0 0 0 0 0 0 0 0 0 0 0 0 0 0 0 0 0 0 0 0 0 0 0 2066.37 2170.26 2247.51 2655.98 2327.67 2469.66 2486.16 2553.32 2759.92 2627.2 2729.57 2927.2 3014.77 3255.36 3298.88 3496.17 3485.06 3318.65 3889.14 4324.26 0 0 0 0 0 0 0 0 0 0 0 0 0 0 0 0 0 0 0 0 0 0 0 0 0 0 0 0 0 0 0 0 0 0 0 0 0 0 0 0 0 0 0 0 0 0 0 0 0 0 0 0 0 0 2176.34 2253.18 2523.86 2591.89 2616.02 2828.36 2868.45 2973.21 2926.53 2912.87 2957.43 2945.91 2944.66 2865.65 2861.35 2982.3 2854.49 2968.95 3107.63 2972.84 2861.11 2944.98 0 0 2300.32 2324.61 1634.56 1148.81 318.818 0 0 0 0 0 0 0 0 0 0 0 0 0 0 0 0 0 0 0 0 0 0 0 0 0 0 0 0 0 0 0 0 0 0 2565.97 2820.23 2812.1 2752.31 2894.07 3059.02 2996.2 2993.1 3137.86 3153.78 3222.1 3890.49 3869.76 3959.63 3896.54 3286.6 3308.84 3270.72 4382.43 4391.03 4101.83 3003.6 2923.07 2806.83 2956.29 3019 2498.56 0 1674.86 0 0 0 0 0 0 0 0 0 0 0 0 0 0 0 0 0 0 0 0 0 0 0 0 0 0 0 0 0 0 0 0 0 0 0 0 0 0 0 0 0 0 0 0 0 0 0 0 0 0 0 0 0 2475.19 3160.85 2916.36 2987.56 3067.97 3136.92 3391.09 3272.69 3059.58 3193.4 3227.12 3254.22 3150.23 3192 3164.13 3115.48 3044.04 3083.19 3056.01 2948.24 2935.7 2984.84 2963.55 5314.42 2950 3096.22 3302.39 3204.87 3431.32 3785.76 3428.23 3449.52 3203.52 3120.29 3175.51 3166.22 3173.77 3140.09 3175.57 3188.85 3264.35 3326.55 3383.03 3382.14 3339.19 3381.66 3349.8 3318 3142.73 2903.84 2862.13 5996.7 5794.77 5933.71 6090.52 2040.39 1843.52 857.078 595.33 0 0 0 0 0 0 0 0 0 0 0 0 0 0 0 0 0 0 0 0 0
0 0 0 0 0 0 0 0 0 0 0 0 0 0 0 0 0 0 0 0 0 0 0 0 0 0 0 0 0 0 0 0 0 0 0 0 0 0 0 0 0 0 0 0 0 0 0 0 0 0 0 0 4109.17 0 0 3162.4 3300.83 3126.05 3133.81 2882.14 2841.44 2813.14 2769.17 2809.56 2959.47 2884.82 2962.34 2832.7 2820.13 2900.43 2918.34 2850.75 2825.03 2294.38 2274.35 2097.31 1865.43 0 0 0 0 0 0 0 0 0 0 0 0 0 0 2881.85 2894.82 2813.8 3909.16 3884.73 2923.88 3007.05 3076.8 3128.96 3132.99 3081.38 3089.55 3087.79 3103.44 3082.46 3141.91 3176.95 3172.21 3163.12 3236.64 3885.81 4189.93 4383.12 4604.57 3465.41 3366.8 3450.87 3423.83 3326.02 3020.14 596.74 0 0 0 0 0 0 0 0 0 0 0 0 0 0 0 0 0 0 0 0 0 0 0 0 0 0 0 0 0 0 0 0 0 0 0 0 0 0 0 0 0 0 0 0 0 0 0 0 0 0 0 0 0 0 0 0 0 0 0 0 0 0 0 0 0 0 0 0 0 0 0 0 0 0 0 0 0 0 0 0 0 0 0 0 0 0 0 0 0 2205.18 2140.36 2273.09 2334.25 2431.82 2805.52 2472.9 2566.99 2636.82 2682.87 2827.26 2677.09 2790.31 2969.47 2890.54 3118.43 3161.15 3297.98 3309.62 3258.01 3858.64 4398.52 0 0 0 0 0 0 0 0 0 0 0 0 0 0 0 0 0 0 0 0 0 0 0 0 0 0 0 0 0 0 0 0 0 0 0 0 0 0 0 0 0 0 0 0 0 0 0 0 0 0 0 0 0 0 2044.91 2279.14 2785.63 2774.25 2752.54 2959.15 2941.46 3012.88 2984.53 2948.29 2943.94 2854.15 2909.53 2813.23 2788.96 2973.1 2803.41 2845.63 2959.78 2825.88 2627.86 2586.62 2864.77 2673.38 1915.53 2247.51 1511.83 1357.31 427.749 200.637 0 0 0 0 0 0 0 0 0 0 0 0 0 0 0 0 0 0 0 0 0 0 0 0 0 0 0 0 0 0 0 0 1929.2 2510.68 2709.38 2869.18 2817.15 2978.59 3062.65 3071.96 3022.76 3115.31 3121.92 3929.12 3180.2 3202.24 3201.99 3756.94 3204.07 3235.71 3211.92 3237.89 4234.02 3156.39 3086.6 3016.83 2952.07 3163.12 3270.84 2824.93 2688.89 2145.92 1504.52 1746.81 0 0 0 0 0 0 0 0 0 0 0 0 0 0 0 0 0 0 0 0 0 0 0 0 0 0 0 0 0 0 0 0 0 0 0 0 0 0 0 0 0 0 0 0 0 0 0 0 0 0 0 0 0 0 2785.63 2868.35 3097.36 3099.65 3075.22 2968.47 3145.92 3201.56 3246.98 3196.56 3269.12 3188.6 3194.31 3110.23 3141.38 3123.83 3000.81 2925.77 2892.68 2892.58 5365.58 2938.06 3025.05 3136.39 3097.36 5021.29 3631.86 3397.62 3379.01 3161.75 3098.85 3161.8 3205.23 3187.03 3134.22 3187.64 3146.27 3233.28 3308.97 3357.37 3353.08 3274.48 3346.32 3326.29 3283.71 3153.6 2943.84 2954.21 2639.77 2503.33 2553.86 5787.37 1920.83 1711.05 962.338 592.603 0 0 0 0 0 0 0 0 0 0 0 0 0 0 0 0 0 0 0 0 0
0 0 0 0 0 0 0 0 0 0 0 0 0 0 0 0 0 0 0 0 0 0 0 0 0 0 0 0 0 0 0 0 0 0 0 0 0 0 0 0 0 0 0 0 0 0 0 0 0 0 0 0 3723.67 3725.24 3645.99 3413.31 3288.73 3167.18 3169.87 3054.45 2972.26 3016.07 2913.02 2850.8 2886.56 2848.33 2855.7 2809.65 2842.25 2863.45 2816.3 2811.91 2784.61 2401.78 2556.04 2659.86 2254.54 2025.8 1363.86 818 0 0 0 0 0 0 0 0 0 0 0 0 3192.79 3004.19 3940.1 4042.14 4088.04 4023.05 4028.27 3796.47 3110.86 3053.84 3063.88 3085.52 3096.68 3078.89 3127.44 3176.35 3191.27 3141.32 3187.39 3187.15 4007.2 4280.68 4377.17 3356.3 3161.51 3260.8 3060.36 2899.13 2682.95 666.423 0 0 0 0 0 0 0 0 0 0 0 0 0 0 0 0 0 0 0 0 0 0 0 0 0 0 0 0 0 0 0 0 0 0 0 0 0 0 0 0 0 0 0 0 0 0 0 0 0 0 0 0 0 0 0 0 0 0 0 0 0 0 0 0 0 0 0 0 0 0 0 0 0 0 0 0 0 0 0 0 0 0 0 0 0 0 0 0 0 2591.73 2480.1 2596.99 2633.31 2658.21 2965.43 2804.63 2795.51 2727.62 2792.58 2911.25 2825.88 2918.74 3036.21 2973.37 3037.37 3073.42 3309.36 3355.69 3340.52 3746.54 4083.46 0 0 0 0 0 0 0 0 0 0 0 0 0 0 0 0 0 0 0 0 0 0 0 0 0 0 0 0 0 0 0 0 0 0 0 0 0 0 0 0 0 0 0 0 0 0 0 0 0 0 0 0 0 0 2240.07 2345.57 2853.52 2747.67 2908.07 3080.87 3087.33 3066.62 3078.78 3103.44 3052.23 2880.26 2953.37 2769.35 2750.06 2946.16 2789.19 2788.17 2757.38 2736.42 2664.42 2677.81 3048.46 3005.43 2196.09 2848.62 1779.79 1732.25 1500.36 259.834 0 0 0 0 0 0 0 0 0 0 0 0 0 0 0 0 0 0 0 0 0 0 0 0 0 0 0 0 0 0 0 0 2311.92 2633.1 2726.11 2777.88 2833.09 2993.26 3000.91 2976.95 2994.7 3049.79 3064.22 3154.67 3140.56 3126.75 3140.85 3167.48 3178.7 3162.4 3148.28 3163.29 3038.85 3062.71 3076.75 2977.22 2936.62 3099.71 3187.57 2799.06 2570.92 2051.36 1370.46 1433.23 1461.44 0 0 0 0 0 0 0 0 0 0 0 0 0 0 0 0 0 0 0 0 0 0 0 0 0 0 0 0 0 0 0 0 0 0 0 0 0 0 0 0 0 0 0 0 0 0 0 0 0 0 0 0 0 2633.43 2772.23 3229.67 3249.94 3351 3318.52 3471.5 3578.72 3646.78 3554.69 3587.75 3403.89 3383.98 3236.58 3199.37 3159.01 2963.34 2846.93 2801.25 2871.19 2948.03 2979.33 3053.56 3258.52 4675.27 5056.4 3805.51 3582.93 3508.6 3250.31 3163.53 3224.64 3265.18 3209.71 3153.31 3174.97 3110.92 3187.7 3231.91 3288.54 3296.42 3167.12 3248.24 3210.26 3191.09 3141.79 2952.59 3016.13 2795.14 2507.41 2589.65 5743.39 2319.02 1843.06 1142.53 782.891 0 0 0 0 0 0 0 0 0 0 0 0 0 0 0 0 0 0 0 0 0
0 0 0 0 0 0 0 0 0 0 0 0 0 0 0 0 0 0 0 0 0 0 0 0 0 0 0 0 0 0 0 0 0 0 0 0 0 0 0 0 0 0 0 0 0 0 0 0 0 0 0 0 3433.29 5361.8 5495.99 3192.06 3309.55 4192.54 3305.06 3271.42 3116.18 3172.75 3156.27 3057.96 3070.33 2939.76 2923.63 2873.41 2897.87 2990.54 2908.83 2819.28 2791.98 2518.06 2502.22 2570.61 2262.08 1917.61 1367.32 994.121 859.154 0 0 0 0 0 0 0 0 0 0 0 3882.93 5178.92 5177.48 4176.68 4231.24 4189.93 3477.04 3940.38 3835.09 3587.29 3067.18 3065.39 3085.12 3086.6 3144.27 3192.85 3217.47 3180.08 3204.13 3197.35 3315.44 3381.39 3503.03 3381.66 3127.15 3211.86 2877.35 2785.49 2630.46 0 0 0 0 0 0 0 0 0 0 0 0 0 0 0 0 0 0 0 0 0 0 0 0 0 0 0 0 0 0 0 0 0 0 0 0 0 0 0 0 0 0 0 0 0 0 0 0 0 0 0 0 0 0 0 0 0 0 0 0 0 0 0 0 0 0 0 0 0 0 0 0 0 0 0 0 0 0 0 0 0 0 0 0 0 0 0 0 0 0 2900.03 2711.79 2795.98 2870.56 2828.22 3048.63 2900.13 2802.89 2727.93 2809.6 2994.01 2907.31 2924.24 2989.37 2935.29 3005.7 3002.74 3154.31 3133.05 3022.7 3229.04 3498.87 3788.84 3486.15 4223.89 4800.34 0 0 0 0 0 0 0 0 0 0 0 0 0 0 0 0 0 0 0 0 0 0 0 0 0 0 0 0 0 0 0 0 0 0 0 0 0 0 0 0 0 0 0 0 0 0 0 0 0 0 0 2170.29 2651.99 2528.04 2760.15 3152.89 3152.36 3084.44 3177.61 3137.97 2972.79 2838.02 3023.85 2824.03 2701.83 2993.42 2913.42 2954.99 2922.46 2969.21 2850.56 2696.66 3027.12 0 1795.83 1891.45 1263.5 1360.02 0 0 0 0 0 0 0 0 0 0 0 0 0 0 0 0 0 0 0 0 0 0 0 0 0 0 0 0 0 0 0 0 0 0 2340.99 2783.18 2935.49 2850.22 2932.57 3050.79 3086.94 2982.35 2966.64 2990.32 3013.58 3072.3 3058.8 3038.52 3081.72 3108.09 3204.62 3224.64 3227.55 3213.34 3113.98 3204.74 3262.83 3097.14 2926.94 2996.31 2958.63 2693.63 2708.37 2374.82 1551.9 1268.26 1088.61 0 0 0 0 0 0 0 0 0 0 0 0 0 0 0 0 0 0 0 0 0 0 0 0 0 0 0 0 0 0 0 0 0 0 0 0 0 0 0 0 0 0 0 0 0 0 0 0 0 0 0 0 0 0 3126.86 3603.39 3365.72 3550.7 3559.89 3700.92 3834.56 3770.37 3554.31 3543.35 3402.86 3364.84 3199.18 3162.7 3056.12 2901.43 2782.02 2816.25 2923.32 2984.05 5810.22 3113.63 4613.18 4868.88 4919.85 3721.28 3976.33 3516.1 3296.61 3217.71 3283 3314.13 3239.64 3173.17 3183.22 3122.15 3191.21 3228.61 3271.48 3261.88 3171.07 3253.59 3237.21 3266 3210.45 3035.11 3098.34 2914.99 2540.67 2503.6 2331.98 1982.41 1009.5 301.737 0 0 0 0 0 0 0 0 0 0 0 0 0 0 0 0 0 0 0 0 0 0
0 0 0 0 0 0 0 0 0 0 0 0 0 0 0 0 0 0 0 0 0 0 0 0 0 0 0 0 0 0 0 0 0 0 0 0 0 0 0 0 0 0 0 0 0 0 0 0 0 0 0 0 4083.46 3278.45 3342.79 3257.51 3311.71 3347.92 3364.03 3306.03 3176.89 3266 3296.03 3161.09 3164.61 3116.12 3129.08 3067.97 3080.87 3126.1 3076.46 2938.48 3065.78 2927.25 2843.75 2765.11 2534.49 2310.97 1907.14 1330.02 1317.8 788.465 0 0 0 0 0 0 0 0 0 3283 4058.28 4077.81 4316.7 4997.96 4862.95 4329.62 3298.62 4074.44 4004.61 3793.3 3190.61 3188.54 3168.19 3166.4 3186.61 3214.08 3213.83 3118.96 3091.14 3114.09 3175.81 3249.68 3347.72 3240.33 3051.12 3007.53 2643.76 0 0 496.595 0 0 0 0 0 0 0 0 0 0 0 0 0 0 0 0 0 0 0 0 0 0 0 0 0 0 0 0 0 0 0 0 0 0 0 0 0 0 0 0 0 0 0 0 0 0 0 0 0 0 0 0 0 0 0 0 0 0 0 0 0 0 0 0 0 0 0 0 0 0 0 0 0 0 0 0 0 0 0 0 0 0 0 0 0 0 0 2499.68 2929.91 3046.02 2966.43 2932.06 3008.77 2997.48 3121.51 2991.12 2922.66 2867.47 2924.75 3046.74 2998.66 3016.29 3012.93 2997.54 3047.24 3040.28 3143.79 3087.56 2998.45 3154.26 3276.78 3673.37 3411.92 3900.17 0 0 0 0 0 0 0 0 0 0 0 0 0 0 0 0 0 0 0 0 0 0 0 0 0 0 0 0 0 0 0 0 0 0 0 0 0 0 0 0 0 0 0 0 0 0 0 0 0 0 0 0 1850.56 2398.72 2539.67 2960.77 3229.17 3292.73 3085.52 3154.55 3185.58 2999.57 2840.33 2991.92 2627.7 2581.64 2778.71 2797.84 2751.46 2723.06 2850.41 2712.53 2565.97 0 0 1878.11 1876.64 1724.54 2042.05 0 403.33 0 0 0 0 0 0 0 0 0 0 0 0 0 0 0 0 0 0 0 0 0 0 0 0 0 0 0 0 0 0 0 2255.18 2424.37 2749.92 2937.86 2902.29 3060.14 3224.33 3192.06 3120.12 3103.95 3111.03 3144.85 3179.42 3132.47 3085.57 3096.62 3119.54 3204.62 3254.35 3219.32 3177.19 3060.92 3140.15 3232.09 3117.86 3012.44 2907.77 2792.16 2643.6 2674.14 2728.68 2020.78 1981.47 1525.93 2585.34 0 0 0 0 0 0 0 0 0 0 0 0 0 0 0 0 0 0 0 0 0 0 0 0 0 0 0 0 0 0 0 0 0 0 0 0 0 0 0 0 0 0 0 0 0 0 0 0 0 0 0 0 2065.48 2412.48 3026.19 2631.36 2779.07 3054.84 3321.81 3488.03 3742.28 3501.72 3535.14 3315.18 3234.59 3192.24 3099.14 2987.77 2840.62 2630.29 2678.92 2803.41 2900.58 5873.06 3064.5 4505.05 4752.48 4839.38 4914.23 3909.25 3910.35 3340.86 3272.06 3348.46 3344.45 3245.66 3165.62 3177.55 3128.49 3176.95 3163.65 3225.51 3186.36 3115.77 3178.34 3131.94 3120.46 3023.63 2886.26 2875.38 2593.86 2108.3 2048.43 1694.98 1614.64 1108 0 0 0 0 0 0 0 0 0 0 0 0 0 0 0 0 0 0 0 0 0 0 0
0 0 0 0 0 0 0 0 0 0 0 0 0 0 0 0 0 0 0 0 0 0 0 0 0 0 0 0 0 0 0 0 0 0 0 0 0 0 0 0 0 0 0 0 0 0 0 0 0 0 2877.84 3311.97 4178.24 3053.06 3052.34 3088.7 3140.73 3232.16 3293.12 3246.23 3202.05 3311.45 3370.72 3295.97 3304.08 4347.57 3366.6 3316.03 3346.39 3293.77 3212.04 3075.22 3113.63 3074.89 3010.5 2934.93 2554.52 2299.28 1796.72 999.433 1054.55 658.501 638.277 0 0 0 0 0 0 0 0 0 4174.5 4112.29 4227.62 4969.54 4932.28 4353.21 3247.73 4110.68 4048.29 3871.73 3169.51 3201.99 3163.41 3175.99 3162.7 3170.89 3179.24 3099.54 3030.67 3045.2 3047.96 3132.12 3140.97 3062.03 2824.17 2666.96 2210.03 1922.33 1957.88 506.583 0 0 0 0 0 0 0 0 0 0 0 0 0 0 0 0 0 0 0 0 0 0 0 0 0 0 0 0 0 0 0 0 0 0 0 0 0 0 0 0 0 0 0 0 0 0 0 0 0 0 0 0 0 0 0 0 0 0 0 0 0 0 0 0 0 0 0 0 0 0 0 0 0 0 0 0 0 0 0 0 0 0 0 0 0 0 0 2639.48 3177.61 3161.39 3046.36 3140.56 3156.63 3135.57 3248.49 3157.64 3076.24 3016.67 3099.88 3167.3 3085.46 3155.32 3093.99 3093.99 3108.04 3113.11 3259.79 3165.26 3155.2 3273.52 3287.76 3855.53 3635.96 4270.12 4610.9 0 0 0 0 0 0 0 0 0 0 0 0 0 0 0 0 0 0 0 0 0 0 0 0 0 0 0 0 0 0 0 0 0 0 0 0 0 0 0 0 0 0 0 0 0 0 0 0 0 0 0 1328.62 2133.34 2411.58 2940.38 3171.55 3105.62 2874.64 3103.04 3186.18 2899.88 2797.19 2924.29 2661.12 2612.03 2819.76 2823.41 2710.56 2763.65 2973.21 2698.57 2549.75 0 0 2023.43 2146.14 2287.12 2261.11 2515.12 2580.41 653.601 0 0 0 0 0 0 0 0 0 0 0 0 0 0 0 0 0 0 0 0 0 0 0 0 0 0 0 0 1297.84 1933.32 2136.63 2335.97 2695.54 2951.19 2996.52 3120.17 3218.39 3226.38 3147.69 3147.27 3149.16 3190.06 3230.85 3170.47 3104.7 3127.27 3132.58 3221.67 3250 3225.94 3160.79 3023.74 3114.85 3205.91 3094.34 3034.57 2925.11 2807.25 2629.51 2600.17 2647.85 1867.49 1711.44 1221.1 2253.27 0 0 0 0 0 0 0 0 0 0 0 0 0 0 0 0 0 0 0 0 0 0 0 0 0 0 0 0 0 0 0 0 0 0 0 0 0 0 0 0 0 0 0 0 0 0 0 0 0 0 0 0 0 2487.19 3314.46 2897.47 3109.42 3415.81 3585.76 3619.25 3778.6 3460.55 3476.75 3195.16 3127.39 3095.25 2897.47 2711.35 2681.79 2626.83 2706.28 2753.49 2842.01 2957.75 3018.08 3161.09 4160.52 4381.97 3350.67 4747.77 3784.14 3236.27 3207.44 3256.31 3285.38 3173.17 3134.87 3158.17 3140.73 3197.11 3207.56 3259.91 3207.19 3097.94 3153.78 3039.84 2985.27 2832.42 2684.58 2517.23 2249.56 2005.01 1823.76 1526.77 1206.73 703.938 0 0 0 0 0 0 0 0 0 0 0 0 0 0 0 0 0 0 0 0 0 0 0
0 0 0 0 0 0 0 0 0 0 0 0 0 0 0 0 0 0 0 0 0 0 0 0 0 0 0 0 0 0 0 0 0 0 0 0 0 0 0 0 0 0 0 0 0 0 0 0 0 0 3068.64 3939.08 4458 3123.6 3110.8 3039.13 3099.02 3197.23 3311.91 3259.03 3295.71 3417.69 3457.84 3411.44 3452.22 3442.23 4304.96 4315.36 4478.35 3289.76 3126.63 2941.46 2880.02 2694.54 2619.08 2503.11 2278.8 1980.21 1742.24 1257.68 1367.37 898.496 982.967 0 0 0 0 0 0 0 0 3441.67 3728.06 3174.07 3773.33 5019.94 4972.48 4163.72 4310.27 4029.04 4021.41 3870.12 3156.27 3164.31 3147.69 3149.46 3137.15 3139.79 3128.84 3081.38 2991.87 2976 3011.63 3121.97 3163.18 3050.23 2815.45 2735.62 2169.25 0 0 0 0 0 0 0 0 0 0 0 0 0 0 0 0 0 0 0 0 0 0 0 0 0 0 0 0 0 0 0 0 0 0 0 0 0 0 0 0 0 0 0 0 0 0 0 0 0 0 0 0 0 0 0 0 0 0 0 0 0 0 0 0 0 0 0 0 0 0 0 0 0 0 0 0 0 0 0 0 0 0 0 0 0 0 0 0 0 2096.32 2807.11 3238.89 3082.06 2987.5 3165.03 3192.12 3153.72 3287.44 3220.99 3121.68 3008.18 3143.62 3240.9 3152.71 3158 3090.46 3032.43 3029.31 3020.31 3203.03 3082.17 3039.79 3147.45 3157.16 3726.57 3559.66 4322.15 4674.75 3237.33 0 0 0 0 0 0 0 0 0 0 0 0 0 0 0 0 0 0 0 0 0 0 0 0 0 0 0 0 0 0 0 0 0 0 0 0 0 0 0 0 0 0 0 0 0 0 0 0 0 0 0 0 0 0 0 3080.14 2989.15 3191.33 3393.29 3143.21 2859.55 3005.7 2786.88 2820.09 2961.09 2989.9 2854.15 2850.85 3041.17 2959.31 2730.1 0 0 1972.92 1695.17 2012.15 2027.64 2446 2461.32 1223.44 718.073 0 0 0 0 0 0 0 0 0 0 0 0 0 0 0 0 0 0 0 0 0 0 0 0 0 0 0 0 1886.71 2163.83 2397.42 2788.5 2976.85 2957.64 3113.05 3236.08 3200.28 3132.88 3130.36 3112.19 3119.48 3152.6 3111.67 3020.2 3012.61 3021.23 3074.44 3086.77 3080.08 3056.85 2930.62 3036.76 3184.07 3071.17 3007.75 2913.93 2787.89 2592.49 2460.49 2539.17 1813.06 1318.77 1143.36 1741.31 1095.12 0 0 0 0 0 0 0 0 0 0 0 0 0 0 0 0 0 0 0 0 0 0 0 0 0 0 0 0 0 0 0 0 0 0 0 0 0 0 0 0 0 0 0 0 0 0 0 0 0 0 0 0 2608.58 3793.21 3196.32 3229.36 3586.07 3521.63 3559.97 3837.81 3495.66 3443.36 3023.96 3069.32 3070.38 2732.23 2520.1 2521.47 2440.42 2398.28 2414.98 2600.61 2743.76 2820.23 3016.72 3237.71 3312.04 4342.62 4032.62 3719.22 3254.54 3219.01 3242.71 3269.12 3157.46 3147.27 3157.88 3134.1 3167.3 3170.29 3230.66 3208.67 3147.98 3234.96 3097.42 3081.1 2969.37 2763.06 2567.42 2182.57 1854.85 1560.36 1329.5 1050.66 0 0 0 0 0 0 0 0 0 0 0 0 0 0 0 0 0 0 0 0 0 0 0 0
0 0 0 0 0 0 0 0 0 0 0 0 0 0 0 0 0 0 0 0 0 0 0 0 0 0 0 0 0 0 0 0 0 0 0 0 0 0 0 0 0 0 0 0 0 0 0 0 0 2419.34 5268.2 5565.63 4429.29 3049.18 3012.01 3115.19 3155.62 3241.9 3295.97 3294.61 3321.54 3461.83 3506.25 4286.26 4274.58 4302.75 4281.12 3436.66 3498.94 3329.59 3159.66 2978.33 2898.98 2724.82 2650.86 2654.76 2554.41 2080.54 2437.12 1665.8 1703.62 1083.95 1015.16 0 0 0 0 0 0 0 2512.52 3251.83 3252.46 3072.97 2945.65 2955.82 2805.7 3035.22 4072.07 3142.73 3925.44 3167.77 3150.23 3188.36 3203.21 3217.22 3196.68 3214.14 4210.32 3115.94 3040.01 2975.21 2953.79 3029.63 3009.42 2811.68 2496 2336.98 1789.66 0 0 0 0 0 0 0 0 0 0 0 0 0 0 0 0 0 0 0 0 0 0 0 0 0 0 0 0 0 0 0 0 0 0 0 0 0 0 0 0 0 0 0 0 0 0 0 0 0 0 0 0 0 0 0 0 0 0 0 0 0 0 0 0 0 0 0 0 0 0 0 0 0 0 0 0 0 0 0 0 0 0 0 0 0 0 0 0 0 2504.83 2910.64 3521.26 3507.5 3364.78 4426.48 4331.97 4198.42 4225.27 3481.95 3367.88 3198.33 3286.48 3348.53 3288.92 3291.57 3195.77 3060.64 3073.31 3086.6 3251.51 3121.51 3114.96 3129.02 2994.65 3509.11 3420.06 4054.45 4329.62 0 0 0 0 0 0 0 0 0 0 0 0 0 0 0 0 0 0 0 0 0 0 0 0 0 0 0 0 0 0 0 0 0 0 0 0 0 0 0 0 0 0 0 0 0 0 0 0 0 0 0 0 0 0 0 0 2786.97 3017.05 3177.25 3472.87 3241.33 2931.6 3186.12 2978.91 3076.8 3109.76 3048.02 2985.22 2902.29 3154.37 3218.33 3021.34 3276.85 3072.91 2822.7 2900.68 3019.82 2951.19 2820.7 2859.65 1407.44 0 0 0 0 0 0 0 0 0 0 0 0 0 0 0 0 0 0 0 0 0 0 0 0 0 0 0 2179.12 1891.87 2412.48 2742.24 2670.01 2979.7 3023.03 2992.14 3078.72 3162.28 3164.43 3046.97 3018.68 3034.95 3063.1 3100.63 3094.79 3024.23 3015.1 3023.74 3833.86 3155.5 3146.51 3126.22 3040.95 3078.27 3209.46 3149.22 3067.86 2958.89 2865.36 2752.86 2519.95 2433.37 2016.36 1489.12 1262.21 1376.98 871.819 0 0 0 0 0 0 0 0 0 0 0 0 0 0 0 0 0 0 0 0 0 0 0 0 0 0 0 0 0 0 0 0 0 0 0 0 0 0 0 0 0 0 0 0 0 0 0 0 0 0 0 0 0 0 0 0 0 0 3229.36 3459.69 3204.5 3239.46 2841.92 3130.65 3192.18 2886.01 2674.95 2660.95 2674.7 2568.72 2423.04 2721.2 2726.15 2728.5 2919.46 3206.15 3304.28 3170.71 4493.46 4705.82 3320.1 3289.18 3359.86 3394.04 3268.74 3238.83 3256.05 3206.7 3214.01 3169.33 3235.9 3180.5 3108.5 3186.24 3057.01 3080.76 3014.01 2913.27 2535.72 2145.98 1801.36 1529.55 1484.42 0 0 0 0 0 0 0 0 0 0 0 0 0 0 0 0 0 0 0 0 0 0 0 0 0
0 0 0 0 0 0 0 0 0 0 0 0 0 0 0 0 0 0 0 0 0 0 0 0 0 0 0 0 0 0 0 0 0 0 0 0 0 0 0 0 0 0 0 0 0 0 0 0 0 2239.47 2666.79 2839.42 2748.66 2798.03 2831.8 3012.77 3109.76 3179.84 3209.03 3236.08 3288.41 3436.17 3480 3509.11 3442.09 4174.7 4282.21 3835.79 4487.21 4419.14 3172.45 3090.23 2988.62 2977.85 2919.15 2834.62 2865.41 2388.44 2867.27 2125.48 1920.81 1267.49 1249.59 0 0 0 0 0 0 0 1986.07 2892.88 3146.39 2976.85 2899.43 3014.88 2848.62 3039.57 3138.85 3141.15 3985.3 3150.94 3148.63 3161.92 4316.7 4272.18 4296.69 4272.94 3812.86 3057.46 2948.29 2811.2 2764.7 2821.94 2780.69 2565.42 2237.65 0 0 0 0 0 0 0 0 0 0 0 0 0 0 0 0 0 0 0 0 0 0 0 0 0 0 0 0 0 0 0 0 0 0 0 0 0 0 0 0 0 0 0 0 0 0 0 0 0 0 0 0 0 0 0 0 0 0 0 0 0 0 0 0 0 0 0 0 0 0 0 0 0 0 0 0 0 0 0 0 0 0 0 0 0 0 0 0 0 0 2225.77 2920.62 3073.48 3507.35 3441.38 3359.59 4457.41 4053.96 3328.6 4030.59 3366.73 3362.08 3259.22 3342.79 3415.19 3373.98 3412.89 3353.34 3258.33 3249.18 3208.3 3309.42 3198.39 3169.27 3137.91 3011.8 3479.49 3422.92 3987.67 4256.79 3180.26 3313.35 2714.64 0 0 0 0 0 0 0 0 0 0 0 0 0 0 0 0 0 0 0 0 0 0 0 0 0 0 0 0 0 0 0 0 0 0 0 0 0 0 0 0 0 0 0 0 0 0 0 0 0 0 0 0 0 0 0 3424.53 3658.15 3361.07 3032.37 3204.99 3081.04 3261.81 3265.69 3223.71 3160.02 2973.47 3128.9 3234.46 3097.25 3251.38 2945.8 2866.93 0 2693.5 2792.07 2715.17 2568.8 0 0 0 0 0 0 0 0 0 0 0 0 0 0 0 0 0 0 0 0 0 0 0 0 0 0 0 0 0 2146.96 2722.53 2983.84 2848.38 3115.66 3126.86 3127.09 3169.39 3225.07 3234.34 3144.68 3082.91 3091.37 3094.39 3164.13 3132.23 3051.12 3037.04 3034.07 3117.74 3156.57 3131.76 3128.61 2992.24 3027.01 3194.49 3132.47 3071.34 2923.37 2820.7 2730.19 2498.6 2548.04 2361.38 1869.8 1495.81 1381.46 806.541 0 0 0 0 0 0 0 0 0 0 0 0 0 0 0 0 0 0 0 0 0 0 0 0 0 0 0 0 0 0 0 0 0 0 0 0 0 0 0 0 0 0 0 0 0 0 0 0 0 0 0 0 0 0 0 0 0 0 0 0 3241.27 3184.19 2681.71 2930.67 2997.22 2776.68 2460.71 2361.22 2370.49 2105.45 1853.77 2201.16 2460.42 2435.03 2703.7 3063.54 3273.46 3209.89 4200.1 4764.35 4230.07 3405.2 3454.85 4249.03 3322.47 3275.63 3278.77 3224.14 3173.29 3151.94 3124.53 3139.26 3055.96 3181.53 3076.01 3072.18 3058.8 3034.73 2582.56 2441.05 1933.94 1587.89 0 0 0 0 0 0 0 0 0 0 0 0 0 0 0 0 0 0 0 0 0 0 0 0 0 0
0 0 0 0 0 0 0 0 0 0 0 0 0 0 0 0 0 0 0 0 0 0 0 0 0 0 0 0 0 0 0 0 0 0 0 0 0 0 0 0 0 0 0 0 0 0 0 0 2407.74 2537.1 2810.12 2999.63 2862.18 2848.43 2801.82 2958.84 3072.24 3108.5 3122.32 3168.73 3240.96 3371.33 3433.85 4050.63 3437.65 4115.52 4245.37 3594.29 3573.39 3691.56 3196.26 3144.85 2990.11 2962.24 2879.57 2724.6 2752.81 2339.52 2674.91 2321.43 2119.7 1507.29 1558.3 628.432 0 0 0 0 0 0 0 0 3037.92 2839.94 2848.62 2953.43 2867.91 2981.5 3080.81 3124.24 4102.73 3079.57 3168.37 3213.03 4162.17 4109.67 4212.23 4115.92 4113.09 3857.22 3066.01 2834.52 2736.38 2850.17 2694.28 2418.43 2082.01 0 0 0 0 0 0 0 0 0 0 0 0 0 0 0 0 0 0 0 0 0 0 0 0 0 0 0 0 0 0 0 0 0 0 0 0 0 0 0 0 0 0 0 0 0 0 0 0 0 0 0 0 0 0 0 0 0 0 0 0 0 0 0 0 0 0 0 0 0 0 0 0 0 0 0 0 0 0 0 0 0 0 0 0 0 0 0 0 0 0 2427 2878.24 2975.37 3327.14 3264.86 3263.4 3370.93 3308.58 3333.03 3401.48 3391.57 3397.96 3328.33 3395.07 3465.55 3468.78 3500.77 3430.55 3343.52 3332.36 3264.99 3325.69 3226.5 3187.76 3105.62 2923.27 3307.47 3286.93 3655.68 0 2676.06 3364.91 2843.51 0 0 0 0 0 0 0 0 0 0 0 0 0 0 0 0 0 0 0 0 0 0 0 0 0 0 0 0 0 0 0 0 0 0 0 0 0 0 0 0 0 0 0 0 0 0 0 0 0 0 0 0 2897.97 2837.26 3111.9 3359.45 3529.34 3277.55 3081.66 3324.37 3190.3 3359.72 3276.85 3261.56 3217.47 3101.43 3229.54 3303.69 3153.43 3254.41 2957.38 3045.03 2863.6 2859.45 2821.7 2656.95 2482.37 0 0 0 0 0 0 0 0 0 0 0 0 0 0 0 0 0 0 0 0 0 0 0 0 0 0 0 0 0 0 2659.18 3006.67 2876.71 5450.11 3164.85 3159.84 3216.29 3234.83 3273.27 3165.8 3095.71 3102.4 3129.9 3181.59 3117.97 3019.71 3019.11 2995.98 3072.86 3108.04 3080.64 3045.14 2930.47 2991.02 3141.85 3078.33 3069.26 2914.08 2764.92 5791.17 5731.42 2508.01 2284.23 1890 1285.74 1028.91 0 0 0 0 0 0 0 0 0 0 0 0 0 0 0 0 0 0 0 0 0 0 0 0 0 0 0 0 0 0 0 0 0 0 0 0 0 0 0 0 0 0 0 0 0 0 0 0 0 0 0 0 0 0 0 0 0 0 0 0 0 0 0 0 0 3884.73 3522.52 3053.29 2769.08 2914.23 2598.72 1983.74 2528.61 2588.73 2462.12 2771.45 3100.74 3348.86 3283.97 3457.34 4468.21 3452.08 3436.17 3500.55 3510.8 3304.47 3237.77 3228.98 3155.62 3107.12 3104.64 3097.54 4373.75 4392.07 4473.1 3085.86 3109.82 3103.09 3098.91 2600.37 2526.56 1934.79 1478.69 1243.12 0 0 0 0 0 0 0 0 0 0 0 0 0 0 0 0 0 0 0 0 0 0 0 0 0
0 0 0 0 0 0 0 0 0 0 0 0 0 0 0 0 0 0 0 0 0 0 0 0 0 0 0 0 0 0 0 0 0 0 0 0 0 0 0 0 0 0 0 0 0 0 0 0 2558.11 2613.7 2805.66 2987.13 2809.23 2827.45 2762.37 2965.59 3076.24 3120 3149.34 3197.9 3301.48 3438.35 3448.17 3970.12 3883.56 3984.55 4135.81 3575.82 3566.4 3342.52 3194.68 3251.26 3101.54 3082.12 3112.19 2883.33 3025.97 2601.74 2985.48 2636.7 2321.04 2207.09 0 0 0 0 0 0 0 0 0 0 2920.78 2829.65 2771.87 3001.67 2890.83 2995.02 3113.57 3184.55 3230.66 3131.53 3243.97 3313.54 4192.86 4245.91 4376.6 4281.67 4271.96 3916.28 3052.45 2774.3 2637.69 2641.6 2368.55 2055.33 0 0 0 0 0 0 0 0 0 0 0 0 0 0 0 0 0 0 0 0 0 0 0 0 0 0 0 0 0 0 0 0 0 0 0 0 0 0 0 0 0 0 0 0 0 0 0 0 0 0 0 0 0 0 0 0 0 0 0 0 0 0 0 0 0 0 0 0 0 0 0 0 0 0 0 0 0 0 0 0 0 0 0 0 0 0 0 0 0 0 0 2288.84 2657.83 2839.13 3161.03 3195.22 3174.01 3248.74 3212.97 3231.1 3315.57 3348.53 3372.89 3316.95 3370.45 3468.13 3486.8 3520.53 3444.7 3414.14 3358.71 3270.97 3327.54 3197.96 3093.77 2995.66 2745.78 3127.79 2923.22 2962.08 2742.64 2259.37 2726.64 3168.49 0 2643.01 0 0 0 0 0 0 0 0 0 0 0 0 0 0 0 0 0 0 0 0 0 0 0 0 0 0 0 0 0 0 0 0 0 0 0 0 0 0 0 0 0 0 0 0 0 0 0 0 0 0 0 0 3036.65 3322.79 3570.8 3386.71 3274.87 3367.61 3322.33 3437.22 3311.51 3337.34 3270.08 3133.11 3211.31 3234.77 3200.65 3116.58 2950.1 3030.78 2711.09 2808.1 2866.63 2847.71 2644.93 2109.76 1795.6 0 0 0 0 0 0 0 0 0 0 0 0 0 0 0 0 0 0 0 0 0 0 0 0 0 0 0 0 3346.19 3449.17 3276.59 3392.26 3365.86 3259.22 3311.25 3255.11 3314.13 3206.77 3138.21 3138.15 3154.67 3173.35 3147.81 3047.8 3052.68 3001.02 3087.22 3120.29 3089.95 3080.25 2997.64 3026.41 3184.25 3148.28 3108.79 2830.27 2699.7 2680.34 2300.2 2391.2 2246.27 1634.06 0 796.248 0 0 0 0 0 0 0 0 0 0 0 0 0 0 0 0 0 0 0 0 0 0 0 0 0 0 0 0 0 0 0 0 0 0 0 0 0 0 0 0 0 0 0 0 0 0 0 0 0 0 0 0 0 0 0 0 0 0 0 0 0 0 0 0 0 0 0 0 2295.67 2846.16 2452.51 1821.13 2472.42 2535.95 2483.03 2961.14 3274.99 3417.69 3359.52 3462.76 4603.44 4377.86 3491.37 3536.7 3488.61 3261.24 3203.09 3142.03 3139.79 3048.85 2991.71 2941.77 2912.92 2865.65 3043.1 2906.46 2949.17 2767.57 2635.13 2278.27 2333.08 1843.99 1222.46 0 0 0 0 0 0 0 0 0 0 0 0 0 0 0 0 0 0 0 0 0 0 0 0 0 0
0 0 0 0 0 0 0 0 0 0 0 0 0 0 0 0 0 0 0 0 0 0 0 0 0 0 0 0 0 0 0 0 0 0 0 0 0 0 0 0 0 0 0 0 0 0 0 2466.13 2423.04 2559.63 2760.56 2857.89 2834.04 2794.86 2745.02 2935.29 3028.16 3098.39 3124.53 3166.76 3293.64 3362.08 3408.52 3483.03 3403.75 3897.54 3733.87 3641.64 3527.26 3272.76 3210.75 3228.05 3111.78 3112.88 3199.37 2947.46 3159.9 2820.8 3282.36 2857.45 2372.13 1988.68 1867.3 1428.97 0 0 0 0 0 0 0 0 2381.09 2427.95 2409.02 2625.35 2523.71 2567.27 2892.28 3070.38 3056.01 2993.15 3156.39 3287.64 3329.85 3389.31 4419.25 4196.11 4249.46 3227.18 3080.87 2809.79 2682.65 2700.35 2337.08 1999.2 0 0 0 0 0 0 0 0 0 0 0 0 0 0 0 0 0 0 0 0 0 0 0 0 0 0 0 0 0 0 0 0 0 0 0 0 0 0 0 0 0 0 0 0 0 0 0 0 0 0 0 0 0 0 0 0 0 0 0 0 0 0 0 0 0 0 0 0 0 0 0 0 0 0 0 0 0 0 0 0 0 0 0 0 0 0 0 0 0 0 0 0 2691.73 2764.56 2983.89 3027.06 3044.81 3161.27 3152.71 3173.71 3324.51 3340.39 3395.9 3367.14 3455.42 3562.39 3580.25 3589.9 3543.65 3506.84 3496.02 3425.22 3432.44 3296.68 3188.6 3056.79 2860.77 3202.36 2909.63 2815.73 2482.85 2107.43 2663.06 3040.01 0 0 0 0 3204.19 0 0 0 0 0 0 0 0 0 0 0 0 0 0 0 0 0 0 0 0 0 0 0 0 0 0 0 0 0 0 0 0 0 0 0 0 0 0 0 0 0 0 0 0 0 0 0 0 2906.36 2955.09 3159.36 3363.97 3230.29 3157.64 3198.76 3155.92 3257.95 3184.31 3255.93 3097.59 3050.07 3137.15 3138.15 3234.15 3230.23 3156.21 3161.75 2996.2 3409.22 3373.64 3338.4 3244.72 2498.04 2211.11 1785.09 0 0 0 0 0 0 0 0 0 0 0 0 0 0 0 0 0 0 0 0 0 0 0 0 0 0 2060.38 2968.89 3173.23 3123.02 3256.05 3315.64 3356.83 3355.49 3267.53 3335.28 3261.05 3158.59 3172.87 3198.7 3182.92 3120.06 3058.96 3051.73 2991.34 3055.73 3124.3 3093.82 3086.14 3061.92 3086.71 3200.4 3219.56 3212.66 2945.8 5764.9 2840.67 2479.47 2538.56 2525.72 2008.61 1277.21 984.756 0 0 0 0 0 0 0 0 0 0 0 0 0 0 0 0 0 0 0 0 0 0 0 0 0 0 0 0 0 0 0 0 0 0 0 0 0 0 0 0 0 0 0 0 0 0 0 0 0 0 0 0 0 0 0 0 0 0 0 0 0 0 0 0 0 0 0 0 0 0 0 0 0 0 0 2737.45 3058.52 3125.41 3086.71 3244.66 4254.85 3445.41 3434.48 3473.44 3425.78 4589.96 4580.44 4554.2 4275.23 3143.26 3045.86 3029.2 2968 2887.8 2960.36 2709.03 2740.09 2649.1 2321.87 2073.62 1881.86 1669.26 1386.13 1485.82 0 0 0 0 0 0 0 0 0 0 0 0 0 0 0 0 0 0 0 0 0 0 0 0 0
0 0 0 0 0 0 0 0 0 0 0 0 0 0 0 0 0 0 0 0 0 0 0 0 0 0 0 0 0 0 0 0 0 0 0 0 0 0 0 0 0 0 0 0 0 0 0 2455.42 2425.49 2576.17 2800.55 2880.56 2892.48 2943.63 2844.04 3005.81 3035.55 3105.45 3131.71 3197.35 3336.41 3397.48 3409.84 3486.65 3787.64 3919.39 3669.76 3557.63 3521.12 3254.54 3184.61 3221.42 3122.5 3076.01 3166.7 2977.27 3182.56 3016.02 3409.01 2979.33 2370.59 2258.95 2386.78 1463.67 0 0 0 0 0 0 0 0 0 2222.65 2201.99 2401.5 2284.88 2314.28 2732.86 2994.38 2934.62 2909.48 3136.16 3270.4 3328.13 3381.12 4420.77 4069.79 4202.1 3157.4 2988.57 2663.78 2530.33 2455.67 2192.81 0 0 0 0 0 0 0 0 0 0 0 0 0 0 0 0 0 0 0 0 0 0 0 0 0 0 0 0 0 0 0 0 0 0 0 0 0 0 0 0 0 0 2256.58 0 1973.89 0 0 0 0 0 0 0 0 0 0 0 0 0 0 0 0 0 0 0 0 0 0 0 0 0 0 0 0 0 0 0 0 0 0 0 0 0 0 0 0 0 0 0 0 0 0 0 0 2548.97 2707.76 2944.3 3043.76 3121.51 3247.73 3255.04 3303.1 3394.53 3433.78 3449.95 3420.41 3494.93 3550.85 3571.94 3584.84 3533.58 3546.65 3487.23 3470 3473.23 3358.58 3269.76 3149.64 2918.08 3088.02 2981.72 2773.88 2392.56 2188.95 2464.69 2656.57 0 2836.3 2854.29 2830.12 3033.08 3108.15 3172.15 3175.99 3045.53 3471.58 3313.08 3379.82 0 0 0 0 0 0 0 0 0 0 0 0 0 0 0 0 0 0 0 0 0 0 0 0 0 0 0 0 0 0 0 0 0 0 0 0 0 0 0 0 2930.78 3037.15 3073.98 3114.44 3292.34 3268.74 3195.59 3131.12 3194.92 3270.4 3217.65 3294.35 3181.83 3161.21 3217.59 3249.62 3377.44 3308.45 3244.22 3196.14 3082.85 3438.42 3500.25 3420.96 3422.92 2853.61 2212.21 1856.5 0 0 0 0 0 0 0 0 0 0 0 0 0 0 0 0 0 0 0 0 0 0 0 0 0 0 2543.25 3495.95 3416.72 3253.59 3299.53 3353.75 3410.12 3375.68 3318.65 3335.08 3313.87 3241.52 3270.27 3292.41 3290.79 3217.47 3166.76 3127.5 3087.16 3084.16 3115.42 3056.35 3060.86 3013.53 3033.52 3120.58 3185.4 5605.99 6089.86 3018.13 3095.02 2599.73 2671.08 5804.99 2167.66 1422.63 0 0 0 0 0 0 0 0 0 0 0 0 0 0 0 0 0 0 0 0 0 0 0 0 0 0 0 0 0 0 0 0 0 0 0 0 0 0 0 0 0 0 0 0 0 0 0 0 0 0 0 0 0 0 0 0 0 0 0 0 0 0 0 0 0 0 0 0 0 0 0 0 0 0 0 0 2844.71 2954.31 2976.64 2992.4 3089.95 3212.41 3367 4243.76 4816.6 4690.04 3171.25 3157.88 3125.7 3073.25 2987.66 2884.32 2859.99 2739.1 2629.06 2566.72 2316.84 2333.73 2320.08 1820.08 1625.59 1420.87 1425 1307.24 1668.37 0 0 0 0 0 0 0 0 0 0 0 0 0 0 0 0 0 0 0 0 0 0 0 0 0
0 0 0 0 0 0 0 0 0 0 0 0 0 0 0 0 0 0 0 0 0 0 0 0 0 0 0 0 0 0 0 0 0 0 0 0 0 0 0 0 0 0 0 0 0 0 2072.91 2149.25 2263.09 2442.9 2700.4 2682.14 2776.22 2778.02 2678.84 2887.9 2926.74 2949.84 3048.85 3111.44 3263.21 3310.47 3316.49 3420.69 3353.48 3794.24 3491.08 3358.71 3357.57 3216.97 3132.41 3200.4 3082.74 3013.53 3121.16 2955.04 3142.09 2956.03 3188.91 2879.62 2287.4 2050.11 2212.59 0 0 0 0 0 0 0 0 0 0 0 0 2170.63 2158.76 2121.8 2480.1 2712.75 2650.99 2729.35 3008.56 3215.25 3207.68 3233.28 3292.34 3216.48 3091.37 3116.64 2952.02 2512.9 2203.56 2207.18 2046.38 0 0 0 0 0 0 0 0 0 0 0 0 0 0 0 0 0 0 0 0 0 0 0 0 0 0 0 0 0 0 0 0 0 0 0 0 0 2300.67 1866.22 1964.58 2247.36 2147.93 1923.06 1962.72 1920.17 0 0 0 0 0 0 0 0 0 0 0 0 0 0 0 0 0 0 0 0 0 0 0 0 0 0 0 0 0 0 0 0 0 0 0 0 0 0 0 0 0 0 0 0 0 0 0 0 2560.45 2680.59 2928.27 3025.86 3051.9 3196.99 3173.83 3220.55 3372.55 3411.02 3419.5 3382.82 3453 3532.09 3540.96 3617.22 3580.4 3587.68 3547.02 3539.17 3573.16 3466.34 3361.94 3265.5 3021.61 2988.89 2830.89 2578.83 2430.55 2394.65 2663.06 2831.27 2603.4 2954.99 3003.6 2963.28 3159.72 3077.14 3068.08 3035.99 2990 3354.01 3237.83 3275.95 3443.5 3256.37 3311.19 3363.76 3609.83 2979.39 0 0 0 0 0 0 0 0 0 0 0 0 0 0 0 0 0 0 0 0 0 0 0 0 0 0 0 0 0 0 0 0 0 0 2940.85 3175.51 3207.93 3176.83 3261.75 3253.4 3237.83 3175.03 3311.38 3336.41 3261.69 3316.42 3249.37 3237.89 3255.93 3240.27 3307.6 3237.83 3301.48 3261.62 3204.32 3288.73 3272.82 3190.61 3249.43 5734.75 2275.68 0 0 0 0 0 0 0 0 0 0 0 0 0 0 0 0 0 0 0 0 0 0 0 0 0 0 2920.07 2609.19 3414.14 3596.91 3219.5 3320.3 3289.44 4463.81 3364.84 3323.39 3317.15 3284.16 3171.43 3225.26 3232.4 3264.23 3191.76 3151.83 3095.82 3077.82 3068.64 3109.3 3077.59 3102.69 3084.27 3094.22 3150.41 3243.72 3246.04 3264.54 3171.19 3211.92 2701.44 2458.87 2379.53 1881.14 1335.6 0 0 0 0 0 0 0 0 0 0 0 0 0 0 0 0 0 0 0 0 0 0 0 0 0 0 0 0 0 0 0 0 0 0 0 0 0 0 0 0 0 0 0 0 0 0 0 0 0 0 0 0 0 0 0 0 0 0 0 0 0 0 0 0 0 0 0 0 0 0 0 0 0 0 0 0 0 2997.27 2978.43 2926.23 2998.61 3133.81 3272.5 4157.22 4707.41 3302.71 3192.06 3214.63 3195.16 3179.78 3163.29 3109.25 3071 3048.85 2882.09 2782.25 2530.63 2492.74 2436.77 1919.54 1807.93 1371.78 1272.45 1310.49 1432.42 992.774 0 0 0 0 0 0 0 0 0 0 0 0 0 0 0 0 0 0 0 0 0 0 0 0
0 0 0 0 0 0 0 0 0 0 0 0 0 0 0 0 0 0 0 0 0 0 0 0 0 0 0 0 0 0 0 0 0 0 0 0 0 0 0 0 0 0 0 0 0 0 2200.61 2409.4 2571.59 2586.46 2762.47 2741.3 2730.81 2788.27 2738.84 2888.3 2950.62 2946.27 3027.45 3108.27 3247.11 3336.54 3333.95 3420.13 3371.54 3301.61 3459.62 3360.73 3627.86 3226.75 3122.85 3171.37 3076.69 2974.53 3124.07 2938.68 3064.44 2849.88 3038.41 2719.88 0 0 0 0 0 0 0 0 0 0 0 0 0 0 0 1896.75 2109.15 2014.47 2402.74 2779.9 2663.91 2829.36 3025.54 3057.74 3097.99 3107.81 3189.94 3063.32 2877.79 2931.54 2778.38 0 2171.78 1935.88 0 0 0 0 0 0 0 0 0 0 0 0 0 0 0 0 0 0 0 0 0 0 0 0 0 0 0 0 0 0 0 0 0 0 1822.62 2101.36 2394.89 2526.94 2456.46 2091.9 2239.86 2530.63 2463.38 2372.87 2154.1 2044.61 2095.79 2184.22 0 0 0 0 0 0 0 0 0 0 0 0 0 0 0 0 0 0 0 0 0 0 0 0 0 0 0 0 0 0 0 0 0 0 0 0 0 0 0 0 0 0 0 0 0 0 2538.68 2750.92 2960.62 3116.06 3112.42 3170.23 3144.27 3177.85 3340.59 3352.41 3384.87 3365.79 3391.44 3478.63 3502.81 3569.97 3562.23 3548.37 3559.44 3522.23 3470.5 3397.89 3261.56 3231.22 3022.54 2930.27 2741.66 2539.1 2371.63 2372.13 2459.48 2677.43 2546.73 2788.87 2813.94 2877.15 3038.19 2974.16 3001.88 3059.97 2928.42 3217.53 3165.2 3204.5 3241.46 3077.65 3130.36 3164.97 0 0 0 0 0 0 0 0 0 0 0 0 0 0 0 0 0 0 0 0 0 0 0 0 0 0 0 0 0 0 0 0 0 0 0 3221.36 2969.26 3228.55 3168.91 3188.66 3289.25 3256.43 3226.19 3151.89 3256.88 3288.47 3192.97 3283.97 3197.11 3206.52 3236.46 3262.45 3346.59 3298.62 3367.88 3354.28 3248.93 3295.84 3224.76 3149.58 2958.89 2827.69 2150.02 0 0 0 0 0 0 0 0 0 0 0 0 0 0 0 0 0 0 0 0 0 0 0 0 0 0 2983.25 2608.54 3598.68 3805.6 3461.69 3457.62 3352 3414.14 3454.71 3348.39 3330.18 3292.8 3163.06 3178.22 3183.88 3220 3152.18 3102.98 3066.9 3051.9 3037.37 3076.35 3067.35 3101.14 3107.12 3098.28 3121.57 3178.46 3118.43 3124.88 3102.92 3035.88 2603.03 2311.61 2429.57 2023.41 1515.44 0 0 0 0 0 0 0 0 0 0 0 0 0 0 0 0 0 0 0 0 0 0 0 0 0 0 0 0 0 0 0 0 0 0 0 0 0 0 0 0 0 0 0 0 0 0 0 0 0 0 0 0 0 0 0 0 0 0 0 0 0 0 0 0 0 0 0 0 0 0 0 0 0 0 0 0 0 3006.08 3135.8 2995.34 3194.19 3246.48 4323.26 4397.94 3600.53 3379.35 3261.37 3217.34 3234.59 3150.17 3138.21 3124.82 3024.72 3060.08 2942.34 2857.99 2877.5 2715.74 2752.86 2464.65 2364.98 2016.72 1760.65 1467.59 1675.11 1389.28 1210.44 0 0 0 0 0 0 0 0 0 0 0 0 0 0 0 0 0 0 0 0 0 0 0
0 0 0 0 0 0 0 0 0 0 0 0 0 0 0 0 0 0 0 0 0 0 0 0 0 0 0 0 0 0 0 0 0 0 0 0 0 0 0 0 0 0 0 0 0 0 2002.33 2176.8 2336 2449.89 2657.96 2748.53 2699.14 2741.16 2707.06 2914.99 3002.15 2968.53 3045.31 3164.49 3249.37 3337.67 3354.48 3435.68 3373.37 3289.76 3484.7 3667.35 3339.53 3272.57 3207.99 3270.46 3194.68 3156.99 3390.89 3215.74 3405.69 3224.27 3454.99 2984 2086.21 1910.6 1864.4 0 0 0 0 0 0 0 0 0 0 0 0 0 0 2013.6 0 2549.24 2462.48 2668.32 0 3161.75 3071.4 3043.76 3136.8 2953.94 2934.98 3042.88 2781.7 0 1963.22 1622.78 0 0 0 0 0 0 0 0 0 0 0 0 0 0 0 0 0 0 0 0 0 0 0 0 0 0 0 0 0 0 0 0 0 1925.55 2139 2281.55 2498.49 2689.19 2651.57 2332.85 2482.92 2601.5 2542.06 2447.29 2283.92 2198.53 2159.43 2200.35 2477.68 0 0 0 0 0 0 0 0 0 0 0 0 0 0 0 0 0 0 0 0 0 0 0 0 0 0 0 0 0 0 0 0 0 0 0 0 0 0 0 0 0 0 0 0 0 2586.58 2749.56 2932.62 3195.1 3172.75 3174.85 3138.5 3187.94 3302.58 3295.84 3336.74 3353.61 3345.25 3395.49 3414.49 3562.39 3531.94 3561.33 3609.6 3598.68 3494.86 3418.18 3334.95 3330.58 2986.65 2844.42 2681.41 2375.9 2245.88 2234.28 2443.72 2637.86 2570.69 2708.77 2825.64 2840.47 2994.38 2976.85 3055.68 3105.28 3014.01 3154.37 3152.71 3128.14 3194.86 3063.82 3167.48 3014.5 0 0 0 0 0 0 0 0 0 0 0 0 0 0 0 0 0 0 0 0 0 0 0 0 0 0 0 0 0 0 0 0 0 0 2952.28 3192.73 2948.39 3093.02 3016.89 3147.16 3187.64 3122.9 3120.7 3032.81 3182.5 3215.43 3170.95 3245.91 3161.98 3169.33 3181.35 3207.38 3280.31 3811.48 3261.31 3250.38 3230.23 3216.85 3216.91 3288.09 3161.09 3181.05 2579.38 2073.49 1573.74 0 0 0 0 0 0 0 0 0 0 0 0 0 0 0 0 0 0 0 0 0 0 0 0 2799.48 2745.87 3488.97 3793.81 3486 3534.69 3432.93 4506.13 3492.9 3369.78 3332.96 3343.65 3180.93 3206.34 3228.61 3287.31 3227.43 3193.34 3177.85 3173.65 3132.17 3172.63 3162.4 3151.77 3143.26 3131 3143.68 3201.5 3190.54 3291.44 3438.63 3511.61 3206.15 2673.84 2954.1 2725.89 1757.27 0 0 0 0 0 0 0 0 0 0 0 0 0 0 0 0 0 0 0 0 0 0 0 0 0 0 0 0 0 0 0 0 0 0 0 0 0 0 0 0 0 0 0 0 0 0 0 0 0 0 0 0 0 0 0 0 0 0 0 0 0 0 0 0 0 0 0 0 0 0 0 0 0 0 0 0 0 3033.85 3264.54 3067.13 3085.91 5124.35 3220.8 3291.83 3332.76 4580.19 3257.32 3172.45 3197.72 3200.95 3228.42 3271.29 3225.07 3270.78 3138.91 3099.65 3208.85 3072.35 3049.01 2717.76 2564.56 2243.9 2014.95 1841.74 1936.35 1779.77 1644.04 0 0 0 0 0 0 0 0 0 0 0 0 0 0 0 0 0 0 0 0 0 0 0
0 0 0 0 0 0 0 0 0 0 0 0 0 0 0 0 0 0 0 0 0 0 0 0 0 0 0 0 0 0 0 0 0 0 0 0 0 0 0 0 0 0 0 0 0 2152.53 2164.61 2430.45 2469.26 2481.56 2659.69 2751.01 2712.14 2704.36 2717.32 2851.43 2915.09 2883.98 2997.22 3096.45 3162.94 3225.07 3257.63 3326.95 3295.06 3214.75 3390.2 3573.23 3543.2 3540.29 3254.29 3297.39 3215.8 3179.6 3440.11 3280.82 3413.24 3311.51 2995.88 2533.5 2004.38 1669.21 2167.94 656.984 0 0 0 0 0 0 0 0 0 0 0 0 0 0 0 0 0 0 0 0 0 0 2925.05 2656.78 0 0 0 0 0 0 0 0 0 0 0 0 0 0 0 0 0 0 0 0 0 0 0 0 0 0 0 0 0 0 0 0 0 0 0 0 0 0 2118.39 2180.16 2384.17 2549.86 2776.27 3060.14 2956.44 2680.38 2722.35 2774.02 2761.69 2687.08 2503.63 2414.53 2281.09 2332.27 2535.38 2539.67 0 0 0 0 0 0 0 0 0 0 0 0 0 0 0 0 0 0 0 0 0 0 0 0 0 0 0 0 0 0 0 0 0 0 0 0 0 0 0 0 0 0 0 0 0 2711.92 2842.4 3005.48 2978.38 3028.21 2956.76 2999.84 3099.02 3113.46 3166.64 3212.6 3201.99 3290.28 3314.26 3499.74 3472.44 3547.32 3566.55 3550.93 3387.33 3341.92 3199.49 3147.04 2918.59 2749.83 2616.71 2339.94 2331.07 2437.76 2586.18 2877.2 2910.9 2962.13 3019.66 3021.89 3148.57 3123.89 3158.29 3222.1 3195.34 3269.38 3250.44 3279.09 3288.54 3161.15 3205.85 3119.94 2912.92 0 0 0 0 0 0 0 0 0 0 0 0 0 0 0 0 0 0 0 0 0 0 0 0 0 0 0 0 0 0 0 0 0 0 3405.07 3252.39 3303.82 3211.68 3403.55 3396.79 3301.02 3307.14 3163.12 3284.16 3297.13 3288.8 3353.01 3237.77 3267.21 3271.42 3273.14 3916.1 3978.12 4090.53 3986.73 3242.02 3258.65 3245.16 3398.17 3270.46 3423.83 2800.27 2277.56 1682.22 1218.83 0 0 0 0 0 0 0 0 0 0 0 0 0 0 0 0 0 0 0 0 0 0 0 1891.92 2070.58 3138.91 3530.38 3405.96 3404.03 3351.33 3434.48 4573.32 3405.34 3344.39 3430.13 3272.82 3289.83 3313.08 3318.39 3234.02 3180.02 3157.52 3132.93 3016.34 3058.02 3037.75 3008.18 2998.55 2981.24 2976.48 2980.81 3051.45 3079.63 3129.84 2949.27 2784.33 2387.42 2666.07 2715.39 1712.15 1226.16 0 0 0 0 0 0 0 0 0 0 0 0 0 0 0 0 0 0 0 0 0 0 0 0 0 0 0 0 0 0 0 0 0 0 0 0 0 0 0 0 0 0 0 0 0 0 0 0 0 0 0 0 0 0 0 0 0 0 0 0 0 0 0 0 0 0 0 0 0 0 0 0 0 0 0 0 3154.73 3447.75 3458.84 3357.03 3349.46 4372.72 4455.52 4559.53 4114.2 3278.32 3184.43 4212.54 3156.81 3208.05 3284.16 3270.91 3223.09 3145.03 3114.96 3197.96 3138.03 3113.92 2782.58 2702.01 2440.34 2292.94 2079.56 2055.13 1984.56 1949.92 1839.84 2131.53 0 0 0 0 0 0 0 0 0 0 0 0 0 0 0 0 0 0 0 0 0
0 0 0 0 0 0 0 0 0 0 0 0 0 0 0 0 0 0 0 0 0 0 0 0 0 0 0 0 0 0 0 0 0 0 0 0 0 0 0 0 0 0 0 0 0 2121.1 2306.27 2702.31 2574.16 2679.69 2736.69 2910.9 2825.17 2755.84 2747.67 2873.65 2887.15 2865.16 2972.84 3084.55 3139.15 3198.57 3262.57 3320.43 3308.64 3238.64 3377.92 3334.55 3272.31 3284.22 3286.41 3305.38 3219.94 3116.06 3374.52 3228.42 3361.68 3400.17 3004.3 2623.51 2382.98 1738.93 3173.77 0 0 0 0 0 0 0 0 0 0 0 0 0 0 0 0 0 0 0 0 0 0 0 0 0 0 0 0 0 0 0 0 0 0 0 0 0 0 0 0 0 0 0 0 0 0 0 0 0 0 0 0 0 0 0 0 0 0 0 0 0 0 2011.62 2168.1 2287.65 2493.25 2618.55 2969.52 3155.44 3185.88 2963.75 3026.79 3021.18 2996.84 3053.62 2912.06 2733.97 2713.46 2713.67 2884.17 2905.9 2869.13 2756.56 0 0 0 0 0 0 0 0 0 0 0 0 0 0 0 0 0 0 0 0 0 0 0 0 0 0 0 0 0 0 0 0 0 0 0 0 0 0 0 0 0 0 0 0 2735.75 2958.95 2926.84 3037.26 3012.34 3114.56 3179.12 3210.45 3230.85 3245.79 3265.88 3311.38 3301.28 3504.93 3460.69 3542.98 3562.92 3551.3 3443.43 3273.33 3186.85 3125.52 2804.44 2547.23 2489.26 2294.06 2388.1 2427 2592.94 2900.08 2924.09 2995.13 3071.68 4277.19 3754.92 3148.81 3198.57 3270.72 3190.3 3245.66 3192.91 3211.18 3222.84 3117.8 3134.22 3039.4 2870.02 2667.17 2460.71 0 0 0 0 0 0 0 0 0 0 0 0 0 0 0 0 0 0 0 0 0 0 0 0 0 0 0 0 0 0 0 3364.71 3540.06 3446.83 3451.86 3289.44 3362.15 3312.36 3280.82 3350 3204.01 3339.59 3331.77 3354.42 3408.04 3718.8 3767.57 3436.31 3396.11 3420.83 3311.84 3335.21 3298.62 3272.44 3213.64 3052.9 3184.97 3111.9 3275.89 2742.06 2446.79 2246.76 1726.6 0 0 0 0 0 0 0 0 0 0 0 0 0 0 0 0 0 0 0 0 0 0 0 0 2164.41 3113.28 3581.17 3491.73 3413.8 3327.28 3361.34 3483.61 3436.17 3340.72 3431.04 3296.48 3338.6 3363.09 3331.5 3287.64 3217.71 3151.41 3141.56 3047.57 3050.57 3008.83 2979.97 3012.28 2985 2958.63 3040.95 3105.91 3179.9 3210.32 3057.29 2712.36 2279.23 2548.55 2401.33 1573.68 0 0 0 0 0 0 0 0 0 0 0 0 0 0 0 0 0 0 0 0 0 0 0 0 0 0 0 0 0 0 0 0 0 0 0 0 0 0 0 0 0 0 0 0 0 0 0 0 0 0 0 0 0 0 0 0 0 0 0 0 0 0 0 0 0 0 0 0 0 0 0 0 0 0 0 0 0 3264.86 3491.51 3446.33 3346.39 3246.16 4359.2 3248.93 4487.45 4115.41 3284.93 3220.99 3148.22 3125.46 3213.28 3324.57 3330.38 3286.99 3171.01 3169.33 3239.71 3309.29 3371.61 3230.72 3151.77 2910.29 2769.81 2250.07 2102.23 1914.3 2036.13 1878.99 2199.89 0 0 0 0 0 0 0 0 0 0 0 0 0 0 0 0 0 0 0 0 0
0 0 0 0 0 0 0 0 0 0 0 0 0 0 0 0 0 0 0 0 0 0 0 0 0 0 0 0 0 0 0 0 0 0 0 0 0 0 0 0 0 0 0 0 0 1515.07 0 2549.05 2431.26 2572.66 2652.79 2861.4 2740.18 2683.3 2757.65 2888.99 2905.1 2881.6 3021.5 3122.73 3155.56 3207.38 3275.06 3311.19 3296.48 3208.97 3325.23 3270.46 3235.71 3242.4 3278.26 3282.04 3243.21 3169.93 3434.13 3385.62 3438.21 3402.23 2947.77 2288.93 2226.13 1758.43 0 0 0 0 0 0 0 0 0 0 0 0 0 0 0 0 0 0 0 0 1251.93 1345.99 1765.24 0 0 0 0 0 0 0 0 0 0 0 0 0 0 0 0 0 0 0 0 0 0 0 0 0 0 0 0 0 0 0 0 0 0 0 0 0 0 0 2086.57 2149.91 2344.06 2466.53 2740.27 2984.16 3291.83 3426.34 3401.89 3262.19 3288.22 3248.74 3208.05 3175.87 2951.87 2770.81 2748.17 2792.02 2904.14 2885.61 2846.64 2804.81 0 0 0 0 0 0 0 0 0 0 0 0 0 0 0 0 0 0 0 0 0 0 0 0 0 0 0 0 0 0 0 0 0 0 0 0 0 0 0 0 0 0 0 0 3104.82 3297.72 3102.4 3240.08 3152.6 3158.29 3236.27 3238.52 3260.55 3272.12 3281.98 3330.05 3245.79 3463.41 3415.25 3446.61 3508.16 3505.59 3410.53 3259.47 3176.35 3200.71 2939.35 2764.47 2782.76 2699.35 2850.27 2910.64 3000.91 3216.79 3178.03 3213.89 4396.79 4257.87 3905.43 3761.24 3293.83 3358.24 3271.48 3304.08 3278.51 3309.03 3350.8 3294.03 3321.74 3286.03 3164.73 3006.94 0 0 0 2416.62 0 0 0 0 0 0 0 0 0 0 0 0 0 0 0 0 0 0 0 0 0 0 0 0 0 0 0 0 3276.85 3422.15 3435.53 3456.27 3307.92 3343.99 3276.14 3273.65 3314.2 3198.21 3327.94 3312.3 3302.84 3342.79 3310.08 3736.36 3790.9 3374.66 3814.16 3964.21 4044.29 3333.36 3344.79 3261.81 3064.05 3216.91 3168.37 3508.38 3049.12 2778.48 2176.51 0 0 0 0 0 0 0 0 0 0 0 0 0 0 0 0 0 0 0 0 0 0 0 0 1832.93 2088.88 2990.32 3360.66 3311.25 3260.86 3154.2 3209.46 3360.6 3348.39 3276.85 3399.75 3303.75 3346.25 3374.25 3703.21 3305.9 3267.34 3186.73 3207.93 3122.38 3158.59 3131.65 3109.48 3194.31 3163.12 3140.79 3308.58 3295.51 4957.35 3324.11 3045.08 2777.19 2462.41 2863.7 2559.47 1699.15 1157.15 0 0 0 0 0 0 0 0 0 0 0 0 0 0 0 0 0 0 0 0 0 0 0 0 0 0 0 0 0 0 0 0 0 0 0 0 0 0 0 0 0 0 0 0 0 0 0 0 0 0 0 0 0 0 0 0 0 0 0 0 0 0 0 0 0 0 0 0 0 0 0 0 0 0 0 3426.9 3663.99 3781.67 3681.59 3483.61 4252.04 4212.75 3255.74 4370.22 4344.3 3272.82 4002.04 3155.74 3160.73 3233.03 3355.89 3380.44 3332.56 3227.8 3209.34 3252.64 3388.15 3498.43 3345.19 3331.77 3161.57 3270.33 2870.75 2890.93 2662.94 2754.44 2435.21 2761.83 0 0 0 2244.56 0 0 0 0 0 0 0 0 0 0 0 0 0 0 0 0 0
0 0 0 0 0 0 0 0 0 0 0 0 0 0 0 0 0 0 0 0 0 0 0 0 0 0 0 0 0 0 0 0 0 0 0 0 0 0 0 0 0 0 0 0 0 0 0 2192.67 2286.5 2533.65 2585.06 2805.23 2765.11 2672.69 2791.05 2889.79 2871.15 2850.9 2977.01 3092.11 3089.55 3121.16 3228.73 3270.84 3278.13 3201.63 3302.06 3254.47 3171.13 3220.06 3239.71 3181.35 3138.56 2993.31 3224.14 3187.03 3208.11 3222.9 2743.4 2080.67 2093.89 1079.32 0 0 0 0 0 0 0 0 0 0 0 0 0 0 0 0 0 0 0 0 0 786.201 0 0 0 0 0 0 0 0 0 0 0 0 0 0 0 0 0 0 0 0 0 0 0 0 0 0 0 0 0 0 0 0 0 0 0 0 0 0 0 0 2232.41 2350.01 2526.02 2720.27 2982.3 3194.92 3496.39 3528.6 4309.16 3433.43 3431.6 3352.41 3296.94 3263.34 3040.78 2798.68 2826.98 2933.9 3037.53 3067.13 3105.51 3036.49 0 0 0 2762.83 0 0 0 0 0 0 0 0 0 0 0 0 0 0 0 0 0 0 0 0 0 0 0 0 0 0 0 0 0 0 0 0 0 0 0 0 0 0 0 0 3552.73 3432.37 3293.96 3556.57 3426.76 3416.3 3445.98 3373.37 3316.36 3283.58 3345.85 3342.79 3213.21 3470.43 3426.48 3428.3 3559.14 3630.76 3437.65 3309.88 3290.34 3228.11 2911.75 2785.58 2882.44 2871.19 3031.22 3135.74 3997.55 4073.55 3902.71 3887.97 4238.08 4120.97 3801.46 3240.9 3254.35 3260.48 3176.95 3177.73 3132.12 3143.03 3161.33 3036.21 3140.03 2980.81 2878.93 2738.52 2781.19 2231.81 0 2308.78 0 0 0 0 0 0 0 0 0 0 0 0 0 0 0 0 0 0 0 0 0 0 0 0 0 0 0 0 0 3312.17 3432.23 3410.6 3364.3 3273.91 3203.15 3245.47 3255.86 3204.99 3255.36 3268.93 3296.55 3317.8 3324.18 3407.07 3427.88 3423.41 3405.9 3910.99 3913.63 3371 3409.22 3380.37 3204.68 3285.32 3283.71 3755.6 3148.1 2819.76 1616 913.784 0 0 0 0 0 0 0 0 0 0 0 0 0 0 0 0 0 0 0 0 0 0 0 0 1791.11 2578.87 3057.96 2960.25 2944.35 2848.87 3038.36 3272.82 3309.29 3197.54 3316.36 3253.78 3311.12 3390.55 3353.34 3316.82 3260.42 3176.23 3229.36 3157.88 3165.86 3153.13 3120.23 3162.76 3114.27 3100.74 3205.23 3222.41 5166.32 3215.31 2893.93 2647.64 2361.65 2870.16 2408.36 1825.33 1252.69 1052.26 1341.06 0 0 0 0 0 0 0 0 0 0 0 0 0 0 0 0 0 0 0 0 0 0 0 0 0 0 0 0 0 0 0 0 0 0 0 0 0 0 0 0 0 0 0 0 0 0 0 0 0 0 0 0 0 0 0 0 0 0 0 0 0 0 0 0 0 0 0 0 0 0 0 0 0 0 3355.15 3645.52 3652.18 3503.98 3402.92 3234.96 3323.85 3331.31 4290.1 4157.12 3989.19 3934.93 3194.43 3251.64 3373.77 3369.51 3290.09 3162.4 3084.16 3200.59 3416.78 3490.93 3374.45 3270.14 3171.61 3310.14 2918.24 2971.52 2816.11 2865.85 2664.88 2891.53 2848 2613.74 0 2785.77 0 0 0 1259.84 0 0 0 0 0 0 0 0 0 0 0 0 0
0 0 0 0 0 0 0 0 0 0 0 0 0 0 0 0 0 0 0 0 0 0 0 0 0 0 0 0 0 0 0 0 0 0 0 0 0 0 0 0 0 0 0 0 0 0 0 2682.48 2726.06 2801.58 2760.74 3034.46 2789.61 2701.31 2782.25 2841.44 2846.4 2803.5 2940.18 3083.31 3046.85 3124.88 3246.16 3314.26 3350.8 3284.03 3402.72 3345.32 3225.2 3311.78 3312.1 3239.27 3149.52 2959.21 3148.51 3091.2 3127.56 3124.94 2497.34 1917.67 1869.76 945.233 0 0 0 0 0 0 0 0 0 0 0 0 0 0 0 0 0 0 0 0 0 400.961 0 0 0 0 0 0 0 0 0 0 0 0 0 0 0 0 0 0 0 0 0 0 0 0 0 0 0 0 0 0 0 0 0 0 0 0 0 0 0 2161.15 2323.51 2481.05 2733.44 2949.32 3129.31 3313.41 4353.66 3945.57 3935.57 3453.92 3426.55 3374.32 3307.86 3230.35 3067.69 2868 2920.88 2948.39 3112.77 3177.25 3235.4 3202.85 3368.83 3538.05 0 3072.86 2635.08 1943.91 0 0 0 0 0 0 0 0 0 0 0 0 0 0 0 0 0 0 0 0 0 0 0 0 0 0 0 0 0 0 0 0 0 0 0 0 0 0 3591.28 3613.72 3433.5 3664.47 3425.64 3419.71 3394.73 3305.38 3278.64 3302.06 3290.41 3270.01 3128.73 3461.05 3411.44 3423.48 3541.93 3515.58 3256.56 3132.23 3071.34 3201.26 2898.47 2789.47 2971.89 3069.54 3157.28 4214.45 4304.96 4283.09 4023.92 3872.53 4174.29 3988.43 3745.7 3622.85 3226.81 3239.14 3161.27 3140.73 3162.22 3173.17 3278.51 3231.41 3308.05 3238.39 3116.52 3107.69 3456.2 0 0 0 0 0 0 0 0 0 0 0 0 0 0 0 0 0 0 0 0 0 0 0 0 0 0 0 0 0 0 0 2878.24 3225.13 3311.97 3424.39 3448.24 3341.86 3282.62 3346.92 3310.47 3273.84 3310.93 3342.32 3339.06 3310.6 3370.32 3426.41 3418.39 3460.26 3403.82 3385.48 3297 3333.22 3390.62 3235.27 3098.68 3181.41 3029.03 3660.87 2949.43 2784.79 1715.24 0 0 0 0 0 0 0 0 0 0 0 0 0 0 0 0 0 0 0 0 0 0 0 0 0 2283.79 2994.92 3451.22 3262 3277.74 2945.34 3053.79 3290.34 3325.1 3186 3275.38 3201.2 3276.34 3306.16 3320.76 3312.82 3253.91 3158.23 3238.21 3192.06 3220.43 3182.07 3182.8 3223.77 3169.39 3156.69 4823.8 4734.77 5011.84 3181.65 2962.97 2780.64 2477.75 2952.75 2509.06 1643.43 1160.5 1077.57 1666.68 0 0 0 0 0 0 0 0 0 0 0 0 0 0 0 0 0 0 0 0 0 0 0 0 0 0 0 0 0 0 0 0 0 0 0 0 0 0 0 0 0 0 0 0 0 0 0 0 0 0 0 0 0 0 0 0 0 0 0 0 0 0 0 0 0 0 0 0 0 0 0 0 0 3141.56 3283.9 3739.78 3788.07 3611.46 3516.47 3307.66 4122.9 4266.1 4012.66 4090.33 3250.12 3143.5 3153.72 3199.92 3314.39 3260.23 3175.87 3076.07 3024.94 3212.04 3313.02 3370.39 3277.3 3179.66 3205.78 3291.25 2988.99 3075.96 3022.7 3161.45 2905.4 2985 2969.16 0 0 2961.45 0 2175.67 1579.5 1607.56 0 0 0 0 0 0 0 0 0 0 0 0 0
0 0 0 0 0 0 0 0 0 0 0 0 0 0 0 0 0 0 0 0 0 0 0 0 0 0 0 0 0 0 0 0 0 0 0 0 0 0 0 0 0 0 0 0 0 0 0 2775.08 2926.84 2977.64 2881.55 3133.58 2778.94 2657.62 2767.48 2807.96 2814.74 2754.94 2894.72 3005.91 2971.73 3055.73 3201.63 3274.42 3317.21 3225.13 3366.87 3287.31 3228.67 3340.33 3379.28 3287.31 3155.15 3003.76 3319.84 3185.34 3205.97 3078.21 2490.11 1882.81 2020.87 961.026 0 0 0 0 0 0 0 0 0 0 0 0 0 0 0 0 0 0 0 0 0 0 0 0 0 0 0 0 0 0 0 0 0 0 0 0 0 0 0 0 0 0 0 0 0 0 0 0 0 0 0 0 0 0 0 0 0 0 0 0 2391.99 2425.95 2561.5 2641.72 2804.86 2960.51 3077.31 3179.06 3294.09 3302.91 3350.46 3291.7 3280.76 3223.77 3171.37 3174.13 3095.25 2954.41 3014.07 3031.55 3167.36 3753.5 3794.41 3278.64 3317.87 3439.76 3453.07 0 0 0 0 0 0 0 0 0 0 0 0 0 0 0 0 0 0 0 0 0 0 0 0 0 0 0 0 0 0 0 0 0 0 0 0 0 0 0 0 3187.51 3585.68 3574.99 3288.22 3497.34 3124.24 3024.88 3081.89 2897.87 3046.97 3058.46 3078.89 3053.29 2870.9 3390.34 3471.5 3403.2 3726.32 3599.14 3361 3226.62 3338.07 3606.73 3197.96 3079.29 3145.39 3186.91 3330.31 4398.4 4374.43 4307.94 4078.5 3923.61 4095.72 3953.84 3725 3608.98 3257.44 3251.38 3144.27 3111.38 3127.39 3136.27 3207.87 3183.88 3250.75 3222.59 3065.45 3302.78 3664.79 3344.85 0 0 0 0 0 0 0 0 0 0 0 0 0 0 0 0 0 0 0 0 0 0 0 0 0 0 0 0 0 0 2802.38 3181.65 3343.72 3488.83 3524.74 3437.29 3330.31 3390.55 3335.21 3346.12 3334.35 3348.99 3308.51 3280.05 3302.71 3378.39 3352.81 3397.27 3335.41 3322.33 3266 3347.52 3397.27 3315.57 3179.12 3341.26 3206.15 3641.64 3242.71 2756.93 851.203 0 0 0 0 0 0 0 0 0 0 0 0 0 0 0 0 0 0 0 0 0 0 0 0 0 0 2560.02 3297 3053.95 3044.04 2716.4 2851.14 3069.82 3070.33 2931.08 3070.67 2990.7 3080.76 3168.19 3215.12 3241.46 3196.32 3114.21 3204.01 3158.65 3203.4 3194.07 3187.82 3239.52 3130.71 3118.15 3233.46 4645.24 4681.92 3237.64 3100.8 2976.48 2646.1 3252.33 3075.67 2195.22 1542.36 0 0 0 0 0 0 0 0 0 0 0 0 0 0 0 0 0 0 0 0 0 0 0 0 0 0 0 0 0 0 0 0 0 0 0 0 0 0 0 0 0 0 0 0 0 0 0 0 0 0 0 0 0 0 0 0 0 0 0 0 0 0 0 0 0 0 0 0 0 0 0 0 0 0 0 3354.62 3628.33 4057.98 4073.55 3842.29 3641.56 3429 3464.34 4078 4153.21 4048.29 3253.59 3155.92 3153.31 3199.31 3275.95 3176.83 3114.9 3017.05 3017.65 3194.98 3232.47 3263.84 3244.28 3219.01 3453.78 3430.34 3425.85 4734.64 4495.03 3433.43 3355.62 3379.89 3315.57 3112.07 3256.37 3235.27 2887.7 0 2093.23 1972.15 1707.24 1246.27 0 0 0 0 0 0 0 0 0 0 0
0 0 0 0 0 0 0 0 0 0 0 0 0 0 0 0 0 0 0 0 0 0 0 0 0 0 0 0 0 0 0 0 0 0 0 0 0 0 0 0 0 0 0 0 0 0 0 0 3214.81 3141.38 2951.45 3242.96 2738.03 2741.66 2927.66 2919.35 2947.35 2861.74 2980.29 3108.38 3067.02 3153.84 3308.45 3349.33 3390.27 3256.18 3409.49 3374.45 3306.75 3421.24 3523.56 3385.69 3222.59 3056.74 3502.15 3330.97 3305.97 3023.03 2390.96 1493.14 1747.46 1115.57 0 0 0 0 0 0 0 0 0 0 0 0 0 0 0 0 0 0 0 0 0 0 0 0 0 0 0 0 0 0 0 0 0 0 0 0 0 0 0 0 0 0 0 0 0 0 0 0 0 0 0 0 0 0 0 0 0 0 0 0 2931.54 2739.01 2890.19 2953.06 3051.73 3211.43 3213.15 3278.26 3315.57 3746.29 3729.3 3341.92 3367.07 3297.46 3214.63 3282.04 3207.07 3086.94 3117.28 3071.17 3983.6 4077.01 4067.72 3228.42 3191.7 3361.41 0 0 0 0 0 0 0 0 0 0 0 0 0 0 0 0 0 0 0 0 0 0 0 0 0 0 0 0 0 0 0 0 0 0 0 0 0 0 0 0 0 0 3812.43 3803.62 0 3920.58 3410.05 3224.33 3210.94 2922.51 3048.18 3097.99 3200.1 3152.36 2991.44 3511.98 3617.38 3506.69 3764.7 3669.44 3433.71 3368.09 3430.41 3610.37 3197.72 3227.12 3261.43 3923.61 4364.65 4641.26 4561.51 4401.75 4224.32 4108.76 3889.14 3743.95 3696.19 3642.27 3297.65 3264.73 3194.25 3181.89 3209.83 3174.85 3225.82 3217.03 3209.96 3125.87 3021.4 3167.18 3477.84 3189.39 0 0 0 0 0 0 0 0 0 0 0 0 0 0 0 0 0 0 0 0 0 0 0 0 0 0 0 0 0 2642.51 2656.36 3226.19 3280.05 3406.86 3479.28 3453.5 3364.57 4601.67 3287.64 3309.75 3230.79 3290.92 3206.34 3159.24 3136.33 3209.65 3180.69 3276.53 3227.8 3217.9 3127.74 4744.15 4961.16 3375.74 3168.07 3309.69 3157.16 3541.93 3341.06 2526.21 712.674 0 0 0 0 0 0 0 0 0 0 0 0 0 0 0 0 0 0 0 0 0 0 0 0 0 0 0 0 3134.69 3100.23 2774.94 2941.67 3112.42 3099.14 2938.27 3089.49 3086.08 3113.4 3193.09 3216.23 3215.55 3209.59 3125.17 3212.29 3154.08 3139.85 3127.91 3120.64 3166.4 3121.04 3117.57 4611.15 3241.08 4553.59 4683.36 4389.08 3253.65 3088.24 3533.72 3380.1 2765.11 2027.1 0 0 0 0 0 0 0 0 0 0 0 0 0 0 0 0 0 0 0 0 0 0 0 0 0 0 0 0 0 0 0 0 0 0 0 0 0 0 0 0 0 0 0 0 0 0 0 0 0 0 0 0 0 0 0 0 0 0 0 0 0 0 0 0 0 0 0 0 0 0 0 0 0 0 0 3186.67 3372.08 3889.23 4044.39 3839.3 3608.04 3385.83 3430.2 3413.38 4041.66 3910.8 3239.02 3089.95 3072.18 3137.68 3240.9 3148.69 3067.86 2957.07 2923.07 3063.43 3153.96 3240.77 3190.54 3161.63 3405.62 4933.73 5367.64 3926.27 5262.58 4936.49 4616.36 4363.28 4216.57 3398.03 3527.93 3527.93 3272.25 2931.65 2475.67 2166.43 1949.13 1508.74 1078.82 0 0 0 0 0 0 0 0 0 0
0 0 0 0 0 0 0 0 0 0 0 0 0 0 0 0 0 0 0 0 0 0 0 0 0 0 0 0 0 0 0 0 0 0 0 0 0 0 0 0 0 0 0 0 0 0 0 0 2761.06 2790.07 2728.46 3005.32 2749.83 2681.15 2921.29 2954.73 2956.86 2851.82 2987.72 3114.44 3080.36 3029.52 3215.43 3258.58 3270.08 3163.29 3359.59 3272.76 3189.63 3321.48 3572.25 3459.83 3295.19 3103.61 3488.83 3286.6 3515.22 3321.28 2602.99 1878.45 2078.27 0 0 0 0 0 0 0 0 0 0 0 0 0 0 0 0 0 0 0 0 0 0 0 0 0 0 0 0 0 0 0 0 0 0 0 0 0 0 0 0 0 0 0 0 0 0 0 0 0 0 0 0 0 0 0 0 0 0 0 0 0 3141.56 2733.17 2812.33 2949.12 3070.16 3139.15 3171.13 3237.96 3292.6 3710.09 3712.88 3606.96 3322.33 3242.4 3164.25 3217.96 3541.71 3074.55 3063.04 3009.58 3929.12 3956.27 3900.8 3149.16 3096.56 3233.15 0 0 0 0 0 0 0 0 0 0 0 0 0 0 0 0 0 0 0 0 0 0 0 0 0 0 0 0 0 0 0 0 0 0 0 0 0 0 0 0 0 0 0 0 0 3541.71 3326.88 3130.6 2962.29 2715.26 2917.88 2875.03 2888.59 2905.95 2833.52 3232.78 3395.49 3477.91 3830.01 3532.83 3387.33 3261.5 3205.29 3153.84 2985.06 3082.46 3142.15 3187.94 3249.43 4453.03 4483.74 4334.76 4153.93 4064.08 3848.9 3683.94 3644.17 3524.08 3248.55 3203.83 3113.4 3140.73 3157.52 3145.74 3194.86 3190.79 3215.43 3183.52 3147.27 3357.84 3573.31 3276.08 0 0 0 0 0 0 0 0 0 0 0 0 0 0 0 0 0 0 0 0 0 0 0 0 0 0 0 0 0 0 2934.62 3343.05 3405.34 3483.54 3546.8 4275.56 3384.12 4724.64 3272.44 3316.23 3252.46 4224.85 3266.26 3196.2 3185.4 3235.27 3206.4 3316.16 3240.08 3232.28 3109.65 4788.15 5012.14 3422.36 3256.81 3320.89 3241.84 3705.99 3496.97 2918.44 456.639 0 0 0 0 0 0 0 0 0 0 0 0 0 0 0 0 0 0 0 0 0 0 0 0 0 0 0 0 0 2959.68 2637.53 2816.54 2896.72 2999.09 2795.61 2968 2995.66 3116.23 3200.65 3219.81 3244.28 3286.35 3126.75 3227.43 3154.37 3158.95 3132.76 3140.32 3201.01 3124.07 3143.15 3317.67 3344.45 3456.48 3439.27 3431.04 3429.5 3322.14 3894.83 3683.86 3175.09 2593.34 2334.34 0 0 0 0 0 0 0 0 0 0 0 0 0 0 0 0 0 0 0 0 0 0 0 0 0 0 0 0 0 0 0 0 0 0 0 0 0 0 0 0 0 0 0 0 0 0 0 0 0 0 0 0 0 0 0 0 0 0 0 0 0 0 0 0 0 0 0 0 0 0 0 0 0 0 3294.93 3409.01 3760.73 3989.47 3691.56 3518.83 3372.28 3389.59 3401.2 4041.56 3960.75 3273.65 3094.05 3132.76 3162.76 3243.9 3174.85 3108.9 2972.26 2963.75 2981.19 3100.11 3125.52 3027.01 3000.65 3192.79 4763 6024.69 5024 4946.1 4413.21 3480.58 3499.23 3531.49 3366.13 3448.6 3479.13 3258.77 2974.9 2554.02 2099.33 2002.85 1435.18 1126.11 0 0 0 0 0 0 0 0 0 0
0 0 0 0 0 0 0 0 0 0 0 0 0 0 0 0 0 0 0 0 0 0 0 0 0 0 0 0 0 0 0 0 0 0 0 0 0 0 0 0 0 0 0 0 0 0 0 0 2591.37 2589.05 2631.61 2898.27 2693.98 2620.27 2904.04 2903.74 2867.96 2813.61 2898.17 2965.27 2954.36 2858.04 3019.76 3097.65 3137.56 3084.84 3250.75 3202.97 3186.48 3294.48 3586.53 3487.89 3281.46 3030.95 3238.52 3046.41 3161.69 2911.91 2195.65 1490.96 0 0 0 0 0 0 0 0 0 0 0 0 0 0 0 0 0 0 0 0 0 0 0 0 0 0 0 0 0 0 0 0 0 0 0 0 0 0 0 0 0 0 0 0 0 0 0 0 0 0 0 0 0 0 0 0 0 0 0 0 0 0 3041.61 2736.74 2870.7 2974.37 3013.58 3164.37 3167.53 3285.64 3323.39 3313.08 3361.54 3316.42 3368.42 3330.71 3245.6 3290.86 3620.74 3939.82 3502.81 3165.03 4551.61 4703.71 4871.56 3138.15 3078.67 3107.29 2738.93 2441.62 1377.24 304.025 0 0 0 0 0 0 0 0 0 0 0 0 0 0 0 0 0 0 0 0 0 0 0 0 0 0 0 0 0 0 0 0 0 0 0 0 0 0 0 0 0 3607.89 3231.97 3012.17 2966.53 2798.36 3029.25 2858.23 2929.34 2871.15 2758.24 3145.56 3529.86 3489.84 3868.07 0 0 3094.62 0 3236.21 3128.79 3229.6 3269.5 3331.83 3414 4521.19 4514.87 4366.24 4213.49 4146.33 3924.07 3771.38 3715.26 3609.21 3291.25 3221.6 3118.26 3156.09 3163.18 3131.12 3166.58 3177.79 3219.63 3245.91 3264.99 3523.34 3666.63 3401.96 0 0 0 0 0 0 0 0 0 0 0 0 0 0 0 0 0 0 0 0 0 0 0 0 0 0 0 0 0 0 0 3373.64 3384.19 3544.25 3628.09 4444.66 4216.67 4821.72 3340.26 3999.17 3282.04 4315.48 3320.3 3221.17 3214.63 3260.04 3234.52 3322.01 3242.21 3315.24 3168.55 4806.39 5012.29 3481.44 3342.79 3280.76 3227.43 3429.5 3243.09 2898.37 774.539 0 0 0 0 0 0 0 0 0 0 0 0 0 0 0 0 0 0 0 0 0 0 0 0 0 0 0 0 0 0 2478.12 2627.66 2643.43 2846.98 2727.75 2811.91 2923.22 3033.03 3124.01 3109.76 3160.26 3240.52 3082.29 3175.09 3172.45 3171.73 3124.18 3136.68 3249.05 3148.45 3200.65 3331.5 3352 3433.78 3313.61 3326.62 3289.31 3145.62 3629.98 3142.26 2718.25 2231.72 2112.29 0 0 0 0 0 0 0 0 0 0 0 0 0 0 0 0 0 0 0 0 0 0 0 0 0 0 0 0 0 0 0 0 0 0 0 0 0 0 0 0 0 0 0 0 0 0 0 0 0 0 0 0 0 0 0 0 0 0 0 0 0 0 0 0 0 0 0 0 0 0 0 0 0 0 0 3471.65 3707.96 3930.04 3747.04 3622.06 3491.8 3489.99 3996.7 4079.79 4009.49 3298.82 3132.7 3130.3 3126.45 3174.31 3085.69 2956.03 2841.34 2806.22 2895.87 2963.44 3010.5 3053.79 3097.25 3303.17 4879.64 4955.74 4238.72 4905.75 4735.71 4541.02 4344.08 4235.83 4112.59 4142.14 3951.7 3416.16 3211.68 2963.28 2391.71 2314.96 2130.04 1750.23 0 800.183 0 0 0 0 0 0 0 0
0 0 0 0 0 0 0 0 0 0 0 0 0 0 0 0 0 0 0 0 0 0 0 0 0 0 0 0 0 0 0 0 0 0 0 0 0 0 0 0 0 0 0 0 0 0 0 0 0 2713.02 2829.5 3408.73 3016.72 2899.08 3073.2 3012.66 3067.3 2990.75 3024.12 3083.02 3149.4 3035.77 3135.86 3271.67 3291.31 3257.63 3446.26 3363.29 3325.1 3239.21 3475.96 3500.4 3288.09 3090.86 3184.37 2842.35 3224.89 3091.66 0 0 0 0 0 0 0 0 0 0 0 0 0 0 0 0 0 0 0 0 0 0 0 0 0 0 0 0 0 0 0 0 0 0 0 0 0 0 0 0 0 0 0 0 0 0 0 0 0 0 0 0 0 0 0 0 0 0 0 0 0 0 0 2162.24 2448.29 2279.54 2608.58 2782.49 2893.63 3116.87 3157.46 3243.78 3333.75 3311.97 3392.33 3316.36 3332.76 3304.21 3202.85 3231.53 3202.85 3595.21 3141.26 3119.48 3938.71 4680.88 4822.14 3149.7 3159.48 3220.92 2936.37 2555.77 1668.91 350.057 0 0 0 0 0 0 0 0 0 0 0 0 0 0 0 0 0 0 0 0 0 0 0 0 0 0 0 0 0 0 0 0 0 0 0 0 0 0 0 0 0 0 0 0 0 3286.15 3481.3 3163.83 3279.73 3243.59 3080.87 3377.78 0 0 4038.16 3209.71 3588.67 3075.84 0 0 3322.14 3482.74 3575.82 3562.54 3548.3 4448.55 4484.22 4381.97 4151.36 4183.76 4046.53 3853.59 3797.93 3730.63 3304.93 3461.55 3072.52 3128.38 3156.21 3105.85 3160.43 3146.98 3187.27 3199.37 3220.8 3538.12 3666.39 3369.64 0 0 0 0 0 0 0 0 0 0 0 0 0 0 0 0 0 0 0 0 0 0 0 0 0 0 0 0 0 0 0 3105.45 3208.79 3496.83 3597.83 4343.97 4150.54 4844.28 3269.5 3336.34 3225.75 3318.59 3265.05 3131.76 3187.64 3234.71 3223.03 3304.67 3250 3275.95 3124.36 3118.49 3269.06 5189.66 3022.81 2794.07 2745.87 2781.06 2814.08 2696.97 1610.54 0 0 0 0 0 0 0 0 0 0 0 0 0 0 0 0 0 0 0 0 0 0 0 0 0 0 0 0 0 0 2683.51 2855.07 2833.42 2895.02 2775.44 2838.12 3002.31 3086.14 3084.61 3115.77 3171.31 3236.71 3120 3222.1 3228.42 3208.48 3190.48 3226.87 3291.89 3224.76 3259.41 3379.07 3340.99 3435.32 3321.15 3274.93 3263.59 3200.89 3510.36 3195.53 2808.66 2617.9 0 0 0 0 0 0 0 0 0 0 0 0 0 0 0 0 0 0 0 0 0 0 0 0 0 0 0 0 0 0 0 0 0 0 0 0 0 0 0 0 0 0 0 0 0 0 0 0 0 0 0 0 0 0 0 0 0 0 0 0 0 0 0 0 0 0 0 0 0 0 0 0 0 0 0 0 3596.67 3737.69 3833.6 3683.13 3543.05 3455.77 3456.27 3443.86 4140.19 4082.27 3269 3134.16 3169.99 3169.45 3201.69 3136.33 3084.04 2912.77 2897.22 2956.96 2991.12 2947.25 4607.23 3034.4 4873.69 4802.13 3230.41 3676.59 4682.19 3415.05 3470.28 3447.39 3386.99 3269.63 3358.18 3418.73 3396.17 3271.74 3026.14 2633.35 2554.44 2297.3 2039.29 1410.3 1123.62 0 0 0 0 0 0 0 0
0 0 0 0 0 0 0 0 0 0 0 0 0 0 0 0 0 0 0 0 0 0 0 0 0 0 0 0 0 0 0 0 0 0 0 0 0 0 0 0 0 0 0 0 0 0 0 0 0 2074.34 2699.57 3237.77 2639.31 2995.66 3283.13 3156.51 3385.83 3224.64 3267.59 3235.9 3275.06 3148.28 3210.08 3337.93 3362.42 3225.94 5393 3328.99 3364.17 3282.94 3527.93 3553.48 3361.88 3162.88 3468.06 3024.17 3283.84 2881.7 0 0 0 0 0 0 0 0 0 0 0 0 0 0 0 0 0 0 0 0 0 0 0 0 0 0 0 0 0 0 0 0 0 0 0 0 0 0 0 0 0 0 0 0 0 0 0 0 0 0 0 0 0 0 0 0 0 0 0 0 0 0 0 2448.82 2713.5 2503.78 2695.49 2821.84 2913.22 3151.71 3161.92 3225.51 3276.08 3264.29 3337.27 3308.58 3347.06 3313.87 3147.81 3154.43 3141.97 3109.94 3095.48 3068.42 3839.21 3882.57 3747.54 3129.02 3230.97 3276.02 3113.8 2880.12 2140.94 388.8 0 0 0 0 0 0 0 0 0 0 0 0 0 0 0 0 0 0 0 0 0 0 0 0 0 0 0 0 0 0 0 0 0 0 0 0 0 0 0 0 0 0 0 0 0 0 3349.39 0 0 2995.82 2768.44 2905.25 0 0 0 0 0 0 0 0 0 3480.07 3563.14 3557.78 3540.51 3496.02 4199.15 4308.83 4082.67 4115.41 3992.7 3805.43 3763.94 3696.76 3266.13 3429.64 3045.75 3433.36 3132.52 3025.21 3101.09 3051.79 3080.08 3016.07 3021.72 3298.56 3495.22 2963.7 3505.15 0 0 0 0 0 0 0 0 0 0 0 0 0 0 0 0 0 0 0 0 0 0 0 0 0 0 0 0 0 2093.26 2623.71 2763.06 3388.01 3492.02 4249.57 4178.76 5022.8 3208.67 3325.1 3158.47 3247.23 3142.97 2999.47 3009.2 3047.02 3026.25 3148.99 3121.97 3198.76 3065.45 3120.99 3265.43 3382.28 3259.72 3060.53 3104.53 3085.18 3073.53 2972 1848.26 0 0 0 0 0 0 0 0 0 0 0 0 0 0 0 0 0 0 0 0 0 0 0 0 0 0 0 0 3045.97 3112.13 0 2842.49 2704.01 2670.99 2540.94 2637.9 2809.18 2824.41 2885.56 2965.27 3008.07 3072.35 3052.4 3194.31 3171.97 3151.06 3216.29 3257.38 3355.69 3265.05 3369.1 4059.85 3461.05 3566.17 3513.08 3380.78 3379.69 3273.01 3483.68 3118.09 2502.66 2364.78 2200.23 2400.75 0 0 0 0 0 0 0 0 0 0 0 0 0 0 0 0 0 0 0 0 0 0 0 0 0 0 0 0 0 0 0 0 0 0 0 0 0 0 0 0 0 0 0 0 0 0 0 0 0 0 0 0 0 0 0 0 0 0 0 0 0 0 0 0 0 0 0 0 0 0 0 0 0 0 3606.88 3689.12 3796.3 3590.44 3448.17 3430.62 3430.27 3371.88 3379.01 3342.06 3187.7 3097.19 3218.89 3288.09 3279.28 3210.94 3202.79 2985.8 2910.64 3035.11 3014.5 2867.51 2880.71 2957.43 3155.56 4690.96 3599.84 4615.59 4437.14 4318.36 3578.95 3547.17 3517.35 3379.82 3440.4 3445.62 3459.41 3251.64 3035.83 2655.06 2459.56 2209.48 2075.32 1400.94 1223.76 0 0 0 0 0 0 0 0
0 0 0 0 0 0 0 0 0 0 0 0 0 0 0 0 0 0 0 0 0 0 0 0 0 0 0 0 0 0 0 0 0 0 0 0 0 0 0 0 0 0 0 0 0 0 0 0 0 0 0 0 2187.15 2929.86 3132.64 2960.15 3249.56 3144.21 3172.93 3211.98 3302.26 3149.52 3145.21 3281.14 3375.2 3216.11 3427.32 3398.79 3410.88 3395.76 3594.52 3738.11 3603.24 3227.8 0 0 0 0 0 0 0 0 0 0 0 0 0 0 0 0 0 0 0 0 0 0 0 0 0 0 0 0 0 0 0 0 0 0 0 0 0 0 0 0 0 0 0 0 0 0 0 0 0 0 0 0 0 0 0 0 0 0 0 0 0 0 0 0 0 0 2571.75 2582.12 2771.64 2555.42 2717.45 2846.74 2920.78 3123.54 3118.78 3159.3 3213.89 3236.15 3292.6 3293.18 3332.76 3280.44 3128.73 3148.69 3155.56 3547.4 3542.68 3054.9 3852.26 3887.88 3736.03 3114.21 3150.58 3228.11 3126.1 0 0 0 0 0 0 0 0 0 0 0 0 0 0 0 0 0 0 0 0 0 0 0 0 0 0 0 0 0 0 0 0 0 0 0 0 0 0 0 0 0 0 0 0 0 0 0 0 0 0 0 0 2466.93 2279.6 0 0 0 0 0 0 0 0 0 0 0 3336.21 3305.51 3275.89 3254.16 3498.8 3969.37 3373.3 4023.05 3954.68 3778.69 3741.44 3671.44 3254.54 3423.9 3068.53 3428.72 3029.14 2920.52 2933.9 2887.95 2904.34 2818.38 2725.53 2897.12 3029.58 2759.74 3052.9 2696.53 0 0 0 0 0 0 0 0 0 0 0 0 0 0 0 0 0 0 0 0 0 0 0 0 0 0 0 0 0 2389.94 2404.01 3097.14 3375.34 3431.32 3458.55 4423.1 3253.78 3317.28 3107.86 3238.27 3203.09 3063.94 3027.23 3013.36 3000.7 3132.23 3153.37 3271.8 3153.78 3110.75 3163 3314.52 3293.44 3089.72 3179.9 3083.93 3187.82 2988.19 2256.46 0 0 0 0 0 0 0 0 0 0 0 0 0 0 0 0 0 0 0 0 0 0 0 0 0 0 0 0 0 0 0 2871.88 2767.2 2677.98 2521.32 2655.06 2819.57 2840.38 2848.77 2943.32 3019.44 3072.07 3078.72 3210.75 3192.43 3133.34 3183.04 3266.13 3361.41 3268.61 3359.39 3954.5 3402.65 3468.56 3452.64 3381.73 3363.83 3221.85 3394.59 2963.75 2601.42 2450.97 2339.03 2550.68 0 0 0 0 0 0 0 0 0 0 0 0 0 0 0 0 0 0 0 0 0 0 0 0 0 0 0 0 0 0 0 0 0 0 0 0 0 0 0 0 0 0 0 0 0 0 0 0 0 0 0 0 0 0 0 0 0 0 0 0 0 0 0 0 0 0 0 0 0 0 0 0 0 2870.36 3301.93 3493.11 3753.58 3573.54 3440.82 3519.79 3541.26 3509.48 3521.04 3444.14 3250.25 3175.87 3316.82 3373.5 3325.49 3231.84 3230.41 3005.43 2947.46 3062.76 2963.86 2798.17 2869.23 2941.46 3137.15 3153.37 4459.07 3690.01 3325.89 4301.65 3533.2 3509.11 3462.12 3363.9 4047.8 3448.81 3459.19 3307.99 3157.64 2706.1 2519.76 2302.31 2026.9 1277.79 1124.91 0 0 0 0 0 0 0 0
0 0 0 0 0 0 0 0 0 0 0 0 0 0 0 0 0 0 0 0 0 0 0 0 0 0 0 0 0 0 0 0 0 0 0 0 0 0 0 0 0 0 0 0 0 0 0 0 0 0 0 0 2053.37 2733.39 2864.19 2569.15 3083.48 3189.21 3214.51 3035.44 3165.14 3097.08 3110.57 3219.38 3325.76 3045.8 3214.45 3219.69 3518.98 3460.98 3642.51 3817.64 3672.01 3343.72 0 3753.66 0 0 0 0 0 0 0 0 0 0 0 0 0 0 0 0 0 0 0 0 0 0 0 0 0 0 0 0 0 0 0 0 0 0 0 0 0 0 0 0 0 0 0 0 0 0 0 0 0 0 0 0 0 0 0 0 0 0 0 0 0 0 0 0 2272.56 2377.44 2568.56 2458.37 2644.76 2799.24 2843.22 3054.51 3008.72 3054.68 3079.91 3157.88 3258.01 3267.09 3324.51 3257.19 3113.05 3147.04 3186.48 3190.24 3137.56 3043.1 3003.87 2835.48 2989.37 3086.82 3200.28 3064.61 2871.49 2443.51 0 0 0 0 0 0 0 0 0 0 0 0 0 0 0 0 0 0 0 0 0 0 0 0 0 0 0 0 0 0 0 0 0 0 0 0 0 0 0 0 0 0 0 0 0 0 0 0 0 0 0 0 0 0 0 0 0 0 0 0 0 0 0 0 3356.03 3293.96 3270.84 3209.03 3441.67 3370.39 3290.86 3240.96 3219.94 3719.96 3714.03 3204.81 3198.39 3112.01 3042.16 3038.74 3076.3 2958.89 2984.26 3027.61 2970.16 2940.59 2821.84 3104.59 3154.26 2837.06 3174.61 0 0 0 0 0 0 0 0 0 0 0 0 0 0 0 0 0 0 0 0 0 0 0 0 0 0 0 0 0 0 0 2090.96 2937.76 3123.49 3443.15 3487.09 3533.58 3166.76 3186.73 3080.93 3202.54 3143.32 3047.41 2954.47 2992.83 3001.08 3171.31 3270.65 3315.05 3253.34 3217.47 3221.91 3306.82 3256.88 3000.49 3082.51 2797.8 2817.96 2635.99 2255.39 2487.12 0 0 0 0 0 0 0 0 0 0 0 0 0 0 0 0 0 0 0 0 0 0 0 0 0 0 0 0 0 0 2912.26 2654.09 2641.47 2523.21 2664.8 2804.86 2936.57 2903.64 2982.83 3119.54 3209.03 3180.14 3303.75 3258.14 3238.33 3260.48 3319.44 4090.53 3322.47 3385.76 3456.41 3439.06 3540.81 3472.65 3406.86 3460.62 3313.93 3462.48 3118.03 2967.58 2909.18 2858.62 3399.34 2641.56 0 0 0 0 0 0 0 0 0 0 0 0 0 0 0 0 0 0 0 0 0 0 0 0 0 0 0 0 0 0 0 0 0 0 0 0 0 0 0 0 0 0 0 0 0 0 0 0 0 0 0 0 0 0 0 0 0 0 0 0 0 0 0 0 0 0 0 0 0 0 0 0 0 3339.39 3636.82 3787.13 3464.98 3315.83 3436.31 3431.67 3414 3517.79 3394.25 3264.1 3220.8 3401.34 3501.35 3432.16 3386.24 3413.24 3133.93 3123.43 3170.11 3012.82 2822.98 2858.33 2924.75 3060.02 3051.23 3121.97 4180.32 3933.54 3309.29 3462.33 3459.98 3438.99 3353.68 3932.9 3387.12 3408.66 3298.95 3164.79 2682.74 2497.75 2265.69 2056.14 1455.33 1229.65 1248.78 1272.89 0 0 0 0 0 0
0 0 0 0 0 0 0 0 0 0 0 0 0 0 0 0 0 0 0 0 0 0 0 0 0 0 0 0 0 0 0 0 0 0 0 0 0 0 0 0 0 0 0 0 0 0 0 0 0 0 0 0 0 0 0 0 0 3340.92 3339.46 2956.65 3258.58 3124.53 2955.87 2940.9 3052.12 2788.27 2907.11 2867.91 3364.17 3066.06 3154.08 3519.64 0 2846.01 0 1499.06 1275.29 0 0 0 0 0 0 0 0 0 0 0 0 0 0 0 0 0 0 0 0 0 0 0 0 0 0 0 0 0 0 0 0 0 0 0 0 0 0 0 0 0 0 0 0 0 0 0 0 0 0 0 0 0 0 0 0 0 0 0 0 0 0 0 0 0 2477.02 2388.68 2603.56 2729.66 2699.53 2935.24 2868.35 2934.01 2982.88 3106.48 3221.42 3200.04 3287.7 3241.21 3136.8 3204.5 3225.13 3230.79 3151.06 3065.5 3062.87 2850.41 3499.67 3063.99 3163.41 3116.75 2838.55 2280.31 0 0 0 0 0 0 0 0 0 0 0 0 0 0 0 0 0 0 0 0 0 0 0 0 0 0 0 0 0 0 0 0 0 0 0 0 0 0 0 0 0 0 0 0 0 0 0 0 0 0 0 0 0 0 0 0 0 0 0 0 0 0 0 3198.76 3270.01 3176.53 3202.18 3108.38 3443.22 3260.48 3200.16 3111.03 3056.51 3056.68 3081.61 3087.62 3094.68 2996.47 2950.31 2930.37 2975.84 2893.38 2859.26 2810.07 2763.42 2627.41 2472.17 2666.7 2680.72 2439.14 2609.47 0 0 0 0 0 0 0 0 0 0 0 0 0 0 0 0 0 0 0 0 0 0 0 0 0 0 0 0 0 0 0 2044.49 2724.38 2792.02 3216.48 3367.48 3374.05 3051.79 3126.16 3038.91 3145.86 3084.84 3071.85 2949.63 2981.45 3057.91 3171.61 3237.96 3305.12 3313.8 3341.59 3326.88 3469.92 3462.91 3059.47 3167.42 2912.71 2872.87 2623.38 2106.11 2187.72 0 0 0 0 0 0 0 0 0 0 0 0 0 0 0 0 0 0 0 0 0 0 0 0 0 0 0 0 0 0 0 2408.5 2347.01 2386.2 2507.34 2751.59 2890.54 2934.52 3034.13 3218.45 3301.09 3339.66 3389.31 3392.88 3321.87 3349.46 3370.79 3419.29 3314.52 3375.61 3397.27 3397.62 3421.24 3330.38 3249.43 3252.39 3196.93 3251.7 2871.19 2863.79 2760.51 2918.59 3141.2 2169.9 505.753 0 0 0 0 0 0 0 0 0 0 0 0 0 0 0 0 0 0 0 0 0 0 0 0 0 0 0 0 0 0 0 0 0 0 0 0 0 0 0 0 0 0 0 0 0 0 0 0 0 0 0 0 0 0 0 0 0 0 0 0 0 0 0 0 0 0 0 0 0 1558.94 2258.82 2394.96 3075.45 3330.45 3520.3 3258.14 3119.77 3268.04 3283.58 3285.06 3441.45 3352.27 3285.06 3206.03 3404.17 3500.4 3475.67 3424.39 3471.14 3206.7 3169.63 3161.98 3116.93 2930.06 2969.47 3019.71 3158.17 3117.33 4190.87 3140.5 3137.91 3201.38 3300.9 3292.47 3277.87 3187.03 3203.52 3205.11 3277.17 3262.07 3179.9 2735.53 2565.11 2349.78 2190.5 1665.24 1495.49 1351.66 1362.2 0 0 0 0 0 0
0 0 0 0 0 0 0 0 0 0 0 0 0 0 0 0 0 0 0 0 0 0 0 0 0 0 0 0 0 0 0 0 0 0 0 0 0 0 0 0 0 0 0 0 0 0 0 0 0 0 0 0 0 0 0 0 0 2863.06 3011.69 2595.5 2842.78 2635 2637.98 2544.68 2713.98 2518.86 2756.84 2627.78 3097.99 2732.37 2662.43 0 0 0 0 962.222 0 0 0 0 0 0 0 0 0 0 0 0 0 0 0 0 0 0 0 0 0 0 0 0 0 0 0 0 0 0 0 0 0 0 0 0 0 0 0 0 0 0 0 0 0 0 0 0 0 0 0 0 0 0 0 0 0 0 0 0 0 0 0 0 0 2079.89 2411.51 2339.88 2570.84 2757.29 2745.15 2966.37 2956.23 3021.34 3055.51 3180.56 3282.75 3952.17 3353.81 3306.95 3221.48 3242.09 3250.75 3270.59 3149.99 3078.84 3092.8 2813.56 2995.98 4503.84 3208.36 3169.27 2848.77 0 0 0 0 0 0 0 0 0 0 0 0 0 0 0 0 0 0 0 0 0 0 0 0 0 0 0 0 0 0 0 0 0 0 0 0 0 0 0 0 0 0 0 0 0 0 0 0 0 0 0 0 0 0 0 0 0 0 0 0 0 0 0 0 0 3068.7 3091.37 3000.81 2882.49 3351.8 3157.16 3069.54 3020.42 2971.89 2948.24 2983.94 3022.05 3050.57 2928.48 2933.9 2904.95 2968.79 2861.79 2851.92 2801.63 2784.47 2612.39 2480.79 2507.26 2604.57 2337.21 2629.14 0 0 0 0 0 0 0 0 0 0 0 0 0 0 0 0 0 0 0 0 0 0 0 0 0 0 0 0 0 0 0 0 0 2452.54 2927.66 3258.39 3223.65 2988.19 3072.24 2988.78 3175.33 3204.68 3156.57 3074.89 3074.83 3203.7 3282.36 3294.93 3462.98 3409.36 3429.57 3448.88 3529.56 3563.67 3063.15 3130.3 3015.59 3006.45 2980.39 2576.69 2635.54 0 0 0 0 0 0 0 0 0 0 0 0 0 0 0 0 0 0 0 0 0 0 0 0 0 0 0 0 0 0 0 2315.66 2325.9 2480.54 2474.68 2705.54 2917.63 2916.41 2999.04 3199.79 3302 3398.72 3421.59 3479.21 3391.99 3431.95 3442.3 3467.13 3405.27 3417.69 3408.94 3396.79 3373.64 3243.4 3077.37 3073.59 3097.42 2800.13 2270.1 2260.65 2157.73 2427.11 3023.03 2223.65 486.122 0 0 0 0 0 0 0 0 0 0 0 0 0 0 0 0 0 0 0 0 0 0 0 0 0 0 0 0 0 0 0 0 0 0 0 0 0 0 0 0 0 0 0 0 0 0 0 0 0 0 0 0 0 0 0 0 0 0 0 0 0 0 0 0 0 0 0 0 1270.15 1774.58 2292.22 2226.01 2846.06 3193.46 3365.11 3191.94 3177.91 3211.12 3324.97 3361.47 3542.23 3452.15 3443.71 3353.48 4611.15 3652.34 4448.19 4318.81 4817.29 4597.89 3339.59 3267.98 4607.1 3033.58 3065.34 3142.91 3184.97 3159.48 3165.92 3126.4 3108.44 3149.76 3239.71 3233.71 3224.08 3166.7 3154.91 3188.79 3277.04 3277.68 3190.85 2834.19 2662.26 2347.21 2189.04 1714.74 1588.1 1344.72 0 0 0 0 0 0 0
0 0 0 0 0 0 0 0 0 0 0 0 0 0 0 0 0 0 0 0 0 0 0 0 0 0 0 0 0 0 0 0 0 0 0 0 0 0 0 0 0 0 0 0 0 0 0 0 0 0 0 0 0 0 0 0 0 0 0 0 2331.43 2148.26 2214.52 2107.91 2443.72 0 2298.12 2041.95 0 0 2048.28 0 0 0 0 0 0 0 0 0 0 0 0 0 0 0 0 0 0 0 0 0 0 0 0 0 0 0 0 0 0 0 0 0 0 0 0 0 0 0 0 0 0 0 0 0 0 0 0 0 0 0 0 0 0 0 0 0 0 0 0 0 0 0 0 0 0 0 0 0 0 0 2198.79 2220.88 2442.12 2645.64 2642.68 2859.16 2890.19 2970.89 3017.65 3177.73 3231.03 3240.52 3289.63 3274.61 3182.37 3173.83 3186.24 3247.04 3135.22 3145.09 3122.9 2951.81 3146.86 3205.11 3356.43 3142.32 0 0 0 0 0 0 0 0 0 0 0 0 0 0 0 0 0 0 0 0 0 0 0 0 0 0 0 0 0 0 0 0 0 0 0 0 0 0 0 0 0 0 0 0 0 0 0 0 0 0 0 0 0 0 0 0 0 0 0 0 0 0 0 0 0 0 0 3112.59 3002.58 2934.72 3420.34 3179.9 3092.68 3002.53 3000.27 2970.42 2970.84 2955.51 2933.8 2847.32 2836.54 2795.47 2863.16 2763.51 2744.53 2699.96 2723.76 2583.15 2359.16 2365.08 0 0 0 0 0 0 0 0 0 0 0 0 0 0 0 0 0 0 0 0 0 0 0 0 0 0 0 0 0 0 0 0 0 0 0 0 0 0 3410.53 3257.63 3141.56 3256.62 3056.18 3263.15 3472.51 3459.91 5252.37 5126.54 3450.8 3465.48 3399.27 3621.36 3542.15 3483.03 3434.62 3393.5 3522.37 3182.31 3174.07 3138.27 3130.6 3193.09 2891.43 3116.52 3124.59 1983.93 0 0 0 0 0 0 0 0 0 0 0 0 0 0 0 0 0 0 0 0 0 0 0 0 0 0 0 0 0 2008.46 2107.62 2391.64 2490.44 2760.69 2983.41 3089.38 3170.17 3344.52 3433.64 3585.68 3579.56 3611.15 3526.89 3532.53 3522.67 3509.63 3439.27 3467.77 3405.96 3373.3 3322.53 3213.77 3041.06 3007.05 3017.16 2702.18 2086.18 1962.12 1649.03 1773.24 2221.29 696.868 367.02 0 0 0 0 0 0 0 0 0 0 0 0 0 0 0 0 0 0 0 0 0 0 0 0 0 0 0 0 0 0 0 0 0 0 0 0 0 0 0 0 0 0 0 0 0 0 0 0 0 0 0 0 0 0 0 0 0 0 0 0 0 0 0 0 0 0 0 0 0 0 2269.03 2167.29 3173.77 3585.38 3463.12 3236.77 3285.45 3213.03 3314.59 3334.48 3412.75 3278.58 3213.21 3219.63 3526.74 3581.78 3580.25 3573.01 3610.92 3386.99 3380.23 4644.47 4650 3052.01 3134.22 3198.76 3237.14 3194.43 3146.86 3084.89 3078.1 3107.69 3192.37 3127.68 3121.28 3093.54 3102.4 3166.52 3276.08 3279.54 3153.96 2866.68 2762.74 2499.9 2295.7 1952.14 1812.08 1536.62 0 0 0 0 0 0 0
0 0 0 0 0 0 0 0 0 0 0 0 0 0 0 0 0 0 0 0 0 0 0 0 0 0 0 0 0 0 0 0 0 0 0 0 0 0 0 0 0 0 0 0 0 0 0 0 0 0 0 0 0 0 0 0 0 0 0 0 0 0 0 0 0 0 0 0 0 0 0 0 0 0 0 0 0 0 0 0 0 0 0 0 0 0 0 0 0 0 0 0 0 0 0 0 0 0 0 0 0 0 0 0 0 0 0 0 0 0 0 0 0 0 0 0 0 0 0 0 0 0 0 0 0 0 0 0 0 0 0 0 0 0 0 0 0 0 0 0 0 0 1896.37 1997.39 2307.57 2482.45 2534 2852.3 2937.65 2979.28 3070.72 3212.78 3297.33 3318.52 3392.53 3409.01 3313.21 3240.4 3277.62 3330.78 3284.61 3254.85 3221.05 3045.2 3200.83 3235.9 3411.23 0 0 0 0 0 0 0 0 0 0 0 0 0 0 0 0 0 0 0 0 0 0 0 0 0 0 0 0 0 0 0 0 0 0 0 0 0 0 0 0 0 0 0 0 0 0 0 0 0 0 0 0 0 0 0 0 0 0 0 0 0 0 0 0 0 0 0 0 3372.83 3293.96 3165.09 3589.06 3320.36 3283.45 3096.11 3154.37 3079.8 3028.81 3030.73 3035.55 2948.29 2992.94 2858.14 2992.83 2829.12 2809.98 2779.54 2765.2 2474.87 2198.27 1921.74 2249.83 1968.64 0 0 0 0 0 0 0 0 0 0 0 0 0 0 0 0 0 0 0 0 0 0 0 0 0 0 0 0 0 0 0 0 0 0 0 0 3211.55 3176.71 3117.91 3239.58 2886.56 3035.28 3485.13 3441.17 3345.79 3304.41 3395.83 3323.91 3218.14 3494.64 3414.35 3328.66 3239.27 3161.57 3304.47 3094.39 3121.1 3186.12 3152.12 3335.15 3150.05 3424.25 3646.63 2847.27 3049.96 0 0 0 0 0 0 0 0 0 0 0 0 0 0 0 0 0 0 0 0 0 0 0 0 0 0 0 0 1736.14 1778.3 2160.76 2329.48 2689.1 2949.17 3007.64 3092.85 3229.36 3298.43 3529.49 3565.49 3605.1 3524 3496.53 3529.12 3516.1 3503.76 3514.85 3413.8 3311.06 3216.48 3057.18 2968.26 2846.45 2803.27 2366.08 1838.51 1503.57 1275.08 1146.93 964.235 573.878 271.081 0 0 0 0 0 0 0 0 0 0 0 0 0 0 0 0 0 0 0 0 0 0 0 0 0 0 0 0 0 0 0 0 0 0 0 0 0 0 0 0 0 0 0 0 0 0 0 0 0 0 0 0 0 0 0 0 0 0 0 0 0 0 0 0 0 0 0 0 0 0 0 0 0 3758.46 3507.94 3202.54 3091.26 3060.81 3218.7 3221.05 3395.9 3210.45 3048.02 3139.15 3472.94 3593.67 3505.59 3489.12 3430.41 3204.93 3235.15 3230.97 4360.34 3059.63 3156.27 3210.57 3238.08 3245.1 3236.83 3184.55 3191.94 3200.95 3231.28 3175.45 3166.4 3150.88 3143.38 3189.57 3292.47 3319.24 3209.83 2962.29 2829.79 2762.83 2588.22 2199.31 2014.59 1727.05 0 0 0 0 0 0 0
0 0 0 0 0 0 0 0 0 0 0 0 0 0 0 0 0 0 0 0 0 0 0 0 0 0 0 0 0 0 0 0 0 0 0 0 0 0 0 0 0 0 0 0 0 0 0 0 0 0 0 0 0 0 0 0 0 0 0 0 0 0 0 0 0 0 0 0 0 0 0 0 0 0 0 0 0 0 0 0 0 0 0 0 0 0 0 0 0 0 0 0 0 0 0 0 0 0 0 0 0 0 0 0 0 0 0 0 0 0 0 0 0 0 0 0 0 0 0 0 0 0 0 0 0 0 0 0 0 0 0 0 0 0 0 0 0 0 0 0 0 1088.16 1674.71 1784.22 2222.74 2489 2593.66 2885.12 3004.73 3019.82 3156.75 3232.78 4038.45 3355.56 3313.61 3269.7 3201.26 3089.04 3136.45 3167.18 3170.23 3028.7 3087.56 3105.39 3357.97 3446.12 0 0 0 0 0 0 0 0 0 0 0 0 0 0 0 0 0 0 0 0 0 0 0 0 0 0 0 0 0 0 0 0 0 0 0 0 0 0 0 0 0 0 0 0 0 0 0 0 0 0 0 0 0 0 0 0 0 0 0 0 0 0 0 0 0 0 0 0 0 0 3205.54 3158.41 3589.21 3219.56 3176.35 2927.1 2934.01 2884.42 2839.75 2892.53 2858.57 2793.74 2899.13 2777.6 2936.21 2847.32 2788.87 2797.1 2632.07 2392.29 2057.95 1860.02 2149.44 2196.92 1987.81 0 0 0 0 0 0 0 0 0 0 0 0 0 0 0 0 0 0 0 0 0 0 0 0 0 0 0 0 0 0 0 0 0 0 0 2696.4 0 2857.31 2994.59 2801.3 2860.86 3301.54 3421.73 5520.04 5454.89 3342.25 3400.37 3258.2 3409.77 3310.8 3297 3158.35 3099.42 3166.4 3044.26 3023.68 3117.1 3171.43 3413.93 3252.01 3430.06 3682.16 3146.27 3384.53 3624.33 0 0 0 0 0 0 0 0 0 0 0 0 0 0 0 0 0 0 0 0 0 0 0 0 0 0 0 0 1698.29 2015.22 2189.55 2531.36 2806.45 2974.37 3164.73 3236.46 3288.15 3508.38 3535.66 3560.27 3499.31 3495.59 3494.13 3886.8 3998.13 3956.64 3899.17 3230.1 3148.34 3024.5 2906.66 2766.56 2883.98 2476.69 2133.91 1551.14 1203.01 931.21 653.316 544.944 0 0 0 0 0 0 0 0 0 0 0 0 0 0 0 0 0 0 0 0 0 0 0 0 0 0 0 0 0 0 0 0 0 0 0 0 0 0 0 0 0 0 0 0 0 0 0 0 0 0 0 0 0 0 0 0 0 0 0 0 0 0 0 0 0 0 0 0 0 0 0 0 0 0 0 0 0 0 2640.77 3009.96 3026.25 3317.08 3109.36 3122.96 3069.09 3454.49 3584.76 3537.82 3449.73 3471.79 3261.94 3336.07 3237.46 3290.86 3091.83 3150.23 3155.44 3171.79 3180.08 3206.77 3147.51 3146.09 3140.32 3185.21 3156.27 3197.84 3184.97 3138.62 3134.05 3226.75 3234.02 3058.02 2851.53 2669.84 2377.28 2284.13 2005.61 1812.01 1494.23 0 0 0 0 0 0 0
0 0 0 0 0 0 0 0 0 0 0 0 0 0 0 0 0 0 0 0 0 0 0 0 0 0 0 0 0 0 0 0 0 0 0 0 0 0 0 0 0 0 0 0 0 0 0 0 0 0 0 0 0 0 0 0 0 0 0 0 0 0 0 0 0 0 0 0 0 0 0 0 0 0 0 0 0 0 0 0 0 0 0 0 0 0 0 0 0 0 0 0 0 0 0 0 0 0 0 0 0 0 0 0 0 0 0 0 0 0 0 0 0 0 0 0 0 0 0 0 0 0 0 0 0 0 0 0 0 0 0 0 0 0 0 0 0 0 0 0 0 0 1957.22 2105.82 2401.43 2776.27 2714.16 2923.02 2968.42 3114.09 3194.61 3223.21 4138.05 3352.34 3362.28 3335.28 3289.31 3200.1 3177.79 3199.24 3228.55 3129.25 3194.13 3168.01 3485.78 3534.25 3755.26 0 0 0 0 0 0 0 0 0 0 0 0 0 0 0 0 0 0 0 0 0 0 0 0 0 0 0 0 0 0 0 0 0 0 0 0 0 0 0 0 0 0 0 0 0 0 0 0 0 0 0 0 0 0 0 0 0 0 0 0 0 0 0 0 0 0 0 0 0 2820.18 2733.75 3235.33 2839.8 2835.62 2699.09 2811.72 2851.04 2757.65 2811.39 2806.03 2768.89 2873.41 2704.62 2782.16 2623.87 2436.48 2561.46 2471.37 2318.41 2053.62 1987.24 0 0 0 0 0 0 0 0 0 0 0 0 0 0 0 0 0 0 0 0 0 0 0 0 0 0 0 0 0 0 0 0 0 0 0 0 0 0 0 0 0 2629.76 2506.66 2454.66 2911.5 3162.52 3025.15 3244.47 3190.18 3289.76 3187.27 4433.38 4487.45 4479.55 3926.27 3134.75 3155.62 3084.89 3043.81 3096.22 3120.35 3332.03 3187.82 3526.74 3863.79 3381.59 3699.21 4043.41 0 2009.47 0 0 0 0 0 0 0 0 0 0 0 0 0 0 0 0 0 0 0 0 0 0 0 0 0 0 1785.68 2098.57 2269.03 2527.66 2829.65 3041.83 3166.82 3238.89 3345.65 3536.78 3599.53 3612.01 3558.68 3526.59 3563.97 3476.03 3462.19 3394.11 3287.18 3149.87 3021.07 2897.52 2873.26 2701.7 2855.7 2446.96 1918.33 1356.2 960.597 701.207 0 0 0 0 0 0 0 0 0 0 0 0 0 0 0 0 0 0 0 0 0 0 0 0 0 0 0 0 0 0 0 0 0 0 0 0 0 0 0 0 0 0 0 0 0 0 0 0 0 0 0 0 0 0 0 0 0 0 0 0 0 0 0 0 0 0 0 0 0 0 0 0 0 0 0 0 0 0 0 0 0 0 3068.98 3385.76 3111.03 3096.22 2963.86 3289.38 3416.92 3383.91 3215.68 3330.45 3076.75 3208.05 3121.45 3273.59 3167.65 3203.4 3214.26 3265.75 3267.21 3327.94 3274.61 3269.89 3235.08 3244.09 3214.69 3284.35 3263.59 3205.6 3152.42 3218.14 3207.5 3037.09 2770.68 2643.93 2350.57 2120.27 1839.16 1786.54 1335.31 1075.89 824.666 0 0 0 0 0
0 0 0 0 0 0 0 0 0 0 0 0 0 0 0 0 0 0 0 0 0 0 0 0 0 0 0 0 0 0 0 0 0 0 0 0 0 0 0 0 0 0 0 0 0 0 0 0 0 0 0 0 0 0 0 0 0 0 0 0 0 0 0 0 0 0 0 0 0 0 0 0 0 0 0 0 0 0 0 0 0 0 0 0 0 0 0 0 0 0 0 0 0 0 0 0 0 0 0 0 0 0 0 0 0 0 0 0 0 0 0 0 0 0 0 0 0 0 0 0 0 0 0 0 0 0 0 0 0 0 0 0 0 0 0 0 0 0 0 0 0 0 0 0 2479.99 2975.32 2821.51 2878.19 3005.21 3213.58 3237.89 3280.5 3358.78 3276.08 3187.57 3178.09 3291.63 3145.21 2909.53 3029.14 3030.02 2943.22 2985.85 3173.47 3687.1 3196.56 3178.64 0 0 0 0 0 0 0 0 0 0 0 0 0 0 0 0 0 0 0 0 0 0 0 0 0 0 0 0 0 0 0 0 0 0 0 0 0 0 0 0 0 0 0 0 0 0 0 0 0 0 0 0 0 0 0 0 0 0 0 0 0 0 0 0 0 0 0 0 0 0 0 3298.75 2839.66 2764.51 2644.55 2682.35 2831.37 2742.33 2826.12 2832.32 2849.74 2978.38 2856.04 2968.16 2880.61 2694.67 2915.95 2818.57 2940.85 2463.82 0 0 0 0 0 0 0 0 0 0 0 0 0 0 0 0 0 0 0 0 0 0 0 0 0 0 0 0 0 0 0 0 0 0 0 0 0 0 0 0 0 2497.89 0 2577.36 2451.9 3038.36 3263.65 3143.32 3364.03 3384.87 3370.79 4377.29 4479.31 3513.89 4497.2 3128.26 4145.82 4090.53 3864.95 3019.6 3009.58 3057.24 3226.75 3187.03 3437.58 3616.21 3329.12 3438.14 3818.94 4631.26 3174.19 0 0 0 0 0 0 0 0 0 0 0 0 0 0 0 0 0 0 0 0 0 0 0 0 0 1506.63 1979.67 2281.03 2458.83 2630.95 3030.07 3115.42 3254.03 3331.9 3507.72 3683.37 3722.76 3730.63 3698.72 3603.24 3624.25 3493.55 3491.51 3285.45 3121.74 2927.1 2745.51 2584.19 2577.44 2373.11 2546.84 2285.81 1875.23 1452.48 933.069 803.594 448.322 384.955 0 0 0 0 0 0 0 0 0 0 0 0 0 0 0 0 0 0 0 0 0 0 0 0 0 0 0 0 0 0 0 0 0 0 0 0 0 0 0 0 0 0 0 0 0 0 0 0 0 0 0 0 0 0 0 0 0 0 0 0 0 0 0 0 0 0 0 0 0 0 0 0 0 0 0 0 0 0 2972.05 0 3244.78 3623.39 3143.74 3074.49 2817.91 3052.56 2988.19 3045.42 2965.69 3023.14 2844.04 2955.14 2942.91 3148.87 3122.56 3169.09 3188.79 3197.35 3208.67 3256.43 3212.11 3153.48 3126.86 3117.22 3068.81 3134.81 3138.03 3085.91 3015.31 3059.02 3136.62 2941.21 2653.97 2725.71 2413.46 2164.52 2064.59 1973.48 1323.59 0 0 0 0 0 0 0
0 0 0 0 0 0 0 0 0 0 0 0 0 0 0 0 0 0 0 0 0 0 0 0 0 0 0 0 0 0 0 0 0 0 0 0 0 0 0 0 0 0 0 0 0 0 0 0 0 0 0 0 0 0 0 0 0 0 0 0 0 0 0 0 0 0 0 0 0 0 0 0 0 0 0 0 0 0 0 0 0 0 0 0 0 0 0 0 0 0 0 0 0 0 0 0 0 0 0 0 0 0 0 0 0 0 0 0 0 0 0 0 0 0 0 0 0 0 0 0 0 0 0 0 0 0 0 0 0 0 0 0 0 0 0 0 0 0 0 0 0 0 0 0 2321.3 2714.38 2669.46 2765.33 2933.34 3173.17 3221.85 3192.49 3376.9 3137.68 3075.62 3087.56 3226.38 3005.43 2775.95 2954.62 3031.88 2924.95 3231.22 0 0 0 0 0 0 0 0 0 0 0 0 0 0 0 0 0 0 0 0 0 0 0 0 0 0 0 0 0 0 0 0 0 0 0 0 0 0 0 0 0 0 0 0 0 0 0 0 0 0 0 0 0 0 0 0 0 0 0 0 0 0 0 0 0 0 0 0 0 0 0 0 0 0 0 0 0 2707.94 2479.77 2440.1 2532.62 2446.18 2573.53 2580.61 2591.93 2735.09 2695.88 3088.75 2980.34 3001.34 3251.07 3178.94 0 0 0 0 0 0 0 0 0 0 0 0 0 0 0 0 0 0 0 0 0 0 0 0 0 0 0 0 0 0 0 0 0 0 0 0 0 0 0 0 0 0 0 0 0 2458.98 2587.46 3188.36 3214.75 3169.69 3325.49 3299.66 4265.12 4359.88 4348.7 3268.55 4294.6 4065.46 3019.55 2969.42 2939.09 2925.77 2858.82 2854.88 2870.16 2846.16 3034.07 3158.89 2949.63 2917.02 3109.02 0 0 0 0 0 0 0 0 0 0 0 0 0 0 0 0 0 0 0 0 0 0 0 0 0 0 0 0 0 1918.02 1996.06 2227.93 2753.67 2870.65 3127.33 3206.83 3420.76 3595.44 3651.63 3686.45 3680.06 3571.49 3599.92 3391.23 3395.62 3188.06 3014.61 2822.74 2621.7 2438.43 2357.1 2100.28 2262.78 1818.53 1523.07 1068.44 815.935 748.56 450.292 0 0 0 0 0 0 0 0 0 0 0 0 0 0 0 0 0 0 0 0 0 0 0 0 0 0 0 0 0 0 0 0 0 0 0 0 0 0 0 0 0 0 0 0 0 0 0 0 0 0 0 0 0 0 0 0 0 0 0 0 0 0 0 0 0 0 0 0 0 0 0 0 0 0 0 1315.5 1884.84 0 2022.26 2219.53 2461.25 2535.91 2982.3 2725.75 2730.28 2495.85 2619.61 2682.18 2842.49 2738.57 2805.7 2714.51 2772.46 2728.55 3075.96 3105.51 3148.63 3158.65 3167.48 3153.54 3214.81 3148.4 3132.88 3097.54 3080.14 3027.5 3108.21 3087.9 3095.54 2957.38 3042.77 3149.52 2888.1 2618.14 2658.63 2341.09 2295.54 2192.33 2322.2 1718.12 0 0 0 0 0 0 0
0 0 0 0 0 0 0 0 0 0 0 0 0 0 0 0 0 0 0 0 0 0 0 0 0 0 0 0 0 0 0 0 0 0 0 0 0 0 0 0 0 0 0 0 0 0 0 0 0 0 0 0 0 0 0 0 0 0 0 0 0 0 0 0 0 0 0 0 0 0 0 0 0 0 0 0 0 0 0 0 0 0 0 0 0 0 0 0 0 0 0 0 0 0 0 0 0 0 0 0 0 0 0 0 0 0 0 0 0 0 0 0 0 0 0 0 0 0 0 0 0 0 0 0 0 0 0 0 0 0 0 0 0 0 0 0 0 0 0 0 0 0 0 0 0 0 2661.08 2584.23 2866.14 3144.62 3263.27 3175.39 3307.6 2897.62 2905 2989.95 3186 2827.45 2570.61 2618.02 2675.98 0 0 0 0 0 0 0 0 0 0 0 0 0 0 0 0 0 0 0 0 0 0 0 0 0 0 0 0 0 0 0 0 0 0 0 0 0 0 0 0 0 0 0 0 0 0 0 0 0 0 0 0 0 0 0 0 0 0 0 0 0 0 0 0 0 0 0 0 0 0 0 0 0 0 0 0 0 0 0 0 2637.65 2505.77 2634.17 2556.7 2777.56 2833.47 2786.27 3106.48 2995.5 3394.25 3247.17 3063.94 3112.42 0 0 0 0 0 0 0 0 0 0 0 0 0 0 0 0 0 0 0 0 0 0 0 0 0 0 0 0 0 0 0 0 0 0 0 0 0 0 0 0 0 0 0 0 0 1583.99 1683.74 1931.96 2557.99 2680.47 3076.46 3284.42 3232.47 3180.14 4230.92 4123 3162.64 3185.09 3934.56 2953.22 2911.45 2926.89 2942.86 2933.85 3014.39 2998.29 2992.08 3100.34 3226.38 3066.01 3110.92 3332.56 0 3221.79 1859.38 1160.07 0 0 0 0 0 0 0 0 0 0 0 0 0 0 0 0 0 0 0 0 0 0 0 0 0 1699.2 1862.66 2094.8 2443.72 2684.93 2971.37 3100.86 3297.78 3559.97 3617.77 3641.09 3617.38 3499.6 3560.5 3292.6 3277.62 3046.52 2831.6 2635.91 2355.02 2178.32 2160.68 1746.06 1846.59 1505.8 1421.64 995.223 728.756 0 0 0 0 0 0 0 0 0 0 0 0 0 0 0 0 0 0 0 0 0 0 0 0 0 0 0 0 0 0 0 0 0 0 0 0 0 0 0 0 0 0 0 0 0 0 0 0 0 0 0 0 0 0 0 0 0 0 0 0 0 0 0 0 0 0 0 0 0 0 0 0 0 0 0 0 0 1455.33 0 0 2731.26 2381.26 2624.41 2615.61 2814.74 2566.24 2434.5 2213.21 2278.77 2260.89 2551.57 2320.98 2497.97 2530.14 2589.65 2571 2971.21 3162.82 3204.07 3217.47 3238.39 3241.96 3328 3279.73 3273.84 3229.11 3131.3 3069.99 3134.63 3113.52 3105.79 2963.49 2991.5 3141.32 2809.42 2587.14 2741.83 2439.81 2480.21 2250.43 2152.8 0 0 0 0 0 0 0 0
0 0 0 0 0 0 0 0 0 0 0 0 0 0 0 0 0 0 0 0 0 0 0 0 0 0 0 0 0 0 0 0 0 0 0 0 0 0 0 0 0 0 0 0 0 0 0 0 0 0 0 0 0 0 0 0 0 0 0 0 0 0 0 0 0 0 0 0 0 0 0 0 0 0 0 0 0 0 0 0 0 0 0 0 0 0 0 0 0 0 0 0 0 0 0 0 0 0 0 0 0 0 0 0 0 0 0 0 0 0 0 0 0 0 0 0 0 0 0 0 0 0 0 0 0 0 0 0 0 0 0 0 0 0 0 0 0 0 0 0 0 0 0 0 0 0 0 0 0 3283.65 3291.96 3043.98 3122.73 2934.98 2861.55 2747.4 2867.07 2462.44 2365.34 2462.05 2620.19 0 0 0 0 0 0 0 0 0 0 0 0 0 0 0 0 0 0 0 0 0 0 0 0 0 0 0 0 0 0 0 0 0 0 0 0 0 0 0 0 0 0 0 0 0 0 0 0 0 0 0 0 0 0 0 0 0 0 0 0 0 0 0 0 0 0 0 0 0 0 0 0 0 0 0 0 0 0 0 0 3230.41 3344.65 3368.83 3111.03 3221.23 3168.85 3130.89 3366.53 3278.77 3484.91 0 0 0 0 0 0 0 0 0 0 0 0 0 0 0 0 0 0 0 0 0 0 0 0 0 0 0 0 0 0 0 0 0 0 0 0 0 0 0 0 0 0 0 0 0 0 0 0 1259.3 1369.27 1870.32 2884.32 2995.56 3170.23 3330.64 3258.33 3213.52 4224.42 4076.82 4087.24 3987.1 3807.93 2968.37 2908.62 2945.03 2973.52 2992.35 3036.05 3027.17 3019.28 3092.97 3285.45 3200.04 3285.38 3384.25 3570.35 0 0 0 0 0 0 0 0 0 0 0 0 0 0 0 0 0 0 0 0 0 0 0 0 0 0 0 0 0 0 0 2665.14 2764.33 2960.62 2972.63 3143.62 3358.65 3465.84 3405.69 3395.42 3312.23 3359.05 3138.38 3147.63 2980.81 2830.03 2623.96 2421.4 2191.55 2050.28 1716.74 1346.71 1342.36 1014.83 850.41 657.27 0 0 0 0 0 0 0 0 0 0 0 0 0 0 0 0 0 0 0 0 0 0 0 0 0 0 0 0 0 0 0 0 0 0 0 0 0 0 0 0 0 0 0 0 0 0 0 0 0 0 0 0 0 0 0 0 0 0 0 0 0 0 0 0 0 0 0 0 0 0 0 0 0 0 0 0 0 0 0 0 0 0 0 1937.45 2334.05 2150.18 2017.47 1863.38 1966.51 1950.35 2230.3 2052.24 2272.93 2420.94 2561.43 2556.59 2883.33 3053.29 3069.93 3033.47 3042.21 3080.98 3182.31 3186.79 3190.18 3219.26 3171.37 3134.81 3260.23 3318.52 3303.95 3182.37 3180.75 3314.2 2872.82 2610.93 2813.61 2477.57 2501.1 2331.52 2177.16 1670.63 0 0 0 0 0 0 0
0 0 0 0 0 0 0 0 0 0 0 0 0 0 0 0 0 0 0 0 0 0 0 0 0 0 0 0 0 0 0 0 0 0 0 0 0 0 0 0 0 0 0 0 0 0 0 0 0 0 0 0 0 0 0 0 0 0 0 0 0 0 0 0 0 0 0 0 0 0 0 0 0 0 0 0 0 0 0 0 0 0 0 0 0 0 0 0 0 0 0 0 0 0 0 0 0 0 0 0 0 0 0 0 0 0 0 0 0 0 0 0 0 0 0 0 0 0 0 0 0 0 0 0 0 0 0 0 0 0 0 0 0 0 0 0 0 0 0 0 0 0 0 0 0 0 0 0 0 0 0 0 2951.09 2817.53 0 0 0 0 0 0 0 0 2443.97 2528.92 0 0 0 0 0 0 0 0 0 0 0 0 0 0 0 0 0 0 0 0 0 0 0 0 0 0 0 0 0 0 0 0 0 0 0 0 0 0 0 0 0 0 0 0 0 0 0 0 0 0 0 0 0 0 0 0 0 0 0 0 0 0 0 0 0 0 0 0 0 0 0 0 0 0 0 0 0 0 3974.92 3810.44 3442.65 3624.88 3516.1 3434.69 3514.48 3405.55 3629.98 0 0 0 0 0 0 0 0 0 0 0 0 0 0 0 0 0 0 0 0 0 0 0 0 0 0 0 0 0 0 0 0 0 0 0 0 0 0 0 0 0 0 0 0 0 0 0 0 1636.89 1722.22 2061.67 2954.88 3029.36 3160.26 3250.31 3213.28 3104.53 4112.09 3968.53 3989.66 3889.95 3071.9 3662.15 2905.4 2922.91 2981.82 2988.57 3044.7 3000.32 2924.49 2998.77 3110.11 3190.06 3222.9 3351.6 0 0 0 0 0 0 0 0 0 0 0 0 0 0 0 0 0 0 0 0 0 0 0 0 0 0 0 0 0 0 0 0 0 2754.94 2926.13 2816.11 2914.59 3128.26 3195.71 3088.98 3123.31 3020.53 3118.03 2897.27 2878.14 2827.41 2700.31 2476.66 2263.03 2088.1 1934.43 0 0 0 1193.64 880.924 0 0 0 0 0 0 0 0 0 0 0 0 0 0 0 0 0 0 0 0 0 0 0 0 0 0 0 0 0 0 0 0 0 0 0 0 0 0 0 0 0 0 0 0 0 0 0 0 0 0 0 0 0 0 0 0 0 0 0 0 0 0 0 0 0 0 0 0 0 0 0 0 0 0 0 0 0 0 0 0 0 0 0 0 1372.37 1635.04 1580.21 1530.29 1419 1528.48 1465.14 1769.02 1763.27 2135.98 2286.75 2456.67 2468.57 2844.08 3063.66 3068.08 2952.02 3002.69 3007.26 3116.58 3170.53 3162.58 3174.97 3113.98 3083.82 3225.75 3275.95 3298.69 3138.09 3127.74 3272.63 2844.42 2554.33 2827.64 2585.46 2591.97 0 0 0 0 0 0 0 0 0 0
0 0 0 0 0 0 0 0 0 0 0 0 0 0 0 0 0 0 0 0 0 0 0 0 0 0 0 0 0 0 0 0 0 0 0 0 0 0 0 0 0 0 0 0 0 0 0 0 0 0 0 0 0 0 0 0 0 0 0 0 0 0 0 0 0 0 0 0 0 0 0 0 0 0 0 0 0 0 0 0 0 0 0 0 0 0 0 0 0 0 0 0 0 0 0 0 0 0 0 0 0 0 0 0 0 0 0 0 0 0 0 0 0 0 0 0 0 0 0 0 0 0 0 0 0 0 0 0 0 0 0 0 0 0 0 0 0 0 0 0 0 0 0 0 0 0 0 0 0 0 0 0 0 0 2935.7 2695.54 0 0 0 0 0 0 0 0 0 0 0 0 0 0 0 0 0 0 0 0 0 0 0 0 0 0 0 0 0 0 0 0 0 0 0 0 0 0 0 0 0 0 0 0 0 0 0 0 0 0 0 0 0 0 0 0 0 0 0 0 0 0 0 0 0 0 0 0 0 0 0 0 0 0 0 0 0 0 0 0 0 0 0 0 0 0 0 0 0 0 4093.93 3916.28 3801.29 0 0 0 0 0 0 0 0 0 0 0 0 0 0 0 0 0 0 0 0 0 0 0 0 0 0 0 0 0 0 0 0 0 0 0 0 0 0 0 0 0 0 0 0 0 0 0 0 0 0 1675.86 1706.32 1794.87 2632.48 2792.35 3090.06 3198.33 3239.77 3111.84 4020.54 3872.8 3902.34 3813.73 3670.32 3593.21 2948.6 2944.1 3032.37 2994.22 3015.86 2921.74 2907.92 2978.59 3083.82 3156.39 3169.39 3169.03 0 3328.46 3366.67 2792.07 0 0 457.47 0 0 0 0 0 0 0 0 0 0 0 0 0 0 0 0 0 0 0 0 0 0 0 1631.38 1702.68 0 1844.19 2041.48 2133.45 2333.69 2618.43 2818.57 2746.46 2918.19 2897.97 3056.96 2932.01 2759.74 2650.32 2582.68 2167.88 2055.56 1759.06 1507.06 0 0 0 0 0 0 0 0 0 0 0 0 0 0 0 0 0 0 0 0 0 0 0 0 0 0 0 0 0 0 0 0 0 0 0 0 0 0 0 0 0 0 0 0 0 0 0 0 0 0 0 0 0 0 0 0 0 0 0 0 0 0 0 0 0 0 0 0 0 0 0 0 0 0 0 0 0 0 0 0 0 0 0 0 0 0 0 0 0 0 0 0 0 1481 1596.57 0 1865.93 1771.67 2081.55 2166.59 2321.01 2391.58 2784.79 3086.25 3015.86 2920.01 3012.82 3031.82 3204.32 3254.35 3185.58 3170.77 3086.14 3108.27 3241.84 3184.85 3188.73 2869.82 2719.79 2833.76 2491.44 2163.88 2278.05 2090.49 0 0 0 0 0 0 0 0 0 0 0
0 0 0 0 0 0 0 0 0 0 0 0 0 0 0 0 0 0 0 0 0 0 0 0 0 0 0 0 0 0 0 0 0 0 0 0 0 0 0 0 0 0 0 0 0 0 0 0 0 0 0 0 0 0 0 0 0 0 0 0 0 0 0 0 0 0 0 0 0 0 0 0 0 0 0 0 0 0 0 0 0 0 0 0 0 0 0 0 0 0 0 0 0 0 0 0 0 0 0 0 0 0 0 0 0 0 0 0 0 0 0 0 0 0 0 0 0 0 0 0 0 0 0 0 0 0 0 0 0 0 0 0 0 0 0 0 0 0 0 0 0 0 0 0 0 0 0 0 0 0 0 0 0 0 0 1943.64 1820.54 0 0 0 0 0 0 0 0 0 0 0 0 0 0 0 0 0 0 0 0 0 0 0 0 0 0 0 0 0 0 0 0 0 0 0 0 0 0 0 0 0 0 0 0 0 0 0 0 0 0 0 0 0 0 0 0 0 0 0 0 0 0 0 0 0 0 0 0 0 0 0 0 0 0 0 0 0 0 0 0 0 0 0 0 0 0 0 0 0 0 0 0 0 0 0 0 0 0 0 0 0 0 0 0 0 0 0 0 0 0 0 0 0 0 0 0 0 0 0 0 0 0 0 0 0 0 0 0 0 0 0 0 0 0 0 0 0 0 0 0 0 0 0 0 2056.82 2696.23 2872.03 3081.78 3163.65 3190.3 3104.41 3958.6 3819.29 3838.16 3759.89 3670.88 3571.33 3139.44 3106.43 3182.92 3108.04 3099.71 2982.14 2954.36 2974.47 3007.96 3059.86 3119.77 3134.87 3349.59 3508.6 3666.47 3008.18 1935.06 524.452 88.9247 149.073 0 0 0 0 0 0 0 0 0 0 0 0 0 0 0 0 0 0 0 0 0 0 0 1854.47 0 0 0 2120 2182.55 2455.7 2618.02 2562.83 2727.22 2820.89 2898.07 2716.27 2429.18 2326.83 2160.68 1893.88 1825.37 1614.58 1177.5 0 0 0 0 0 0 0 0 0 0 0 0 0 0 0 0 0 0 0 0 0 0 0 0 0 0 0 0 0 0 0 0 0 0 0 0 0 0 0 0 0 0 0 0 0 0 0 0 0 0 0 0 0 0 0 0 0 0 0 0 0 0 0 0 0 0 0 0 0 0 0 0 0 0 0 0 0 0 0 0 0 0 0 0 0 0 0 0 0 0 0 0 0 0 1413.19 0 0 0 2084.88 2238.81 2297.99 2398.79 2829.31 3072.01 3047.19 2964.17 3064.89 3047.96 3239.83 3253.4 3174.91 3164.67 3104.36 3119.42 3223.09 3134.57 3137.5 2725.84 2659.31 2695.15 2379.03 2090.08 2206.11 1885.16 0 0 0 0 0 0 0 0 0 0 0
0 0 0 0 0 0 0 0 0 0 0 0 0 0 0 0 0 0 0 0 0 0 0 0 0 0 0 0 0 0 0 0 0 0 0 0 0 0 0 0 0 0 0 0 0 0 0 0 0 0 0 0 0 0 0 0 0 0 0 0 0 0 0 0 0 0 0 0 0 0 0 0 0 0 0 0 0 0 0 0 0 0 0 0 0 0 0 0 0 0 0 0 0 0 0 0 0 0 0 0 0 0 0 0 0 0 0 0 0 0 0 0 0 0 0 0 0 0 0 0 0 0 0 0 0 0 0 0 0 0 0 0 0 0 0 0 0 0 0 0 0 0 0 0 0 0 0 0 0 0 0 0 0 0 0 0 0 0 0 0 0 0 0 0 0 0 0 0 0 0 0 0 0 0 0 0 0 0 0 0 0 0 0 0 0 0 0 0 0 0 0 0 0 0 0 0 0 0 0 0 0 0 0 0 0 0 0 0 0 0 0 0 0 0 0 0 0 0 0 0 0 0 0 0 0 0 0 0 0 0 0 0 0 0 0 0 0 0 0 0 0 0 0 0 0 0 0 0 0 0 0 0 0 0 0 0 0 0 0 0 0 0 0 0 0 0 0 0 0 0 0 0 0 0 0 0 0 0 0 0 0 0 0 0 0 0 0 0 0 0 0 0 0 0 0 0 0 0 0 0 2191.53 2344.72 2925.92 3081.49 3225.69 3243.28 3279.6 3175.33 3949.75 3782.69 3999.84 3753.75 3689.12 3621.2 3242.9 3204.25 3288.67 3199.85 3153.37 2974.58 2962.97 2999.09 3028.16 3077.76 3115.54 3099.54 3282.94 3629.51 4404.98 3521.56 1930.45 0 127.497 0 0 0 0 0 0 0 0 0 0 0 0 0 0 0 0 0 0 0 0 0 0 0 0 0 0 0 0 2167.32 2087.22 2405.77 2595.46 2618.1 2653.46 2776.18 2878.14 2854.34 2452.58 2455.52 2172.93 0 1675.45 1637.81 1163.9 1118.39 0 989.582 0 0 0 0 0 0 0 0 0 0 0 0 0 0 0 0 0 0 0 0 0 0 0 0 0 0 0 0 0 0 0 0 0 0 0 0 0 0 0 0 0 0 0 0 0 0 0 0 0 0 0 0 0 0 0 0 0 0 0 0 0 0 0 0 0 0 0 0 0 0 0 0 0 0 0 0 0 0 0 0 0 0 0 0 0 0 0 0 0 0 0 0 0 0 0 0 2069.38 2008.75 2219.85 2621.54 2996.63 2994.27 3009.91 3174.49 3101.66 3290.47 3344.65 3229.73 3228.42 3086.08 3046.14 3080.31 2963.02 2981.08 2567.15 2353.93 2441.91 2102.04 1882.58 2103.2 0 0 0 0 0 0 0 0 0 0 0 0
0 0 0 0 0 0 0 0 0 0 0 0 0 0 0 0 0 0 0 0 0 0 0 0 0 0 0 0 0 0 0 0 0 0 0 0 0 0 0 0 0 0 0 0 0 0 0 0 0 0 0 0 0 0 0 0 0 0 0 0 0 0 0 0 0 0 0 0 0 0 0 0 0 0 0 0 0 0 0 0 0 0 0 0 0 0 0 0 0 0 0 0 0 0 0 0 0 0 0 0 0 0 0 0 0 0 0 0 0 0 0 0 0 0 0 0 0 0 0 0 0 0 0 0 0 0 0 0 0 0 0 0 0 0 0 0 0 0 0 0 0 0 0 0 0 0 0 0 0 0 0 0 0 0 0 0 0 0 0 0 0 0 0 0 0 0 0 0 0 0 0 0 0 0 0 0 0 0 0 0 0 0 0 0 0 0 0 0 0 0 0 0 0 0 0 0 0 0 0 0 0 0 0 0 0 0 0 0 0 0 0 0 0 0 0 0 0 0 0 0 0 0 0 0 0 0 0 0 0 0 0 0 0 0 0 0 0 0 0 0 0 0 0 0 0 0 0 0 0 0 0 0 0 0 0 0 0 0 0 0 0 0 0 0 0 0 0 0 0 0 0 0 0 0 0 0 0 0 0 0 0 0 0 0 0 0 0 0 0 0 0 0 0 0 0 0 0 0 0 1970.44 2067.34 2504.46 2960.25 3208.05 3305.97 3257.13 3300.12 3212.72 3893.83 3764.02 3731.87 3745.03 3692.86 3593.52 3274.42 3244.34 3332.96 3284.74 3198.82 3033.25 2972.52 2981.34 2997 3072.07 2937.76 2855.22 2834.04 3145.98 3705.99 3194.25 0 0 0 0 0 0 0 0 0 0 0 0 0 0 0 0 0 0 0 0 0 0 0 0 0 0 0 0 0 0 0 2187.95 1980.39 2233.83 2430.8 2460.75 2573.37 2688.76 2826.55 2590.57 2086.67 0 0 0 0 0 0 0 0 0 0 0 0 0 0 0 0 0 0 0 0 0 0 0 0 0 0 0 0 0 0 0 0 0 0 0 0 0 0 0 0 0 0 0 0 0 0 0 0 0 0 0 0 0 0 0 0 0 0 0 0 0 0 0 0 0 0 0 0 0 0 0 0 0 0 0 0 0 0 2076.14 0 0 0 1828.02 1337.84 1333.77 1266.74 0 0 0 0 0 0 0 0 0 0 0 0 0 0 0 0 0 0 0 0 1975.8 2360.75 2676.36 3019.87 3086.25 3016.02 3075.22 2903.64 2988.19 3095.25 2926.07 2966.95 2885.51 2767.66 2757.97 2649.19 2727.97 2427.74 2252.31 2403.12 2062.48 1848.01 2162.38 0 0 0 0 0 0 0 0 0 0 0 0
0 0 0 0 0 0 0 0 0 0 0 0 0 0 0 0 0 0 0 0 0 0 0 0 0 0 0 0 0 0 0 0 0 0 0 0 0 0 0 0 0 0 0 0 0 0 0 0 0 0 0 0 0 0 0 0 0 0 0 0 0 0 0 0 0 0 0 0 0 0 0 0 0 0 0 0 0 0 0 0 0 0 0 0 0 0 0 0 0 0 0 0 0 0 0 0 0 0 0 0 0 0 0 0 0 0 0 0 0 0 0 0 0 0 0 0 0 0 0 0 0 0 0 0 0 0 0 0 0 0 0 0 0 0 0 0 0 0 0 0 0 0 0 0 0 0 0 0 0 0 0 0 0 0 0 0 0 0 0 0 0 0 0 0 0 0 0 0 0 0 0 0 0 0 0 0 0 0 0 0 0 0 0 0 0 0 0 0 0 0 0 0 0 0 0 0 0 0 0 0 0 0 0 0 0 0 0 0 0 0 0 0 0 0 0 0 0 0 0 0 0 0 0 0 0 0 0 0 0 0 0 0 0 0 0 0 0 0 0 0 0 0 0 0 0 0 0 0 0 0 0 0 0 0 0 0 0 0 0 0 0 0 0 0 0 0 0 0 0 0 0 0 0 0 0 0 0 0 0 0 0 0 0 0 0 0 0 0 0 0 0 0 0 0 0 0 0 0 0 2205.44 2244.23 2559.63 2890.39 3185.4 3294.74 3212.78 3220.68 3186.61 4229.96 4040.29 3965.71 3637.38 3347.12 3316.75 3276.46 3274.61 3351.54 3316.82 3252.58 3105.39 3076.35 3024.99 3065.34 3112.88 2960.15 2802.47 2761.83 2915.6 3328.86 2894.13 0 0 0 0 0 0 0 0 0 0 0 0 0 0 0 0 0 0 0 0 0 0 0 0 0 0 0 0 0 0 0 1898.43 1820.07 2342.62 2584.51 2679.14 2635.95 2650.28 0 0 0 0 0 0 0 0 0 0 0 0 0 0 0 0 0 0 0 0 0 0 0 0 0 0 0 0 0 0 0 0 0 0 0 0 0 0 0 0 0 0 0 0 0 0 0 0 0 0 0 0 0 0 0 0 0 0 0 0 0 0 0 0 0 0 0 0 0 0 0 0 0 0 0 0 0 2688.11 2593.9 2626.75 2716.57 0 0 0 2362.81 2792.4 1659.52 2732.72 1898.51 1035.61 0 0 0 0 0 0 0 0 0 0 0 0 0 0 0 0 0 0 0 2085.09 2068.53 0 2913.68 2999.09 2910.95 3050.79 2870.31 2956.03 3102.23 3053.45 3090.52 2997.91 2884.03 2902.08 2775.9 2819.38 2575.82 2245.04 2247.03 1972.92 0 0 0 0 0 0 0 0 0 0 0 0 0 0
0 0 0 0 0 0 0 0 0 0 0 0 0 0 0 0 0 0 0 0 0 0 0 0 0 0 0 0 0 0 0 0 0 0 0 0 0 0 0 0 0 0 0 0 0 0 0 0 0 0 0 0 0 0 0 0 0 0 0 0 0 0 0 0 0 0 0 0 0 0 0 0 0 0 0 0 0 0 0 0 0 0 0 0 0 0 0 0 0 0 0 0 0 0 0 0 0 0 0 0 0 0 0 0 0 0 0 0 0 0 0 0 0 0 0 0 0 0 0 0 0 0 0 0 0 0 0 0 0 0 0 0 0 0 0 0 0 0 0 0 0 0 0 0 0 0 0 0 0 0 0 0 0 0 0 0 0 0 0 0 0 0 0 0 0 0 0 0 0 0 0 0 0 0 0 0 0 0 0 0 0 0 0 0 0 0 0 0 0 0 0 0 0 0 0 0 0 0 0 0 0 0 0 0 0 0 0 0 0 0 0 0 0 0 0 0 0 0 0 0 0 0 0 0 0 0 0 0 0 0 0 0 0 0 0 0 0 0 0 0 0 0 0 0 0 0 0 0 0 0 0 0 0 0 0 0 0 0 0 0 0 0 0 0 0 0 0 0 0 0 0 0 0 0 0 0 0 0 0 0 0 0 0 0 0 0 0 0 0 0 0 0 0 0 0 0 0 0 0 0 2595.3 2737.99 2967.58 3323.32 3426.76 3309.49 3322.47 3273.14 4289.22 4115.82 4045.26 3774.69 3707.63 3353.68 3369.37 3324.77 3421.87 3411.92 3392.74 3313.93 3264.67 3216.17 3218.02 3221.73 3130.42 2936.57 2963.44 3151.53 3493.4 3113.46 0 0 0 0 0 0 0 0 0 0 0 0 0 0 0 0 0 0 0 0 0 0 0 0 0 0 0 0 0 0 0 1732.09 1429.81 1998.13 2107.19 2154.6 2160.87 0 0 0 0 0 0 0 0 0 0 0 0 0 0 0 0 0 0 0 0 0 0 0 0 0 0 0 0 0 0 0 0 2447.96 2408.33 2243.06 2424.51 2706.02 2541.48 0 0 0 0 0 0 0 0 0 0 0 0 0 0 0 0 0 0 0 0 0 0 0 0 0 0 0 0 0 0 0 0 0 0 0 0 2827.17 2891.78 3135.92 3057.96 2832.08 2793.37 2729.61 2823.31 2736.42 2773.47 0 2710.47 2842.11 2414.88 3078.21 2330.03 1411.75 1589.48 1043.06 0 0 0 0 0 0 0 0 0 0 0 0 0 0 0 0 0 0 0 0 2825.41 2927.1 2797.75 2884.13 2796.03 2880.02 3128.49 3044.15 3078.04 2920.47 2785.72 2809.74 2781.56 2673.59 2503.52 2151.84 2141.73 0 0 0 0 0 0 0 0 0 0 0 0 0 0 0
0 0 0 0 0 0 0 0 0 0 0 0 0 0 0 0 0 0 0 0 0 0 0 0 0 0 0 0 0 0 0 0 0 0 0 0 0 0 0 0 0 0 0 0 0 0 0 0 0 0 0 0 0 0 0 0 0 0 0 0 0 0 0 0 0 0 0 0 0 0 0 0 0 0 0 0 0 0 0 0 0 0 0 0 0 0 0 0 0 0 0 0 0 0 0 0 0 0 0 0 0 0 0 0 0 0 0 0 0 0 0 0 0 0 0 0 0 0 0 0 0 0 0 0 0 0 0 0 0 0 0 0 0 0 0 0 0 0 0 0 0 0 0 0 0 0 0 0 0 0 0 0 0 0 0 0 0 0 0 0 0 0 0 0 0 0 0 0 0 0 0 0 0 0 0 0 0 0 0 0 0 0 0 0 0 0 0 0 0 0 0 0 0 0 0 0 0 0 0 0 0 0 0 0 0 0 0 0 0 0 0 0 0 0 0 0 0 0 0 0 0 0 0 0 0 0 0 0 0 0 0 0 0 0 0 0 0 0 0 0 0 0 0 0 0 0 0 0 0 0 0 0 0 0 0 0 0 0 0 0 0 0 0 0 0 0 0 0 0 0 0 0 0 0 0 0 0 0 0 0 0 0 0 0 0 0 0 0 0 0 0 0 0 0 0 0 0 0 0 0 0 3113.63 3410.6 3651.15 3606.34 3392.74 3400.03 4435.49 4385.64 4244.19 4140.3 3805.25 3734.03 3382.21 3405.07 3369.98 3475.82 3444.07 3330.31 3279.15 3229.54 3190.3 3145.98 3176.41 2975.79 2712.45 2681.41 0 0 0 0 0 0 0 0 0 0 0 0 0 0 0 0 0 0 0 0 0 0 0 0 0 0 0 0 0 0 0 0 0 0 1550.04 1268.87 1723.14 1768.74 1909.4 1908.77 0 0 0 0 0 0 0 0 0 0 0 0 0 0 0 0 0 0 0 0 0 0 0 0 0 0 0 0 0 0 2718.86 2445.61 2385.56 2306.93 2237.47 2320.65 2586.9 2356.01 2323.68 0 0 0 0 0 0 0 0 0 0 0 0 0 0 0 0 0 0 0 0 0 0 0 0 0 0 0 0 0 0 0 0 2684.28 3061.42 3482.09 3307.27 3344.39 3502.15 3390.68 3163.71 3087.84 2948.96 2909.38 2733.17 2861.69 2934.98 2768.3 3009.64 3044.64 3213.34 3547.62 2880.41 3219.69 3028.1 0 0 0 0 0 0 0 0 0 0 0 0 0 0 0 0 0 0 0 0 0 0 0 2950.1 2718.78 2783.36 3019.22 2857.31 2743.04 2653.25 2462.08 2498.64 2466.57 2503.82 2240.07 1993.57 0 0 0 0 0 0 0 0 0 0 0 0 0 0 0 0
0 0 0 0 0 0 0 0 0 0 0 0 0 0 0 0 0 0 0 0 0 0 0 0 0 0 0 0 0 0 0 0 0 0 0 0 0 0 0 0 0 0 0 0 0 0 0 0 0 0 0 0 0 0 0 0 0 0 0 0 0 0 0 0 0 0 0 0 0 0 0 0 0 0 0 0 0 0 0 0 0 0 0 0 0 0 0 0 0 0 0 0 0 0 0 0 0 0 0 0 0 0 0 0 0 0 0 0 0 0 0 0 0 0 0 0 0 0 0 0 0 0 0 0 0 0 0 0 0 0 0 0 0 0 0 0 0 0 0 0 0 0 0 0 0 0 0 0 0 0 0 0 0 0 0 0 0 0 0 0 0 0 0 0 0 0 0 0 0 0 0 0 0 0 0 0 0 0 0 0 0 0 0 0 0 0 0 0 0 0 0 0 0 0 0 0 0 0 0 0 0 0 0 0 0 0 0 0 0 0 0 0 0 0 0 0 0 0 0 0 0 0 0 0 0 0 0 0 0 0 0 0 0 0 0 0 0 0 0 0 0 0 0 0 0 0 0 0 0 0 0 0 0 0 0 0 0 0 0 0 0 0 0 0 0 0 0 0 0 0 0 0 0 0 0 0 0 0 0 0 0 0 0 0 0 0 0 0 0 0 0 0 0 0 0 0 0 0 0 0 0 3033.47 3252.58 3444.49 3575.82 3361.94 3342.39 3207.87 3258.27 4321.92 4267.62 3372.49 3359.52 3340.52 3401.41 3374.18 3492.39 3433.07 3347.32 3275.76 3280.31 3234.34 3136.98 3100.97 2783.55 2459.63 0 0 0 0 0 0 0 0 0 0 0 0 0 0 0 0 0 0 0 0 0 0 0 0 0 0 0 0 0 0 0 0 2765.7 0 0 1862.2 1594.98 1916.73 1845.41 1961.5 2044.74 0 0 0 0 0 0 0 0 0 0 0 0 0 0 0 0 0 0 0 0 0 0 0 0 3006.13 3192.12 3071.68 2819 3018.35 2965.85 2708.07 2288.87 2255.61 2241.44 2106.77 2106.24 2268.11 2115.91 2127.93 2171.3 2396.32 0 0 0 0 0 0 0 0 0 0 0 0 0 0 0 0 0 0 0 0 0 0 0 0 0 0 0 0 2597.03 2759.56 3069.65 3265.94 3524.96 3468.35 3436.17 3433.85 3493.84 3277.49 3245.1 3114.21 3047.02 2938.42 3019.93 3111.32 3023.52 3057.29 2941.72 2838.12 3407.69 3111.84 3021.72 2493.36 1640.58 1803.48 0 0 0 0 0 0 0 0 0 0 0 0 0 0 0 0 0 0 0 0 0 0 3139.62 3235.27 3650.04 3512.42 2965.59 2705.32 2340.53 2365.54 2197.44 2224.98 1913.89 1626.54 0 0 0 0 0 0 0 0 0 0 0 0 0 0 0 0
0 0 0 0 0 0 0 0 0 0 0 0 0 0 0 0 0 0 0 0 0 0 0 0 0 0 0 0 0 0 0 0 0 0 0 0 0 0 0 0 0 0 0 0 0 0 0 0 0 0 0 0 0 0 0 0 0 0 0 0 0 0 0 0 0 0 0 0 0 0 0 0 0 0 0 0 0 0 0 0 0 0 0 0 0 0 0 0 0 0 0 0 0 0 0 0 0 0 0 0 0 0 0 0 0 0 0 0 0 0 0 0 0 0 0 0 0 0 0 0 0 0 0 0 0 0 0 0 0 0 0 0 0 0 0 0 0 0 0 0 0 0 0 0 0 0 0 0 0 0 0 0 0 0 0 0 0 0 0 0 0 0 0 0 0 0 0 0 0 0 0 0 0 0 0 0 0 0 0 0 0 0 0 0 0 0 0 0 0 0 0 0 0 0 0 0 0 0 0 0 0 0 0 0 0 0 0 0 0 0 0 0 0 0 0 0 0 0 0 0 0 0 0 0 0 0 0 0 0 0 0 0 0 0 0 0 0 0 0 0 0 0 0 0 0 0 0 0 0 0 0 0 0 0 0 0 0 0 0 0 0 0 0 0 0 0 0 0 0 0 0 0 0 0 0 0 0 0 0 0 0 0 0 0 0 0 0 0 0 0 0 0 0 0 0 0 0 0 0 0 0 3393.63 3381.66 3628.02 3789.87 3528.82 3390.14 3305.45 3350.6 3374.45 3423.13 3445.98 3392.74 3329.78 3431.18 3440.96 4017.66 3472.22 3338.6 3268.55 3332.36 3313.08 3275.7 3176.05 2814.84 2552.81 0 0 0 0 0 0 0 0 0 0 0 0 0 0 0 0 0 0 0 0 0 0 0 0 0 0 0 0 0 0 0 2454.77 2397.01 2048.73 1835.12 1989.62 1929.69 2289.34 2441.13 0 0 2762.19 3016.78 3528.37 3159.01 3543.28 0 0 0 0 0 0 0 0 0 0 0 0 0 0 0 0 0 0 2541.75 2944.1 3091.37 2929.91 2824.36 2954 2801.07 2647.93 2311.96 2430.41 2408.09 2252.18 2344.75 2461.43 2323.32 2459.63 2551.07 2769.35 2854.25 0 0 0 0 0 0 0 0 0 0 0 0 0 0 0 0 0 0 0 0 0 0 0 0 0 0 0 2439.67 2854.63 3136.21 3217.47 3614.5 3571.87 3690.26 3520.75 3510.73 3404.31 3322.86 3188.3 3191.45 3031.93 3061.98 2978.54 3088.81 3168.85 3193.52 3191.39 3650.2 3786.88 3710.58 3362.82 1855.86 1641.5 0 0 0 0 0 0 0 0 0 0 0 0 0 0 0 0 0 0 0 0 0 0 0 3158.06 3594.21 0 3173.95 2863.4 2323.51 2295.04 0 0 0 0 0 0 0 0 0 0 0 0 0 0 0 0 0 0 0 0
0 0 0 0 0 0 0 0 0 0 0 0 0 0 0 0 0 0 0 0 0 0 0 0 0 0 0 0 0 0 0 0 0 0 0 0 0 0 0 0 0 0 0 0 0 0 0 0 0 0 0 0 0 0 0 0 0 0 0 0 0 0 0 0 0 0 0 0 0 0 0 0 0 0 0 0 0 0 0 0 0 0 0 0 0 0 0 0 0 0 0 0 0 0 0 0 0 0 0 0 0 0 0 0 0 0 0 0 0 0 0 0 0 0 0 0 0 0 0 0 0 0 0 0 0 0 0 0 0 0 0 0 0 0 0 0 0 0 0 0 0 0 0 0 0 0 0 0 0 0 0 0 0 0 0 0 0 0 0 0 0 2319.6 0 0 0 2694.07 2836.68 2796.54 2513.8 2462.91 2691.91 0 0 0 0 0 0 0 0 0 0 0 0 0 0 0 0 0 0 0 0 0 0 0 0 0 0 0 0 0 0 0 0 0 0 0 0 0 0 0 0 0 0 0 0 0 0 0 0 0 0 0 0 0 0 0 0 0 0 0 0 0 0 0 0 0 0 0 0 0 0 0 0 0 0 0 0 0 0 0 0 0 0 0 0 0 0 0 0 0 0 0 0 0 0 0 0 0 0 0 0 0 0 0 0 0 0 0 0 0 0 0 0 0 0 0 0 0 0 0 0 0 0 0 0 0 0 0 0 0 0 3405.76 3323.72 3665.91 3759.55 3625.9 3460.33 3379.14 3396.93 3429.64 3382.07 3476.68 3387.4 3360.93 3426.62 3427.25 3485.35 3525.85 3372.28 3419.57 3355.15 3331.97 3215.12 3107.06 2623.22 2253.42 0 0 0 0 0 0 0 0 0 0 0 0 0 0 0 0 0 0 0 0 0 0 0 0 0 0 0 0 0 0 2861.69 2631.61 2356.87 2122.06 2028.5 2126.39 1974.2 2278.55 2392.77 0 0 2566.4 2783.5 2916.71 2942.91 3188.42 0 0 0 0 0 0 0 0 0 0 0 0 0 0 0 0 0 0 2562.44 2613.45 2747.81 2656.95 2754.94 2889.79 2760.28 2646.39 2315.95 2561.5 2656.28 2521.24 2617.57 2618.02 2448.71 2545.88 4667.99 2781.06 2667.64 2412.35 0 0 0 0 0 0 0 0 0 0 0 0 0 0 0 0 0 0 0 0 0 0 0 0 0 2462.26 2737.63 3175.63 3315.77 3276.85 3610.61 3569.51 4128.88 3482.6 3478.99 3430.06 3400.99 3301.35 3299.6 3147.27 3158.77 3166.46 3308.12 3392.33 3416.09 3357.5 3658.55 3843.7 3832.64 3963.84 3364.51 2818.52 0 0 0 0 0 0 0 0 0 0 0 0 0 0 0 0 0 0 0 0 0 0 0 0 0 0 0 0 0 0 0 0 0 0 0 0 0 0 0 0 0 0 0 0 0 0 0 0 0 0
0 0 0 0 0 0 0 0 0 0 0 0 0 0 0 0 0 0 0 0 0 0 0 0 0 0 0 0 0 0 0 0 0 0 0 0 0 0 0 0 0 0 0 0 0 0 0 0 0 0 0 0 0 0 0 0 0 0 0 0 0 0 0 0 0 0 0 0 0 0 0 0 0 0 0 0 0 0 0 0 0 0 0 0 0 0 0 0 0 0 0 0 0 0 0 0 0 0 0 0 0 0 0 0 0 0 0 0 0 0 0 0 0 0 0 0 0 0 0 0 0 0 0 0 0 0 0 0 0 0 0 0 0 0 0 0 0 0 0 0 0 0 0 0 0 0 0 0 0 0 0 0 0 0 0 0 0 0 0 0 0 2426.58 0 2989.79 2906.96 2970.68 2972 2892.23 2573.37 2415.47 2717.89 2569.47 2261.75 2313.61 2301.65 2433.05 0 0 0 0 0 0 0 0 0 0 0 0 0 0 0 0 0 0 0 0 0 0 0 0 0 0 0 0 0 0 0 0 0 0 0 0 0 0 0 0 0 0 0 0 0 0 0 0 0 0 0 0 0 0 0 0 0 0 0 0 0 0 0 0 0 0 0 0 0 0 0 0 0 0 0 0 0 0 0 0 0 0 0 0 0 0 0 0 0 0 0 0 0 0 0 0 0 0 0 0 0 0 0 0 0 0 0 0 0 0 0 0 0 0 0 0 0 0 0 0 0 0 0 0 0 0 3296.61 3612.47 3709.35 3647.18 3410.53 3306.88 3263.15 3301.02 3259.34 3321.28 3209.83 3140.5 3160.91 3224.27 3315.7 3382.07 3261.62 3316.88 3250.44 3244.34 3219.5 3142.62 2435.95 1808.59 0 0 0 0 0 0 0 0 0 0 0 0 0 0 0 0 0 0 0 0 0 0 0 0 0 0 0 0 2820.85 2784.33 2627.57 2537.95 2303.89 2153.44 2067.36 2173.05 2072.34 2495.07 2601.1 0 2440.59 2629.8 2762.19 2799.8 2897.07 3012.39 2305.7 2166.15 1762.52 0 0 0 0 0 0 0 0 0 0 0 0 0 0 2994.11 2600.05 2535.8 2560.14 2608.09 2762.78 2823.31 2853.95 2697.14 2527.47 2725.44 2796.77 2750.82 2774.39 2726.6 2654.89 2618.47 4660.47 2732.23 2607.04 2441.77 2505.17 0 0 2872.82 3142.62 0 0 0 0 0 0 0 0 0 0 0 0 0 0 0 0 0 0 0 0 2632.4 3038.25 3309.88 3575.75 3448.81 3688.96 3658.95 3572.32 3447.61 3475.6 3409.49 3372.42 3274.67 3299.08 3179.6 3120.29 3211.43 3398.38 3465.34 3433.14 3432.65 3542.01 3639.98 0 0 0 0 0 0 0 0 0 0 0 0 0 0 0 0 0 0 0 0 0 0 0 0 0 0 0 0 0 0 0 0 0 0 0 0 0 0 0 0 0 0 0 0 0 0 0 0 0 0 0 0 0 0
0 0 0 0 0 0 0 0 0 0 0 0 0 0 0 0 0 0 0 0 0 0 0 0 0 0 0 0 0 0 0 0 0 0 0 0 0 0 0 0 0 0 0 0 0 0 0 0 0 0 0 0 0 0 0 0 0 0 0 0 0 0 0 0 0 0 0 0 0 0 0 0 0 0 0 0 0 0 0 0 0 0 0 0 0 0 0 0 0 0 0 0 0 0 0 0 0 0 0 0 0 0 0 0 0 0 0 0 0 0 0 0 0 0 0 0 0 0 0 0 0 0 0 0 0 0 0 0 0 0 0 0 0 0 0 0 0 0 0 0 0 0 0 0 0 0 0 0 0 0 0 0 0 0 0 0 0 0 0 0 2947.77 2784.79 3216.29 3252.39 3250.57 3304.34 3199.61 3181.65 3059.35 2898.37 3048.68 2946.27 2689.83 2555.88 2519.27 2802.7 2788.64 2411.37 0 0 0 1882.72 0 0 0 0 0 0 0 0 0 0 0 0 0 0 0 0 0 0 0 0 0 0 0 0 0 0 0 0 0 0 0 0 0 0 0 0 0 0 0 0 0 0 0 0 0 0 0 0 0 0 0 0 0 0 0 0 0 0 0 0 0 0 0 0 0 0 0 0 0 0 0 0 0 0 0 0 0 0 0 0 0 0 0 0 0 0 0 0 0 0 0 0 0 0 0 0 0 0 0 0 0 0 0 0 0 0 0 0 0 0 0 0 0 0 0 0 0 0 0 0 0 3368.29 3521.86 3461.55 3282.55 3193.28 3103.15 3188.06 3145.62 3227.8 3105.22 3041.99 3065.73 3149.05 3238.64 3326.42 3188.85 3328.07 3208.73 3218.45 3182.68 3218.21 2342.26 1599.24 0 0 0 0 0 0 0 0 0 0 0 0 0 0 0 0 0 0 0 0 0 0 0 0 0 0 0 0 2567.23 2484.25 2453.98 2491.14 2483.58 2469.04 2370.19 2485.72 2255.3 2497.08 2726.73 2638.69 2559.63 2611.62 2723.32 2869.33 2917.98 2844.47 2404.84 2162.74 1784.01 0 0 0 0 219.053 0 0 0 0 0 0 0 0 0 3276.66 2984.21 2846.4 2895.22 2865.36 3000.7 2980.6 2999.25 2866.24 2652.33 2716.53 2775.86 2697.7 2735.4 2638.94 2640.81 2515.99 2586.78 2693.81 2665.48 2589.37 2657.08 2769.9 3035.61 3179.84 3724 0 0 0 0 0 0 0 0 0 0 0 0 0 0 0 0 0 0 0 2242.19 2429.95 2762.1 3075.79 3378.73 3326.29 3592.82 3456.27 3467.63 3392.53 3458.98 3385.76 3320.36 3271.35 3226.81 3103.72 3113.34 3116.35 3279.79 3342.25 3350.26 3374.18 3314.07 3512.86 3248.8 0 0 0 0 0 0 0 0 0 0 0 0 0 0 0 0 0 0 0 0 0 0 0 0 0 0 0 0 0 0 0 0 0 0 0 0 0 0 0 0 0 0 0 0 0 0 0 0 0 0 0 0 0
0 0 0 0 0 0 0 0 0 0 0 0 0 0 0 0 0 0 0 0 0 0 0 0 0 0 0 0 0 0 0 0 0 0 0 0 0 0 0 0 0 0 0 0 0 0 0 0 0 0 0 0 0 0 0 0 0 0 0 0 0 0 0 0 0 0 0 0 0 0 0 0 0 0 0 0 0 0 0 0 0 0 0 0 0 0 0 0 0 0 0 0 0 0 0 0 0 0 0 0 0 0 0 0 0 0 0 0 0 0 0 0 0 0 0 0 0 0 0 0 0 0 0 0 0 0 0 0 0 0 0 0 0 0 0 0 0 0 0 0 0 0 0 0 0 0 0 0 0 0 0 0 0 0 0 0 0 2554.64 2858.28 3149.46 3255.23 3216.23 3503.18 3472.87 3400.92 3394.73 3297.72 3377.58 3345.85 3159.48 3215.31 3162.7 2999.73 2955.14 3005.27 3173.17 2886.01 2460.31 0 0 0 0 0 0 0 0 0 0 0 0 0 0 0 0 0 0 0 0 0 0 0 0 0 0 0 0 0 0 0 0 0 0 0 0 0 0 0 0 0 0 0 0 0 0 0 0 0 0 0 0 0 0 0 0 0 0 0 0 0 0 0 0 0 0 0 0 0 0 0 0 0 0 0 0 0 0 0 0 0 0 0 0 0 0 0 0 0 0 0 0 0 0 0 0 0 0 0 0 0 0 0 0 0 0 0 0 0 0 0 0 0 0 0 0 0 0 0 0 0 0 0 0 0 0 3482.31 3379.28 3180.56 3065.67 2980.92 3098.51 3099.77 3099.65 3022.1 2976.64 3061.03 3157.28 3249.5 3299.34 3160.32 3313.8 3230.91 3196.08 2998.18 2826.55 1938.77 0 0 0 0 0 0 0 0 0 0 0 0 0 0 0 0 0 0 0 0 0 0 0 0 0 0 0 0 0 2741.52 2625.39 2565.07 2620.11 2585.66 2574.39 2465.16 2607.32 2451.79 2721.95 2960.15 2918.19 2845.34 2830.79 3005 3139.26 3081.95 2685.31 2186.58 2075.37 1606.85 0 0 0 0 0 0 0 0 0 0 0 0 0 3131.47 3176.17 2951.55 2797.05 2822.08 2822.65 2956.23 2948.65 2953.53 2889.44 2751.59 2785.07 2833.04 2769.53 2802.19 2689.62 2752.9 2595.34 2626.5 2706.54 2672.01 2675.25 2771.32 2850.51 0 3033.69 3491.8 0 0 0 0 0 0 0 0 0 0 0 0 0 0 0 0 0 0 0 2607.4 2774.07 3011.31 3224.39 3312.63 3316.49 4057.88 3980.2 3412.75 3363.02 3429.5 3346.72 3278.71 3293.51 3200.1 3077.76 3130.54 3121.34 3201.63 3246.54 3296.81 3397.76 3288.02 3549.2 3341.12 0 0 0 0 0 0 0 0 0 0 0 0 0 0 0 0 0 0 0 0 0 0 0 0 0 0 0 0 0 0 0 0 0 0 0 0 0 0 0 0 0 0 0 0 0 0 0 0 0 0 0 0 0
0 0 0 0 0 0 0 0 0 0 0 0 0 0 0 0 0 0 0 0 0 0 0 0 0 0 0 0 0 0 0 0 0 0 0 0 0 0 0 0 0 0 0 0 0 0 0 0 0 0 0 0 0 0 0 0 0 0 0 0 0 0 0 0 0 0 0 0 0 0 0 0 0 0 0 0 0 0 0 0 0 0 0 0 0 0 0 0 0 0 0 0 0 0 0 0 0 0 0 0 0 0 0 0 0 0 0 0 0 0 0 0 0 0 0 0 0 0 0 0 0 0 0 0 0 0 0 0 0 0 0 0 0 0 0 0 0 0 0 0 0 0 0 0 0 0 0 0 0 0 0 0 0 0 0 0 2736.42 3453.28 3362.96 3448.53 3449.38 3432.86 3610.92 3556.5 3433.07 3395.76 3261.62 3387.47 3358.98 3207.68 3213.21 3141.62 3009.69 2926.38 2950.31 3079.68 2786.23 2406.01 2268.05 2009.06 0 0 0 0 0 0 0 0 0 0 0 0 0 0 0 0 0 0 0 0 0 0 0 0 0 0 0 0 0 0 0 0 0 0 0 0 0 0 0 0 0 0 0 0 0 0 0 0 0 0 0 0 0 0 0 0 0 0 0 0 0 0 0 0 0 0 0 0 0 0 0 0 0 0 0 0 0 0 0 0 0 0 0 0 0 0 0 0 0 0 0 0 0 0 0 0 0 0 0 0 0 0 0 0 0 0 0 0 0 0 0 0 0 0 0 0 0 0 0 0 0 0 0 0 3325.03 3174.49 2972.89 2795.09 2811.25 2946.37 2914.54 2937.14 2879.57 2819.8 2959.62 3082.8 3221.05 3241.08 3005.48 3103.78 2913.37 2926.18 2619.61 2422.66 1461.81 0 0 0 0 0 0 0 0 0 0 0 0 0 0 0 0 0 0 0 0 0 0 0 0 0 0 0 2125.69 2664.12 2718.47 2628.03 2651.99 2731.3 2691.91 2790.17 2592.13 2746.68 2545.49 2604.65 2727.7 2626.42 2541.87 2585.78 2594.38 2741.66 2636.12 2406.53 2185.1 2187.87 1856.87 1466.99 0 0 0 0 0 0 0 1704.14 0 0 0 2610.36 2913.12 3017.1 2743.31 2584.91 2561.78 2626.13 2779.95 2803.36 2835 2794.49 2685.14 2777.69 2777.42 2751.91 2752.81 2632.73 2669.42 2531.32 2532.01 2572.07 2462.73 2547.31 2632.52 2647.14 2851.67 2685.18 3053.4 0 0 0 0 0 0 0 0 0 0 0 0 0 0 0 0 0 2067.11 2358.03 2632.85 2982.25 3141.91 3329.45 3305.84 3317.34 4006.81 3916.1 3426.34 3407.9 3434.62 3366.4 3306.75 3371.2 3276.46 3178.22 3214.32 3181.35 3241.02 3251.45 3910.62 3368.56 3229.29 3756.77 3216.42 0 0 0 0 0 0 0 0 0 0 0 0 0 0 0 0 0 0 0 0 0 0 0 0 0 0 0 0 0 0 0 0 0 0 0 0 0 0 0 0 0 0 0 0 0 0 0 0 0 0 0 0 0
0 0 0 0 0 0 0 0 0 0 0 0 0 0 0 0 0 0 0 0 0 0 0 0 0 0 0 0 0 0 0 0 0 0 0 0 0 0 0 0 0 0 0 0 0 0 0 0 0 0 0 0 0 0 0 0 0 0 0 0 0 0 0 0 0 0 0 0 0 0 0 0 0 0 0 0 0 0 0 0 0 0 0 0 0 0 0 0 0 0 0 0 0 0 0 0 0 0 0 0 0 0 0 0 0 0 0 0 0 0 0 0 0 0 0 0 0 0 0 0 0 0 0 0 0 0 0 0 0 0 0 0 0 0 0 0 0 0 0 0 0 0 0 0 0 0 0 0 0 0 0 0 0 0 0 0 2651.53 3572.78 3237.89 3241.33 3299.01 3366.6 3532.91 3467.13 3887.52 3362.55 3249.62 3414.21 3936.59 3322.6 3332.63 3288.67 3204.19 3129.95 3190.73 3285.12 2998.61 2558.89 2321.33 1896.19 0 0 0 0 0 0 0 0 0 0 0 0 0 0 0 0 0 0 0 0 0 0 0 0 0 0 0 0 0 0 0 0 0 0 0 0 0 0 0 0 0 0 0 0 0 0 0 0 0 0 0 0 0 0 0 0 0 0 0 0 0 0 0 0 0 0 0 0 0 0 0 0 0 0 0 0 0 0 0 0 0 0 0 0 0 0 0 0 0 0 0 0 0 0 0 0 0 0 0 0 0 0 0 0 0 0 0 0 0 0 0 0 0 0 0 0 0 0 0 0 0 0 0 2406.32 0 2616.31 2525.87 2437.76 2486.23 2786.69 2690.01 2732.55 2719.74 2701.57 2836.49 3055.34 3165.44 3219.44 2931.65 3066.74 2851.14 2841.2 0 2254.03 0 0 0 0 0 0 0 0 0 0 0 0 0 0 0 0 0 0 0 0 0 0 0 0 0 0 1782.25 2217.51 2251.04 2780.78 2821.89 2637.53 2701.27 2801.72 2813.7 2946.99 2808.71 2856.48 2702.96 2776.27 2943.53 2849.2 2862.28 2890.68 2822.55 2812.52 2677.13 2553.4 2350.33 2312.66 2029.62 1419.23 0 0 406.967 0 0 0 1274.5 2359.46 2627.7 0 0 2897.47 3039.35 3066.23 2842.21 2632.07 2515.38 2642.47 2785.86 2845.19 2905.9 2908.27 2830.98 2912.82 2895.87 2893.03 2829.98 2674.91 2696.58 2537.91 2526.52 2563.07 2446.86 2525.45 2605.38 2725.89 3061.31 2920.68 3291.05 0 0 0 0 0 0 0 0 0 0 0 0 0 0 0 0 0 1875.36 2478.96 2751.19 3058.96 3171.67 3312.1 3250.63 3279.54 3528.37 3422.99 3473.8 3430.2 3456.63 3446.47 3377.99 3462.12 3387.88 3270.72 3327.41 3238.64 3321.28 3333.16 3759.21 3531.57 3440.61 3974.26 3497.12 0 0 0 0 0 0 0 0 0 0 0 0 0 0 0 0 0 0 0 0 0 0 0 0 0 0 0 0 0 0 0 0 0 0 0 0 0 0 0 0 0 0 0 0 0 0 0 0 0 0 0 0 0
0 0 0 0 0 0 0 0 0 0 0 0 0 0 0 0 0 0 0 0 0 0 0 0 0 0 0 0 0 0 0 0 0 0 0 0 0 0 0 0 0 0 0 0 0 0 0 0 0 0 0 0 0 0 0 0 0 0 0 0 0 0 0 0 0 0 0 0 0 0 0 0 0 0 0 0 0 0 0 0 0 0 0 0 0 0 0 0 0 0 0 0 0 0 0 0 0 0 0 0 0 0 0 0 0 0 0 0 0 0 0 0 0 0 0 0 0 0 0 0 0 0 0 0 0 0 0 0 0 0 0 0 0 0 0 0 0 0 0 0 0 0 0 0 0 0 0 0 0 0 0 0 0 0 0 2694.24 2860.82 3538.12 3315.11 3206.52 3238.71 3293.57 3326.48 3962.62 3927.37 3886.8 3204.19 3347.86 3796.3 3270.72 3285.96 3250.75 3155.74 3088.19 3061.25 3129.19 2878.24 2598.28 2361.95 2056.01 0 0 0 0 0 0 0 0 0 0 0 0 0 0 0 0 0 0 0 0 0 0 0 0 0 0 0 0 0 0 0 0 0 0 0 0 0 0 0 0 0 0 0 0 0 0 0 0 0 0 0 0 0 0 0 0 0 0 0 0 0 0 0 0 0 0 0 0 0 0 0 0 0 0 0 0 0 0 0 0 0 0 0 0 0 0 0 0 0 0 0 0 0 0 0 0 0 0 0 0 0 0 0 0 0 0 0 0 0 0 0 0 0 0 0 0 0 0 0 0 0 0 0 2257.43 0 0 2397.04 0 2343.47 2696.36 2669.38 2783.69 2780.13 2688.84 2795.23 3000.38 3045.86 3157.7 2898.22 3022.97 2745.51 0 0 0 0 0 0 0 0 0 0 0 0 0 0 0 0 0 0 0 0 0 0 0 0 0 0 0 0 2057.85 1903.92 2426.05 2460.28 2822.08 2923.07 2790.35 2922.96 2928.32 2902.44 2980.13 2876.12 2915.65 2775.12 2810.03 2914.59 2811.02 2849.4 2894.17 2890.19 2867.71 2766.88 2677.21 2544.72 2572.22 2211.6 1351.84 0 0 0 0 0 0 958.49 1595.15 1855.37 0 2365.31 2703.62 2895.32 3004.03 2822.13 2683.77 2624.49 2770.81 2896.22 2927.71 2984.26 2992.99 2918.9 3014.45 2981.13 2977.17 3578.26 2756.11 2798.4 2637.32 2601.3 2593.62 2410.47 2420.56 2394.72 2389.8 2689.01 2371.19 2477.57 1905.69 587.21 0 0 0 0 0 0 0 0 0 0 0 0 0 0 0 2056.74 2803.97 2944.04 3090.52 3270.59 3329.72 3261.31 3270.4 3464.55 3774.52 3406.66 3371.94 3409.77 3382.07 3336.74 3427.04 3402.1 3288.22 3312.3 3282.75 3352.74 3363.63 3423.62 3565.03 3448.88 3490.5 3449.73 3233.9 2930.47 2332.11 0 0 0 0 0 0 0 0 0 0 0 0 0 0 0 0 0 0 0 0 0 0 0 0 0 0 0 0 0 0 0 0 0 0 0 0 0 0 0 0 0 0 0 0 0 0 0 0 0 0
0 0 0 0 0 0 0 0 0 0 0 0 0 0 0 0 0 0 0 0 0 0 0 0 0 0 0 0 0 0 0 0 0 0 0 0 0 0 0 0 0 0 0 0 0 0 0 0 0 0 0 0 0 0 0 0 0 0 0 0 0 0 0 0 0 0 0 0 0 0 0 0 0 0 0 0 0 0 0 0 0 0 0 0 0 0 0 0 0 0 0 0 0 0 0 0 0 0 0 0 0 0 0 0 0 0 0 0 0 0 0 0 0 0 0 0 0 0 0 0 0 0 0 0 0 0 0 0 0 0 0 0 0 0 0 0 0 0 0 0 0 0 0 0 0 0 0 0 0 0 0 0 0 0 3398.03 3328.2 3276.02 3622.92 3381.73 3209.83 3232.65 3306.23 3839.83 3942.32 3901.53 3869.67 3252.39 3778.86 3808.02 3376.02 3385.55 3366.67 3350.2 3334.55 3306.23 3313.28 3146.03 2854.2 2503.33 1903.83 0 1617.73 0 0 0 0 0 0 0 0 0 0 0 0 0 0 0 0 0 0 0 0 0 0 0 0 0 0 0 0 0 0 0 0 0 0 0 0 0 0 0 0 0 0 0 0 0 0 0 0 0 0 0 0 0 0 0 0 0 0 0 0 0 0 0 0 0 0 0 0 0 0 0 0 0 0 0 0 0 0 0 0 0 0 0 0 0 0 0 0 0 0 0 0 0 0 0 0 0 0 0 0 0 0 0 0 0 0 0 0 0 0 0 0 0 0 0 0 0 0 0 0 0 2177.36 0 0 0 2655.77 2489.37 2918.24 2764.19 2944.82 2823.22 2658.59 2692.25 2958.27 2981.61 3186.12 2875.52 3155.32 2723.85 0 0 0 0 0 0 0 0 0 0 0 0 0 0 0 0 0 0 0 0 0 0 0 0 0 0 0 0 2385.59 2199.02 2595.86 2628.11 2841.82 2940.85 2805.14 2955.92 3035.33 2990.91 3047.63 3001.02 2994.11 2878.53 2873.51 2958.16 2866.34 2836.49 2847.75 2854 2810.5 2826.26 2673.76 2571.51 2648.94 2477.42 1855.31 1745.17 0 0 0 0 0 1013.11 0 0 0 2296.17 2528.04 2673.72 2785.63 2729.92 2629.88 2576.53 2719.44 2868.3 2878.83 2976 2987.02 2921.85 3016.45 3029.47 3889.5 2994.75 2837.64 2909.03 2730.63 2729.79 2772.65 2590.25 2516.48 2430.48 2454.37 2724.12 2474.25 2726.24 2332.92 1004.35 0 0 0 0 0 0 0 0 0 0 0 0 0 0 0 0 2716.22 2898.17 3164.61 4142.24 4885.61 3986.82 4002.42 4045.65 3947.52 3482.24 3447.11 3494.35 3442.73 3372.62 3447.04 3419.01 3310.6 3351.87 3268.74 3321.28 3290.73 3370.32 3548.97 3418.53 3405.13 3186 3005.21 2757.56 2137.64 1247.38 828.493 0 0 0 0 0 0 0 0 0 0 0 0 0 0 0 0 0 0 0 0 0 0 0 0 0 0 0 0 0 0 0 0 0 0 0 0 0 0 0 0 0 0 0 0 0 0 0 0
0 0 0 0 0 0 0 0 0 0 0 0 0 0 0 0 0 0 0 0 0 0 0 0 0 0 0 0 0 0 0 0 0 0 0 0 0 0 0 0 0 0 0 0 0 0 0 0 0 0 0 0 0 0 0 0 0 0 0 0 0 0 0 0 0 0 0 0 0 0 0 0 0 0 0 0 0 0 0 0 0 0 0 0 0 0 0 0 0 0 0 0 0 0 0 0 0 0 0 0 0 0 0 0 0 0 0 0 0 0 0 0 0 0 0 0 0 0 0 0 0 0 0 0 0 0 0 0 0 0 0 0 0 0 0 0 0 0 0 0 0 0 0 0 0 0 0 0 0 0 0 0 0 2138.26 2471.22 2820.37 2872.37 3333.36 3185.94 3192.06 3784.23 3324.11 3873.6 3945.75 3895.82 3759.89 3308.71 3435.11 3452.71 3400.3 3400.37 3319.77 3311.19 3279.41 3235.33 3216.48 3040.17 2679.95 2365.44 1909.47 1790.45 1714.64 0 0 0 0 0 0 0 0 0 0 0 0 0 0 0 0 0 0 0 0 0 0 0 0 0 0 0 0 0 0 0 0 0 0 0 0 0 0 0 0 0 0 0 0 0 0 0 0 0 0 0 0 0 0 0 0 0 0 0 0 0 0 0 0 0 0 0 0 0 0 0 0 0 0 0 0 0 0 0 0 0 0 0 0 0 0 0 0 0 0 0 0 0 0 0 0 0 0 0 0 0 0 0 0 0 0 0 0 0 0 0 0 0 0 0 0 0 0 0 0 0 0 0 0 0 0 0 0 0 0 0 0 0 0 0 0 2613.41 0 0 0 0 0 0 0 0 0 0 0 0 0 0 0 0 0 0 0 0 0 0 0 0 0 0 0 0 0 0 2487.97 2309.22 2543.6 2629.71 2809.04 2912.77 2782.21 2992.94 3068.36 3088.87 3136.45 3157.22 3145.92 3054.68 3020.04 3095.94 2995.13 2937.91 2868.49 2846.45 2755.61 2781.33 2691.13 2588.69 2691.26 2477.64 1947.84 1744.43 1094.32 927.017 0 0 0 1076.84 0 0 2457.72 2387.22 2524.47 2774.62 2875.28 2816.3 2748.39 2675.72 2779.9 2918.14 2922.2 3066.9 3001.13 2940.69 3028.38 3028.43 3068.81 3012.28 2846.3 2929.5 2702.62 2723.45 2762.42 2576.89 2449.47 2342.33 2280.66 2654.76 2343.9 2722.92 2473.81 900.72 0 0 0 0 0 0 0 0 0 0 0 0 0 0 0 2280.69 2631.16 2827.41 3082.63 3315.7 4072.86 3215.49 3241.58 3842.55 3734.78 3375.54 3351.33 3410.4 3329.92 3294.93 3383.98 3391.64 3308.38 3411.99 3344.59 3405.69 3353.28 3435.53 3573.77 3373.84 3258.84 3013.31 2789.47 0 0 0 0 0 0 0 0 0 0 0 0 0 0 0 0 0 0 0 0 0 0 0 0 0 0 0 0 0 0 0 0 0 0 0 0 0 0 0 0 0 0 0 0 0 0 0 0 0 0 0 0
0 0 0 0 0 0 0 0 0 0 0 0 0 0 0 0 0 0 0 0 0 0 0 0 0 0 0 0 0 0 0 0 0 0 0 0 0 0 0 0 0 0 0 0 0 0 0 0 0 0 0 0 0 0 0 0 0 0 0 0 0 0 0 0 0 0 0 0 0 0 0 0 0 0 0 0 0 0 0 0 0 0 0 0 0 0 0 0 0 0 0 0 0 0 0 0 0 0 0 0 0 0 0 0 0 0 0 0 0 0 0 0 0 0 0 0 0 0 0 0 0 0 0 0 0 0 0 0 0 0 0 0 0 0 0 0 0 0 0 0 0 0 0 0 0 0 0 0 0 0 0 0 0 2501.25 3056.07 2984 3023.25 3533.58 3359.45 3285.64 3372.96 3465.77 3958.88 3935.48 3853.06 3789.7 3592.13 3445.98 3717.98 3441.45 3370.45 3351 3361.54 3335.28 3220.24 3209.89 3055.79 2733.93 2382.91 2014.01 1895.12 1832.39 1770.91 1195 1011.73 0 0 0 0 0 0 0 0 0 0 0 0 0 0 0 0 0 0 0 0 0 0 0 0 0 0 0 0 0 0 0 0 0 0 0 0 0 0 0 0 0 0 0 0 0 0 0 0 0 0 0 0 0 0 0 0 0 0 0 0 0 0 0 0 0 0 0 0 0 0 0 0 0 0 0 0 0 0 0 0 0 0 0 0 0 0 0 0 0 0 0 0 0 0 0 0 0 0 0 0 0 0 0 0 0 0 0 0 0 0 0 0 0 0 0 0 0 0 0 0 0 0 0 0 0 0 0 0 0 0 0 0 0 0 0 0 0 0 0 0 0 0 0 0 0 0 0 0 0 0 0 0 0 0 0 0 0 0 0 0 0 0 0 2084 2478.19 2391.81 2583.47 2667.81 2933.9 2927.35 2779.63 2984.47 3094.22 3110.63 3149.46 3138.74 3177.49 3060.02 3067.41 3173.89 3085.63 3034.84 2910.29 2882.44 2863.7 2861.55 2767.57 2623.22 2645.3 2468.46 1847.85 1718.38 1133.37 1001.47 0 0 0 1499.46 0 0 2800.04 2719.83 3917.01 4506.98 4517.42 3049.73 4273.71 2909.33 2968.53 3047.3 3011.74 3160.43 3072.46 3006.78 3071.06 3027.67 3066.62 3001.29 2890.34 2994.01 2754.75 2770.04 2833.9 2662.56 2581.6 2467.26 2485.94 2711.39 2408.54 2941.62 2743.31 1391.55 0 0 0 0 0 0 0 0 0 0 0 0 0 0 0 2317.03 2601.01 2865.41 2968.05 3235.46 3155.03 3086.82 3128.84 3327.8 3214.2 3309.42 3275.89 3376.29 3309.55 3296.1 3397.21 3443.43 3360.53 3455.84 3389.18 3438.07 3370.86 3440.25 3598.14 3414.42 3215.43 2943.06 0 0 0 0 0 0 0 0 0 0 0 0 0 0 0 0 0 0 0 0 0 0 0 0 0 0 0 0 0 0 0 0 0 0 0 0 0 0 0 0 0 0 0 0 0 0 0 0 0 0 0 0 0
0 0 0 0 0 0 0 0 0 0 0 0 0 0 0 0 0 0 0 0 0 0 0 0 0 0 0 0 0 0 0 0 0 0 0 0 0 0 0 0 0 0 0 0 0 0 0 0 0 0 0 0 0 0 0 0 0 0 0 0 0 0 0 0 0 0 0 0 0 0 0 0 0 0 0 0 0 0 0 0 0 0 0 0 0 0 0 0 0 0 0 0 0 0 0 0 0 0 0 0 0 0 0 0 0 0 0 0 0 0 0 0 0 0 0 0 0 0 0 0 0 0 0 0 0 0 0 0 0 0 0 0 0 0 0 0 0 0 0 0 0 0 0 0 0 0 0 0 0 0 0 0 0 2545.65 2895.72 2947.46 3142.26 3598.29 3466.77 3349.46 4175.74 4135.7 4133.67 4308.16 3893.56 3770.54 3653.85 3635.64 3651.39 3442.65 3393.29 3354.62 3409.77 3404.31 3855.71 4039.03 3097.94 2904.04 2467.4 2050.59 1918.4 1561.16 1584.14 1131.52 1004.97 0 0 0 0 0 0 0 0 0 0 0 0 0 0 0 0 0 0 0 0 0 0 0 0 0 0 0 0 0 0 0 0 0 0 0 0 0 0 0 0 0 0 0 0 0 0 0 0 0 0 0 0 0 0 0 0 0 0 0 0 0 0 0 0 0 0 0 0 0 0 0 0 0 0 0 0 0 0 0 0 0 0 0 0 0 0 0 0 0 0 0 0 0 0 0 0 0 0 0 0 0 0 0 0 0 0 0 0 0 0 0 0 0 0 0 0 0 0 0 0 0 0 0 0 0 0 0 0 0 0 0 0 0 0 0 0 0 0 0 0 0 0 0 0 0 0 0 0 0 0 0 0 0 0 0 0 0 0 0 0 0 0 0 2351.06 2543.72 2461.76 2599.24 2788.91 3022.27 3019.11 2887.3 3049.85 3135.8 3168.19 3193.52 3184.07 3198.88 3110.69 3100.51 3175.69 3065.95 3040.56 2905.7 2913.52 3733.04 2890.68 2775.95 2667.85 2726.95 2563.89 1895.38 1770.21 1100.33 995.383 1017.27 1407.32 0 1760.43 0 0 2965.96 2889.99 4266.53 4599.78 4609.63 3140.03 3144.27 3070.38 3087.73 3185.7 3110.51 3195.41 3113.4 3056.07 3120.17 3056.4 3045.97 2966.06 2849.01 2947.2 2773.29 2758.33 2811.02 2667 2607.4 2512.11 2635.66 2800.08 2681.92 3028.54 2784.61 1244.12 1244.43 0 0 0 0 0 0 0 0 0 0 0 0 1394.41 0 1906.67 2358.5 2742.37 2923.22 3104.53 3069.26 2934.47 3079.12 3308.58 3201.2 3627.86 3282.23 3365.25 3308.25 3305.38 3398.79 3419.5 3328.13 3423.83 3292.15 3307.14 3273.97 3384.87 3502.52 3421.94 3242.59 2980.92 2866.83 2898.27 2398.38 1546.14 0 0 0 0 0 0 0 0 0 0 0 0 0 0 0 0 0 0 0 0 0 0 0 0 0 0 0 0 0 0 0 0 0 0 0 0 0 0 0 0 0 0 0 0 0 0 0 0 0
0 0 0 0 0 0 0 0 0 0 0 0 0 0 0 0 0 0 0 0 0 0 0 0 0 0 0 0 0 0 0 0 0 0 0 0 0 0 0 0 0 0 0 0 0 0 0 0 0 0 0 0 0 0 0 0 0 0 0 0 0 0 0 0 0 0 0 0 0 0 0 0 0 0 0 0 0 0 0 0 0 0 0 0 0 0 0 0 0 0 0 0 0 0 0 0 0 0 0 0 0 0 0 0 0 0 0 0 0 0 0 0 0 0 0 0 0 0 0 0 0 0 0 0 0 0 0 0 0 0 0 0 0 0 0 0 0 0 0 0 0 0 0 0 0 0 0 0 0 0 0 0 0 3086.88 3140.21 2828.12 3112.94 3325.3 3266.13 3154.26 4035.14 3995.08 3989.09 3940.01 3836.14 3681.51 3603.39 3590.06 3590.82 3582.85 3420.69 3408.11 3443.22 3414.7 3869.49 3991.94 3146.8 2883.18 2433.83 2070.86 2004.98 1732.97 1682.42 1277.39 0 0 0 0 0 0 0 0 0 0 0 0 0 0 0 0 0 0 0 0 0 0 0 0 0 0 0 0 0 0 0 0 0 0 0 0 0 0 0 0 0 0 0 0 0 0 0 0 0 0 0 0 0 0 0 0 0 0 0 0 0 0 0 0 0 0 0 0 0 0 0 0 0 0 0 0 0 0 0 0 0 0 0 0 0 0 0 0 0 0 0 0 0 0 0 0 0 0 0 0 0 0 0 0 0 0 0 0 0 0 0 0 0 0 0 0 0 0 0 0 0 0 0 0 0 0 0 0 0 0 0 0 0 0 0 0 0 0 0 0 0 0 0 0 0 0 0 0 0 0 0 0 0 0 0 0 0 0 0 0 0 0 0 2209.33 2582.24 2888.89 2899.08 2875.92 3119.83 3164.07 3133.52 3033.14 3122.32 3182.74 3198.27 3177.91 3206.21 3173.89 3131.36 3155.32 3628.96 3098.68 3777.07 2932.67 2973.47 3752.91 2963.75 2885.17 2793.09 2852.01 2732.72 2104.65 1917.08 1234.92 1059.99 0 0 0 0 0 0 2660.83 2757.7 4226.34 4678.4 4426.48 2957.43 3023.36 2931.08 2990.64 3119.65 3069.32 3123.43 3043.32 3030.45 3157.46 3084.89 3115.48 3018.46 2906.16 2967.27 2838.6 2846.59 2869.08 2670.35 2542.48 2313.81 2476.44 2585.3 2482.67 2810.07 2679.61 1274.21 1162.17 0 0 0 0 0 0 0 0 0 0 0 0 1799.34 1935.68 0 2743.81 3312.63 3333.89 3401.41 3275.12 3085.23 3202.05 3382.07 3312.04 3797.42 3614.34 3367.82 3288.8 3300.05 3636.11 3459.83 3378.46 3411.3 3314.85 3303.56 3275.44 3387.47 3495.37 3423.83 3098.79 2885.66 2781.38 2606.11 2174.68 1583.24 1074.02 0 0 0 0 0 0 0 0 0 0 0 0 0 0 0 0 0 0 0 0 0 0 0 0 0 0 0 0 0 0 0 0 0 0 0 0 0 0 0 0 0 0 0 0 0 0 0 0
0 0 0 0 0 0 0 0 0 0 0 0 0 0 0 0 0 0 0 0 0 0 0 0 0 0 0 0 0 0 0 0 0 0 0 0 0 0 0 0 0 0 0 0 0 0 0 0 0 0 0 0 0 0 0 0 0 0 0 0 0 0 0 0 0 0 0 0 0 0 0 0 0 0 0 0 0 0 0 0 0 0 0 0 0 0 0 0 0 0 0 0 0 0 0 0 0 1720.58 2048.61 2574.75 1858.53 1972.08 0 0 0 0 0 0 0 0 0 0 0 0 0 0 0 0 0 0 0 0 0 0 0 0 0 0 0 0 0 0 0 0 0 0 0 0 0 0 0 0 0 0 0 0 0 0 0 0 0 0 0 0 3299.86 2749.52 3001.24 3190.06 3225.88 3173.89 3209.16 3248.17 3239.77 3791.15 3776.39 3617.38 3570.04 3562.23 3552.35 3601.46 3639.9 3411.71 3426.83 3392.47 3294.15 3279.73 3158.89 3008.34 2566.32 2258.06 2213.85 1774.76 1794.83 1413.93 0 0 0 0 0 0 0 0 0 0 0 0 0 0 0 0 0 0 0 0 0 0 0 0 0 0 0 0 0 0 0 0 0 0 0 0 0 0 0 0 0 0 0 0 0 0 0 0 0 0 0 0 0 0 0 0 0 0 0 0 0 0 0 0 0 0 0 0 0 0 0 0 0 0 0 0 0 0 0 0 0 0 0 0 0 0 0 0 0 0 0 0 0 0 0 0 0 0 0 0 0 0 0 0 0 0 0 0 0 0 0 0 0 0 0 0 0 0 0 0 0 0 0 0 0 0 0 0 0 0 0 0 0 0 0 0 0 0 0 0 0 0 0 0 0 0 0 0 0 0 0 0 0 0 0 0 0 0 0 0 0 0 0 0 2460.35 2664.29 2947.3 2939.15 3213.89 3201.08 3218.7 3119.13 3232.72 3247.73 3284.16 3281.08 3322.4 3259.15 3231.28 3216.17 3628.8 3599.76 3760.98 3723.18 3864.06 3940.29 4053.77 4091.43 3770.37 2904.04 2948.65 2505.24 2325.9 1679.81 1383.96 0 1811.77 2144.17 2506.29 0 0 2881.4 3873.96 4523.26 4797.18 3069.99 4577.44 4570.21 3023.63 3021.07 3111.21 3035.39 3115.66 3050.01 3065.9 3178.82 3110.51 3133.64 3042.93 2937.4 2975.16 2813.14 2816.54 2827.26 2623.67 2377.98 2127.47 2294.88 2398.07 2362.35 2668.49 2370.56 1327.13 0 0 0 0 0 0 0 0 0 0 0 813.017 1279.24 1542.27 1877.5 0 2557.21 3140.32 3162.22 3236.71 3145.15 3067.3 3133.46 3311.71 3276.98 3870.92 3671.6 3319.11 3259.22 3801.63 3707.05 3727.23 3398.17 3414.35 3327.61 3356.83 3999.94 3485.71 3591.98 3575.6 3168.43 2983.57 2984 2902.94 2419.06 1663.47 919.427 0 0 0 0 0 0 0 0 0 0 0 0 0 0 0 0 0 0 0 0 0 0 0 0 0 0 0 0 0 0 0 0 0 0 0 0 0 0 0 0 0 0 0 0 0 0 0 0
0 0 0 0 0 0 0 0 0 0 0 0 0 0 0 0 0 0 0 0 0 0 0 0 0 0 0 0 0 0 0 0 0 0 0 0 0 0 0 0 0 0 0 0 0 0 0 0 0 0 0 0 0 0 0 0 0 0 0 0 0 0 0 0 0 0 0 0 0 0 0 0 0 0 0 0 0 0 0 0 0 0 0 0 0 0 0 0 0 0 0 0 0 0 0 0 0 2164.89 2067.46 2375.63 1992.48 2081.11 0 0 0 0 0 0 0 0 0 0 0 0 0 0 0 0 0 0 0 0 0 0 0 0 0 0 0 0 0 0 0 0 0 0 0 0 0 0 0 0 0 0 0 0 0 0 0 0 0 0 0 0 3167.65 2672.91 2841.92 2947.56 3045.42 2987.82 3076.86 3144.68 4007.77 3107.4 3612.47 3218.51 3589.83 3251.7 3318.06 3365.86 3397.82 3379.89 3364.3 3325.96 3266.51 3217.1 3129.37 2970.05 2616.88 2264.28 2063.55 1770.23 1739.15 1480.8 0 0 0 0 0 0 0 0 0 0 0 0 0 0 0 0 0 0 0 0 0 0 0 0 0 0 0 0 0 0 0 0 0 0 0 0 0 0 0 0 0 0 0 0 0 0 0 0 0 0 0 0 0 0 0 0 0 0 0 0 0 0 0 0 0 0 0 0 0 0 0 0 0 0 0 0 0 0 0 0 0 0 0 0 0 0 0 0 0 0 0 0 0 0 0 0 0 0 0 0 0 0 0 0 0 0 0 0 0 0 0 0 0 0 0 0 0 0 0 0 0 0 0 0 0 0 0 0 0 0 0 0 0 0 0 0 0 0 0 0 0 0 0 0 0 0 0 0 0 0 0 0 0 0 0 0 0 0 0 0 0 0 0 2162.82 2779.63 2981.19 3131.41 3023.9 3292.99 3309.42 3232.9 3146.8 3215.37 3228.11 3289.05 3300.31 3351.33 3277.55 3269.38 3545.9 3708.86 3727.23 3827.22 3790.3 3965.34 4034.85 4180.84 3924.25 2971.79 2820.23 2673.25 2114.89 1885.62 1302.42 0 0 1884.78 2266.85 2476.73 2888.25 3737.94 4075.43 4575.94 4886.03 5007.06 4845.95 3603.7 3618.16 3586.3 3115.13 3187.33 3073.82 3118.84 3099.71 3128.26 3210.26 3150.11 3166.82 3123.49 3041.66 3107.12 2984.53 2992.03 3033.19 2872.67 2661.67 2458.04 2621.82 2686.56 2658.38 3051.9 2760.47 1638.56 0 0 0 0 0 0 0 0 0 0 0 952.904 1150.13 1537.09 1934.05 0 2497 3146.57 3052.51 3141.68 3110.86 3092.57 3120.52 3278.26 3251.83 4024.4 3851.46 3733.45 3184.49 3677.8 3713.86 3348.12 3265.5 3279.6 3134.63 3160.02 3220.74 3287.64 3380.98 3373.23 2940.28 2661.08 2615.49 2687.21 1977.43 1611.37 983.422 0 0 0 0 0 0 0 0 0 0 0 0 0 0 0 0 0 0 0 0 0 0 0 0 0 0 0 0 0 0 0 0 0 0 0 0 0 0 0 0 0 0 0 0 0 0 0 0
0 0 0 0 0 0 0 0 0 0 0 0 0 0 0 0 0 0 0 0 0 0 0 0 0 0 0 0 0 0 0 0 0 0 0 0 0 0 0 0 0 0 0 0 0 0 0 0 0 0 0 0 0 0 0 0 0 0 0 0 0 0 0 0 0 0 0 0 0 0 0 0 0 0 0 0 0 0 0 0 0 0 0 0 0 0 0 0 0 0 0 0 0 0 0 0 0 0 0 0 2199.69 2179.26 2210 0 0 0 0 0 0 0 0 0 0 0 0 0 0 0 0 0 0 0 0 0 0 0 0 0 0 0 0 0 0 0 0 0 0 0 0 0 0 0 0 0 0 0 0 0 0 0 0 0 0 0 2961.14 2614.02 2715.74 2858.77 3046.97 3009.64 3125.23 3196.2 3172.93 3166.34 3246.1 3277.36 3659.27 3266.2 3334.88 3354.35 3337.2 3281.27 3234.34 3160.55 3062.76 3013.26 2917.83 2745.24 2428.93 2169.06 2017.11 1791.88 1872.3 0 0 0 0 0 0 0 0 0 0 0 0 0 0 0 0 0 0 0 0 0 0 0 0 0 0 0 0 0 0 0 0 0 0 0 0 0 0 0 0 0 0 0 0 0 0 0 0 0 0 0 0 0 0 0 0 0 0 0 0 0 0 0 0 0 0 0 0 0 0 0 0 0 0 0 0 0 0 0 0 0 0 0 0 0 0 0 0 0 0 0 0 0 0 0 0 0 0 0 0 0 0 0 0 0 0 0 0 0 0 0 0 0 0 0 0 0 0 0 0 0 0 0 0 0 0 0 0 0 0 0 0 0 0 0 0 0 0 0 0 0 0 0 0 0 0 0 0 0 0 0 0 0 0 0 0 0 0 0 0 0 0 0 0 2370.69 3056.35 3150.76 3252.33 3124.47 3288.6 3331.57 3279.79 3248.43 3272.95 3326.15 3384.87 3399.75 3423.69 3373.3 3326.81 3560.87 3713.13 3780.39 3807.85 3796.47 4044.97 3126.57 4295.92 4050.63 3077.25 2929.96 2684.07 2287.09 1994.66 1343.03 1149.76 0 1791.17 2543.6 2931.29 3096.45 3230.16 3891.03 4755.85 4939.25 3853.23 3719.3 3327.21 3346.72 3366.26 3133.87 3578.88 3155.26 3181.59 3136.86 3167.06 3207.32 3166.46 3164.91 3166.34 3062.37 3069.2 2991.39 3032.97 3099.37 2957.75 2801.58 2504.34 2603.76 2364.51 2445.79 0 0 0 0 0 0 0 0 0 0 0 0 0 0 1899.91 1649.83 1893.22 2339.39 0 2588.57 3166.46 3008.56 3188.24 3165.44 3158.23 3141.91 3838.25 3160.26 3988.53 3223.71 3759.64 3066.85 3736.69 3732.37 3671.28 3142.91 3173.89 3055.34 3101.66 3159.24 3203.28 3004.46 2962.19 2646.85 2322.29 2379.03 2341.94 1752.74 0 0 0 0 0 0 0 0 0 0 0 0 0 0 0 0 0 0 0 0 0 0 0 0 0 0 0 0 0 0 0 0 0 0 0 0 0 0 0 0 0 0 0 0 0 0 0 0 0 0
0 0 0 0 0 0 0 0 0 0 0 0 0 0 0 0 0 0 0 0 0 0 0 0 0 0 0 0 0 0 0 0 0 0 0 0 0 0 0 0 0 0 0 0 0 0 0 0 0 0 0 0 0 0 0 0 0 0 0 0 0 0 0 0 0 0 0 0 0 0 0 0 0 0 0 0 0 0 0 0 0 0 0 0 0 0 0 0 0 0 0 0 0 0 0 2819.61 2534.46 2247.3 2318.7 2485.02 2153.77 2118.39 2131.58 2057.93 2296.95 2525.99 0 0 0 0 0 0 0 0 0 0 0 0 0 0 0 0 0 0 0 0 0 0 0 0 0 0 0 0 0 0 0 0 0 0 0 0 0 0 0 0 0 0 0 0 0 0 0 0 0 2814.74 2902.89 3038.08 3160.49 3111.96 3215.06 3295.19 3263.78 3208.91 3277.74 3290.79 3622.61 3264.92 3346.32 3352.41 3302.97 3262.89 3250.63 3188.66 3107.29 3102.35 3014.45 2821.04 2560.92 2336.26 2107.96 1843.58 1786.88 0 0 0 0 0 0 0 0 0 0 0 0 0 0 0 0 0 0 0 0 0 0 0 0 0 0 0 0 0 0 0 0 0 0 0 0 0 0 0 0 0 0 0 0 0 0 0 0 0 0 0 0 0 0 0 0 0 0 0 0 0 0 0 0 0 0 0 0 0 0 0 0 0 0 0 0 0 0 0 0 0 0 0 0 0 0 0 0 0 0 0 0 0 0 0 0 0 0 0 0 0 0 0 0 0 0 0 0 0 0 0 0 0 0 0 0 0 0 0 0 0 0 0 0 0 0 0 0 0 0 0 0 0 0 0 0 0 0 0 0 0 0 0 0 0 0 0 0 0 0 0 0 0 0 0 0 0 0 0 0 0 0 0 0 2459.52 2903.99 3020.53 3157.82 3125.99 3263.84 3312.04 3223.15 3253.4 3262.38 3329.92 3412.27 3444.7 3454.49 3419.08 3398.72 3639.82 3728.14 3776.65 3830.27 3814.68 4011.89 4130.61 4243.98 4062.99 3009.26 2927.15 2743.9 2509.25 2357.07 1652.46 1466.46 1665.04 1990.4 2643.85 2935.34 3101.14 3231.91 3058.41 4936.93 4815.08 4867.18 3607.58 3179.84 3177.19 3166.94 3072.35 3196.81 3100.8 3157.52 3085.06 3125.35 3160.32 3170.17 3180.87 3211.18 3100 3076.01 2990.16 3089.72 3185.46 3081.1 2879.08 2666.15 2846.35 2642.47 2810.92 0 0 0 0 0 0 0 0 0 0 0 0 0 0 0 0 0 0 0 2320.37 2968.74 2945.75 3070.95 3104.07 3127.39 3137.86 3225.2 3165.44 4037.57 3886.26 3732.37 3066.29 3807.33 3813.21 3804.05 3690.58 3844.14 3003.39 3066.12 3047.74 3082.4 2952.13 2983.62 2727.3 2152.31 2172.06 2186.24 0 0 0 0 0 0 0 0 0 0 0 0 0 0 0 0 0 0 0 0 0 0 0 0 0 0 0 0 0 0 0 0 0 0 0 0 0 0 0 0 0 0 0 0 0 0 0 0 0 0 0
0 0 0 0 0 0 0 0 0 0 0 0 0 0 0 0 0 0 0 0 0 0 0 0 0 0 0 0 0 0 0 0 0 0 0 0 0 0 0 0 0 0 0 0 0 0 0 0 0 0 0 0 0 0 0 0 0 0 0 0 0 0 0 0 0 0 0 0 0 0 0 0 0 0 0 0 0 0 0 0 0 0 0 0 0 0 0 0 0 0 2761.97 2938.42 0 2824.31 2875.72 2829.5 2621.87 2489.63 2626.63 2780.87 2537.18 2527.36 2418.92 2366.18 2549.01 2777.92 0 2426.65 0 0 0 0 0 0 0 0 0 0 0 0 0 0 0 0 0 0 0 0 0 0 0 0 0 0 0 0 0 0 0 0 0 0 0 0 0 0 0 0 0 0 0 0 0 0 0 2595.54 2752.54 2921.9 3068.03 3051.9 3164.37 3210.2 3241.4 3192.37 3260.99 3259.41 3739.53 3242.4 3299.6 3284.29 3262.38 3185.27 3154.02 3091.66 3002.74 2991.07 2870.21 2778.25 2509.63 2355.58 2189.09 1826.11 1682.5 1601.97 0 0 0 0 0 0 0 0 0 0 0 0 0 0 0 0 0 0 0 0 0 0 0 0 0 0 0 0 0 0 0 0 0 0 0 0 0 0 0 0 0 0 0 0 0 0 0 0 0 0 0 0 0 0 0 0 0 0 0 0 0 0 0 0 0 0 0 0 0 0 0 0 0 0 0 0 0 0 0 0 0 0 0 0 0 0 0 0 0 0 0 0 0 0 0 0 0 0 0 0 0 0 0 0 0 0 0 0 0 0 0 0 0 0 0 0 0 0 0 0 0 0 0 0 0 0 0 0 0 0 0 0 0 0 0 0 0 0 0 0 0 0 0 0 0 0 0 0 0 0 0 0 0 0 0 0 0 0 0 0 0 0 0 2374.08 3015.75 3163.41 3297.72 3341.59 3453.43 3428.37 3307.08 3290.67 3264.86 3292.54 3374.86 3368.83 3376.08 3344.19 3335.61 3404.1 3731.62 3768.93 3863.7 3742.19 4102.13 4186.16 4190.13 3231.1 3030.89 2917.93 2647.93 2321.33 2172.03 1499.84 1474.01 1684.36 1844.86 2279.14 2857.6 3061.53 3259.85 3191.76 4999.45 4858.3 4886.6 3821.72 3423.83 3353.61 3382.75 3126.57 3527.11 3172.03 3218.82 3142.5 3195.83 3200.46 3196.81 3158 3232.72 3081.89 3017.7 2911.7 2960.2 3021.99 2932.67 5533.69 2549.67 2574.28 2144.63 2293 0 0 0 0 0 0 0 0 0 0 0 0 0 0 0 0 0 0 0 2390.42 3105.16 3033.74 3054.56 3171.49 3106.6 3076.18 3138.09 3092.85 3869.05 3010.82 3015.96 2936.57 3663.03 3809.06 3077.08 2999.57 3005.54 2859.84 2937.34 3028.27 3081.15 2935.49 2938.68 2846.11 2538.14 2617.9 2865.55 0 0 0 0 0 0 0 0 0 0 0 0 0 0 0 0 0 0 0 0 0 0 0 0 0 0 0 0 0 0 0 0 0 0 0 0 0 0 0 0 0 0 0 0 0 0 0 0 0 0 0
0 0 0 0 0 0 0 0 0 0 0 0 0 0 0 0 0 0 0 0 0 0 0 0 0 0 0 0 0 0 0 0 0 0 0 0 0 0 0 0 0 0 0 0 0 0 0 0 0 0 0 0 0 0 0 0 0 0 0 0 0 0 0 0 0 0 0 0 0 0 0 0 0 0 0 0 0 0 0 0 0 0 0 0 0 0 0 0 0 0 2731.79 3022.54 2976.64 3021.07 3063.94 3032.48 2940.9 2701.44 2788.68 2907.31 2648.9 2674.19 2577.99 2469.18 2626.67 2743.18 2779.67 0 0 0 0 0 0 0 0 0 0 0 0 0 0 0 0 0 0 0 0 0 0 0 0 0 0 0 0 0 0 0 0 0 0 0 0 0 0 0 0 0 0 0 0 0 0 0 0 2759.06 2942.96 2974.58 3130.83 3007.58 3078.44 3123.89 3142.03 3108.67 3771.81 3707.96 3355.02 3597.29 3247.04 3250.69 3218.14 3170.95 3148.51 3085.8 2973.58 2919.2 2838.6 2806.97 2535.99 2453.12 2226.33 1830.63 1570.41 0 0 0 0 0 0 0 0 0 0 0 0 0 0 0 0 0 0 0 0 0 0 0 0 0 0 0 0 0 0 0 0 0 0 0 0 0 0 0 0 0 0 0 0 0 0 0 0 0 0 0 0 0 0 0 0 0 0 0 0 0 0 0 0 0 0 0 0 0 0 0 0 0 0 0 0 0 0 0 0 0 0 0 0 0 0 0 0 0 0 0 0 0 0 0 0 0 0 0 0 0 0 0 0 0 0 0 0 0 0 0 0 0 0 0 0 0 0 0 0 0 0 0 0 0 0 0 0 0 0 0 0 0 0 0 0 0 0 0 0 0 0 0 0 0 0 0 0 0 0 0 0 0 0 0 0 0 0 0 0 0 0 0 0 2977.11 3293.44 3217.96 3319.97 3493.91 3549.95 3488.97 3360.13 3376.83 3274.48 3321.28 3876.38 3362.62 3315.11 3285.19 3291.51 3383.98 3753.41 3796.64 3917.1 3234.02 4160.42 4248.92 3294.48 3311.45 3163.83 3068.81 2840.67 2388.21 2394.51 1619.87 1735.1 2197.27 2203.38 2473.11 2903.74 3219.07 3272.06 3204.68 4939.98 3363.9 4730.9 3677.72 3396.04 3181.05 3148.51 3084.55 3191.64 3117.51 3474.67 3114.79 3142.44 3161.86 3152.42 3145.62 3189.39 3083.53 2985.75 2925.05 2906.21 2978.96 2891.58 5618 2629.18 2730.41 1884.23 2058.94 0 0 0 0 0 0 0 0 0 0 0 0 0 0 0 0 0 0 0 0 0 3037.92 3191.27 3300.9 3202.3 3244.91 3300.38 3322.07 3272.5 3132.35 3146.92 3042.99 3069.09 3033.36 3092.74 2986.6 2867.76 2776.55 2739.42 2851.58 2929.14 2823.69 2947.3 2793.23 2498.64 2549.05 0 0 0 0 0 0 0 0 0 0 0 0 0 0 0 0 0 0 0 0 0 0 0 0 0 0 0 0 0 0 0 0 0 0 0 0 0 0 0 0 0 0 0 0 0 0 0 0 0 0 0 0
0 0 0 0 0 0 0 0 0 0 0 0 0 0 0 0 0 0 0 0 0 0 0 0 0 0 0 0 0 0 0 0 0 0 0 0 0 0 0 0 0 0 0 0 0 0 0 0 0 0 0 0 0 0 0 0 0 0 0 0 0 0 0 0 0 0 0 0 0 0 0 0 0 0 0 0 0 0 0 0 0 0 0 0 0 0 0 0 0 0 2798.31 3083.48 2961.03 3067.46 3162.58 3203.34 3257.32 3108.67 3054.01 3113.8 2893.08 2966.79 2814.22 2731.26 2805.99 2773.75 2695.97 2553.59 2298.43 2303.04 0 0 0 0 0 0 0 0 0 0 0 0 0 0 0 0 0 0 0 0 0 0 0 0 0 0 0 0 0 0 0 0 0 0 0 0 0 0 0 0 0 0 0 0 0 0 2840.19 2802.61 2962.86 2909.58 2963.55 3008.5 3044.97 3066.4 3836.32 3182.07 3313.87 3208.85 3258.96 3283.71 3307.14 3208.48 3169.39 3118.43 3009.69 2969.42 2851.04 2837.11 2598.92 2447.96 2352.74 1992.58 1655 0 0 0 0 0 0 0 0 0 0 0 0 0 0 0 0 0 0 0 0 0 0 0 0 0 0 0 0 0 0 0 0 0 0 0 0 0 0 0 0 0 0 0 0 0 0 0 0 0 0 0 0 0 0 0 0 0 0 0 0 0 0 0 0 0 0 0 0 0 0 0 0 0 0 0 0 0 0 0 0 0 0 0 0 0 0 0 0 0 0 0 0 0 0 0 0 0 0 0 0 0 0 0 0 0 0 0 0 0 0 0 0 0 0 0 0 0 0 0 0 0 0 0 0 0 0 0 0 0 0 0 0 0 0 0 0 0 0 0 0 0 0 0 0 0 0 0 0 0 0 0 0 0 0 0 0 0 0 0 0 0 0 0 0 2816.35 3301.02 3201.93 3305.84 3458.48 3535.81 3347.72 3311.06 3407.28 3283.32 3307.79 3966.37 3367.88 3730.96 3248.11 3672.25 3763.43 3823.81 3886.8 3964.49 3776.56 4174.29 3125.35 3229.23 3249.62 3136.57 3146.74 2886.56 2571.36 2664.8 1815.44 1944.88 2151.23 2082.42 2291.68 2642.26 3094.74 3159.84 3130.48 4698.84 4265.01 3371.54 4458.95 3395.21 3214.81 3157.82 3119.19 3185.64 3146.92 3138.91 3093.88 3150.94 3154.55 3146.15 3142.79 3157.64 3060.75 2916.56 2892.23 2892.48 2962.76 2932.77 5655.31 2713.37 2636.74 1669.01 1956.49 0 0 0 0 0 0 0 0 0 0 0 0 0 0 0 0 0 0 0 0 0 2974.1 3240.96 3361.81 3325.69 3409.49 4101.53 4060.14 4014.1 3167.59 3083.14 2945.85 2955.92 2879.87 2882.09 2792.72 2698.83 2594.62 2627 2693.81 2826.31 2690.39 2784.93 2683.68 2310.65 2049.16 0 0 0 0 0 0 0 0 0 0 0 0 0 0 0 0 0 0 0 0 0 0 0 0 0 0 0 0 0 0 0 0 0 0 0 0 0 0 0 0 0 0 0 0 0 0 0 0 0 0 0 0
0 0 0 0 0 0 0 0 0 0 0 0 0 0 0 0 0 0 0 0 0 0 0 0 0 0 0 0 0 0 0 0 0 0 0 0 0 0 0 0 0 0 0 0 0 0 0 0 0 0 0 0 0 0 0 0 0 0 0 0 0 0 0 0 0 0 0 0 0 0 0 0 0 0 0 0 0 0 0 0 0 0 0 0 0 0 0 0 0 2998.55 2980.87 3249.94 3076.07 3227.62 3179.72 3195.16 3246.73 3176.41 3036.54 3062.03 2883.33 2917.53 2797.89 2817.91 2899.13 2881.1 2824.88 2812.76 2527.93 2559.32 2507.23 0 0 0 0 0 0 0 0 0 0 0 0 0 0 0 0 0 0 0 0 0 0 0 0 0 0 0 0 0 0 0 0 0 0 0 0 0 0 0 0 0 0 0 0 0 2893.28 2806.13 2952.65 2878.58 2901.03 2958.89 2961.45 3007.53 3085.91 3124.3 3875.93 3139.03 3164.49 3181.29 3206.4 3134.4 3035.88 2992.24 2887.05 2861.55 2695.97 2654.81 2505.95 2437.76 2410.34 2208.11 0 0 0 0 0 0 0 0 0 0 0 0 0 0 0 0 0 0 0 0 0 0 0 0 0 0 0 0 0 0 0 0 0 0 0 0 0 0 0 0 0 0 0 0 0 0 0 0 0 0 0 0 0 0 0 0 0 0 0 0 0 0 0 0 0 0 0 0 0 0 0 0 0 0 0 0 0 0 0 0 0 0 0 0 0 0 0 0 0 0 0 0 0 0 0 0 0 0 0 0 0 0 0 0 0 0 0 0 0 0 0 0 0 0 0 0 0 0 0 0 0 0 0 0 0 0 0 0 0 0 0 0 0 0 0 0 0 0 0 0 0 0 0 0 0 0 0 0 0 0 0 0 0 0 0 0 0 0 0 0 0 0 0 0 0 2637.61 3305.06 3448.31 3609.75 3658.39 3710.58 3446.61 3395.28 3467.34 3306.55 3286.41 3339.06 3274.74 3293.31 3191.45 3249.18 3290.41 3279.99 3382.55 3326.42 3223.83 4005.86 3148.87 3285.06 3357.5 3268.87 3176.59 2831.51 2604 2488.26 1730.07 1958 2202.43 2141.24 2362.48 2628.6 3037.48 3048.79 3061.59 4343.18 3247.55 3286.03 3179.36 3172.09 3108.27 3056.07 3016.78 3080.98 3087.33 3075.22 3006.72 3046.47 3083.76 3101.2 3107.29 3202.91 3109.82 2904.65 2881.35 2949.89 3076.35 3062.93 5740.44 2683.38 2174.54 1063.51 1256.07 0 0 0 0 0 0 0 0 0 0 0 0 0 0 0 0 0 0 0 0 0 2819.47 3244.91 3395.14 3492.17 3325.3 3141.62 3229.79 3214.01 3051.12 2982.25 2838.41 2838.94 2744.26 2764.06 2740.09 2678.92 2605.74 2569.55 2580.02 2616.84 2507.19 2457.29 2329.16 1919.05 1660.69 0 0 0 0 0 0 0 0 0 0 0 0 0 0 0 0 0 0 0 0 0 0 0 0 0 0 0 0 0 0 0 0 0 0 0 0 0 0 0 0 0 0 0 0 0 0 0 0 0 0 0 0
0 0 0 0 0 0 0 0 0 0 0 0 0 0 0 0 0 0 0 0 0 0 0 0 0 0 0 0 0 0 0 0 0 0 0 0 0 0 0 0 0 0 0 0 0 0 0 0 0 0 0 0 0 0 0 0 0 0 0 0 0 0 0 0 0 0 0 0 0 0 0 0 0 0 0 0 0 0 0 0 0 0 0 0 0 0 0 0 2463.64 3017.92 3102.63 3260.74 3068.59 3253.78 3146.33 3213.03 3241.46 3171.07 3083.93 3095.71 2993.74 3079.97 2998.13 3072.46 3107.29 3040.45 2991.87 2933.08 2666.41 2685.31 2585.42 2149.52 1545.97 0 0 0 0 0 0 0 0 0 0 0 0 0 0 0 0 0 0 0 0 0 0 0 0 0 0 0 0 0 0 0 0 0 0 0 0 0 0 0 0 0 2875.77 2891.48 2805.94 2821.79 2966.69 2946.16 2968.32 3052.56 3044.15 3056.9 3077.48 3178.09 3200.59 3185.88 3124.77 3102.4 3071.85 2975.32 2869.43 2880.31 2730.46 2658.72 2512.93 2618.27 2437.54 2451 2420.07 1976.71 0 0 0 0 0 0 0 0 0 0 0 0 0 0 0 0 0 0 0 0 0 0 0 0 0 0 0 0 0 0 0 0 0 0 0 0 0 0 0 0 0 0 0 0 0 0 0 0 0 0 0 0 0 0 0 0 0 0 0 0 0 0 0 0 0 0 0 0 0 0 0 0 0 0 0 0 0 0 0 0 0 0 0 0 0 0 0 0 0 0 0 0 0 0 0 0 0 0 0 0 0 0 0 0 0 0 0 0 0 0 0 0 0 0 0 0 0 0 0 0 0 0 0 0 0 0 0 0 0 0 0 0 0 0 0 0 0 0 0 0 0 0 0 0 0 0 0 0 0 0 0 0 0 0 0 0 0 0 0 0 0 0 0 0 0 2649.1 3505.01 3637.93 3745.12 3870.48 3859.79 3595.13 3503.54 3553.03 3418.66 3366.19 3393.7 3364.71 3330.45 3239.14 3287.76 3319.31 3341.66 3425.43 3379.96 3277.36 3281.46 3204.62 3304.28 3374.66 3207.19 3130.36 2547.62 2220.97 2230.24 1822.95 2238.78 2443.65 2306.24 2560.76 2779.44 3135.1 3198.57 3148.34 3267.15 3230.97 3250.12 3192.91 3172.63 3077.25 3058.8 3025.65 3884.37 3093.99 3098.05 3051.07 3057.12 3089.66 3157.88 3119.83 3211.92 3172.51 3000.38 2948.6 3043.87 3259.72 3271.74 6055.57 2885.32 2187.1 591.068 486.865 132.057 304.903 0 0 0 0 0 0 0 0 0 0 0 0 0 0 0 0 0 0 0 2161.37 2596.31 2762.87 3162.28 2975.16 2774.39 2914.59 2812.76 2677.39 2677.81 2587.46 2644.47 2518.25 2495.22 2536.76 2559.74 2588.14 2635.25 2623.46 0 0 0 0 0 0 0 0 0 0 0 0 0 0 0 0 0 0 0 0 0 0 0 0 0 0 0 0 0 0 0 0 0 0 0 0 0 0 0 0 0 0 0 0 0 0 0 0 0 0 0 0 0 0 0 0 0 0
0 0 0 0 0 0 0 0 0 0 0 0 0 0 0 0 0 0 0 0 0 0 0 0 0 0 0 0 0 0 0 0 0 0 0 0 0 0 0 0 0 0 0 0 0 0 0 0 0 0 0 0 0 0 0 0 0 0 0 0 0 0 0 0 0 0 0 0 0 0 0 0 0 0 0 0 0 0 0 0 0 0 0 0 0 0 0 2214.17 2620.06 3082.12 3095.65 3254.16 3129.19 3328.4 3288.09 3357.77 3398.72 3358.98 3316.42 3284.42 3251.95 3289.63 3157.46 3131.41 3115.08 2947.1 2865.02 2777.37 2632.77 2548.24 2475.96 0 0 0 0 0 0 0 0 0 0 0 0 0 0 0 0 0 0 0 0 0 0 0 0 0 0 0 0 0 0 0 0 0 0 0 0 0 0 0 0 0 0 0 2472.17 2836.49 2825.45 2777.51 2837.06 2822.17 2908.42 3008.29 2960.67 2995.08 2992.62 3076.86 3121.1 3157.64 3147.63 3075.9 2987.93 2928.17 2823.69 2781.42 2647.64 2564.79 2361.58 2389.29 2142.09 2128.34 2130.47 0 0 0 0 0 0 0 0 0 0 0 0 0 0 0 0 0 0 0 0 0 0 0 0 0 0 0 0 0 0 0 0 0 0 0 0 0 0 0 0 0 0 0 0 0 0 0 0 0 0 0 0 0 0 0 0 0 0 0 0 0 0 0 0 0 0 0 0 0 0 0 0 0 0 0 0 0 0 0 0 0 0 0 0 0 0 0 0 0 0 0 0 0 0 0 0 0 0 0 0 0 0 0 0 0 0 0 0 0 0 0 0 0 0 0 0 0 0 0 0 0 0 0 0 0 0 0 0 0 0 0 0 0 0 0 0 0 0 0 0 0 0 0 0 0 0 0 0 0 0 0 0 0 0 0 0 0 0 0 0 0 0 0 0 0 0 0 0 4257.98 4113.8 4079.89 3924.07 3524.89 3396.93 3514.99 3317.47 3291.18 3308.97 3260.04 3234.96 3162.82 3224.39 3297.59 3283 3361.2 3325.69 3206.27 3259.53 3216.91 3392.53 3481.08 3193.09 3231.16 2346.69 1896.45 1788.71 1330.88 2052.77 2282.8 2197.47 2646.89 2864.82 3227.86 3213.64 3139.5 3225.63 3207.32 3235.77 3204.74 3457.27 3926.64 3018.3 3019.17 3075.22 3113.11 3103.44 3021.34 3006.67 3068.19 3141.09 3091.43 3159.66 3179.66 2999.84 2997.7 3106.94 3319.05 3444 6111.15 3344.39 2718.47 811.825 595.814 389.87 451.567 0 0 0 0 0 0 0 0 0 0 0 0 0 0 0 0 0 0 0 0 0 2991.98 3281.72 3083.87 2840.52 3103.49 2780.83 2523.97 2543.64 2425.32 2551.76 2400.95 2318.47 2308.52 2166.71 2293.53 0 0 0 0 0 0 0 0 0 0 0 0 0 0 0 0 0 0 0 0 0 0 0 0 0 0 0 0 0 0 0 0 0 0 0 0 0 0 0 0 0 0 0 0 0 0 0 0 0 0 0 0 0 0 0 0 0 0 0 0
0 0 0 0 0 0 0 0 0 0 0 0 0 0 0 0 0 0 0 0 0 0 0 0 0 0 0 0 0 0 0 0 0 0 0 0 0 0 0 0 0 0 0 0 0 0 0 0 0 0 0 0 0 0 0 0 0 0 0 0 0 0 0 0 0 0 0 0 0 0 0 0 0 0 0 0 0 0 0 0 0 0 0 0 0 0 0 2394 2810.17 3156.39 3031.39 3165.8 3082.23 3261.24 3230.72 3317.8 3357.97 3351.2 3333.03 3330.84 3374.66 3387.81 3283.13 3242.71 3123.37 2973.79 2864.38 2807.3 2769.72 2564.32 2608.86 2148.86 1691.13 0 0 0 0 0 0 0 0 0 0 0 0 0 0 0 0 0 0 0 0 0 0 0 0 0 0 0 0 0 0 0 0 0 0 0 0 0 0 0 0 0 0 0 2634.46 2739.42 2849.16 2994.54 2963.02 3069.2 3065.56 3066.23 3039.18 3152.95 3122.44 3219.44 3147.21 3194.92 3042.38 2917.12 2855.41 2803.5 2598.36 2559.16 2307.25 2395.57 2067.34 2105.31 0 0 0 0 0 0 0 0 0 0 0 0 0 0 0 0 0 0 0 0 0 0 0 0 0 0 0 2162.57 0 2431.68 0 0 0 0 0 0 0 0 0 0 0 0 0 0 0 0 0 0 0 0 0 0 0 0 0 0 0 0 0 0 0 0 0 0 0 0 0 0 0 0 0 0 0 0 0 0 0 0 0 0 0 0 0 0 0 0 0 0 0 0 0 0 0 0 0 0 0 0 0 0 0 0 0 0 0 0 0 0 0 0 0 0 0 0 0 0 0 0 0 0 0 0 0 0 0 0 0 0 0 0 0 0 0 0 0 0 0 0 0 0 0 0 0 0 0 0 0 0 0 0 0 0 0 0 0 0 0 0 0 0 0 0 0 0 0 0 0 0 0 3829.75 4010.07 4077.11 3991.37 3524.08 3504.42 3628.25 3412.89 3355.22 3342.12 3236.27 3202.18 3098.62 3204.81 3192.67 3074.89 3191.94 3190.24 3107.35 3200.89 3133.17 3322.47 3407.21 3336.07 3782.35 0 2743.18 2650.78 2337.53 2596.27 2702.88 2207.01 2608.01 2855.02 3230.04 3160.79 3063.1 3067.02 3086.25 3129.9 4145 3801.63 2973.1 2956.86 2963.07 3038.08 3109.76 3118.32 3009.69 3012.01 3045.42 3169.75 3124.47 3165.26 3164.97 2997.59 2943.32 3119.42 3265.81 3449.02 5652.45 3066.4 2516.21 904.064 667.89 323.027 386.757 0 0 0 0 0 0 0 0 0 0 0 0 0 0 0 0 0 0 0 0 0 3112.07 3459.98 0 3133.93 0 2734.02 2475.05 2616.96 2398.82 2512.67 2313.3 2307.38 2102.44 1946.8 2238.63 0 0 0 0 0 0 0 0 0 0 0 0 0 0 0 0 0 0 0 0 0 0 0 0 0 0 0 0 0 0 0 0 0 0 0 0 0 0 0 0 0 0 0 0 0 0 0 0 0 0 0 0 0 0 0 0 0 0 0 0
0 0 0 0 0 0 0 0 0 0 0 0 0 0 0 0 0 0 0 0 0 0 0 0 0 0 0 0 0 0 0 0 0 0 0 0 0 0 0 0 0 0 0 0 0 0 0 0 0 0 0 0 0 0 0 0 0 0 0 0 0 0 0 0 0 0 0 0 0 0 0 0 0 0 0 0 0 0 0 0 0 0 0 0 1552.1 1716.99 2057.65 2483.62 2816.63 3169.93 3081.1 3194.13 3158.35 3338.4 3315.38 3376.9 3359.79 3381.59 3387.81 3405.76 3467.41 3475.82 3361.68 3318.72 3209.4 3133.69 3057.46 2966.43 2887.95 2726.24 2752.49 2383.69 2028.1 0 0 0 0 0 0 0 0 0 0 0 0 0 0 0 0 0 0 0 0 0 0 0 0 0 0 0 0 0 0 0 0 0 0 0 0 0 0 0 0 0 0 0 3087.84 3047.96 3201.99 3235.52 3021.4 3062.15 3043.98 3008.72 3008.66 3059.8 3054.4 3112.3 2980.71 3111.73 3016.56 2934.57 2924.65 2933.39 2760.37 2764.24 2518.29 2914.74 2567.74 2581.68 0 0 0 0 0 0 0 0 0 0 0 0 0 0 0 0 0 0 0 0 0 0 0 0 0 0 2438.54 2535.15 0 0 0 0 0 0 0 0 0 0 0 0 0 0 0 0 0 0 0 0 0 0 0 0 0 0 0 0 0 0 0 0 0 0 0 0 0 0 0 0 0 0 0 0 0 0 0 0 0 0 0 0 0 0 0 0 0 0 0 0 0 0 0 0 0 0 0 0 0 0 0 0 0 0 0 0 0 0 0 0 0 0 0 0 0 0 0 0 0 0 0 0 0 0 0 0 0 0 0 0 0 0 0 0 0 0 0 0 0 0 0 0 0 0 0 0 0 0 0 0 0 0 0 0 0 0 0 0 0 0 0 0 0 0 0 0 0 0 0 1892.69 2943.79 3471.14 3978.12 4007.68 4031.46 3505.74 3479.49 3542.6 3281.4 3144.74 3125.81 3029.42 3048.96 2924.9 3122.79 3116.52 3080.19 3209.22 3269.7 3173.35 3268.29 3151.89 3403.48 3292.86 3205.66 3542.38 3130.25 2482.19 2128.39 2283.45 2558.93 2738.66 2293.63 2362.15 2627.86 3100.23 3096.28 3064.27 3097.82 3106.25 3174.61 3191.09 4077.21 3029.8 2987.98 2978.7 3033.85 3047.08 3069.37 2938.73 2946.06 3021.83 3126.16 3075.79 3140.79 3127.5 3065.28 2994.33 3187.27 3188.12 4226.34 2982.88 2912.31 1663.21 457.371 318.432 32.6244 348.979 0 0 0 0 0 0 0 0 0 0 0 0 0 0 0 0 0 0 0 0 0 0 0 0 0 0 2146.14 2117.99 2492.88 2273.64 2315.21 2112.13 0 1800.82 1511.28 0 0 0 0 0 0 0 0 0 0 0 0 0 0 0 0 0 0 0 0 0 0 0 0 0 0 0 0 0 0 0 0 0 0 0 0 0 0 0 0 0 0 0 0 0 0 0 0 0 0 0 0 0 0 0 0 0 0 0 0 0
0 0 0 0 0 0 0 0 0 0 0 0 0 0 0 0 0 0 0 0 0 0 0 0 0 0 0 0 0 0 0 0 0 0 0 0 0 0 0 0 0 0 0 0 0 0 0 0 0 0 0 0 0 0 0 0 0 0 0 0 0 0 0 0 0 0 0 0 0 0 0 0 0 0 0 0 0 0 0 0 0 0 0 0 0 2083.17 2270.23 2702.27 3030.51 3167.06 3117.97 3196.75 3137.03 3287.06 3282.55 3324.7 3322.14 3352.87 3401.96 3424.25 3465.91 3527.85 3441.88 3437.22 3331.11 3224.95 3141.56 3071 3009.47 2922.96 2927.71 2583.35 2192.41 1908.23 0 0 0 0 0 0 0 0 0 0 0 0 0 0 0 0 0 0 0 0 0 0 0 0 0 0 0 0 0 0 0 0 0 0 0 0 0 0 0 0 0 0 2735.8 2646.51 2806.22 3026.63 2768.25 2841.77 2906.01 2899.03 3027.88 3118.49 3164.31 3198.94 2998.72 3185.58 3117.68 2908.32 2883.83 2804.25 2572.74 2324.58 1982.03 2227.96 0 0 0 0 0 0 0 0 0 0 0 0 0 0 0 0 0 0 0 0 0 0 0 0 0 2709.73 2955.4 2951.71 2818.19 3039.68 2972.21 2789.01 2999.36 2701.4 2680.42 2288.06 0 0 0 0 0 0 0 0 0 0 0 0 0 638.209 0 0 0 0 0 0 0 0 0 0 0 0 0 0 0 0 0 0 0 0 0 0 0 0 0 0 0 0 0 0 0 0 0 0 0 0 0 0 0 0 0 0 0 0 0 0 0 0 0 0 0 0 0 0 0 0 0 0 0 0 0 0 0 0 0 0 0 0 0 0 0 0 0 0 0 0 0 0 0 0 0 0 0 0 0 0 0 0 0 0 0 0 0 0 0 0 0 0 0 0 0 0 0 0 0 0 0 0 0 0 0 0 0 0 0 0 0 0 0 1490.07 2695.93 3548.9 0 3737.36 3895.01 3297.26 3333.62 3352.81 3080.81 2965.69 2979.07 2846.55 2950.36 2795.33 3041.39 3054.9 3066.01 3212.35 3268.87 3148.69 3405.13 3142.26 3511.02 3324.57 3111.49 3272.69 2578.63 1833.49 1618.62 2074.42 2734.77 2912.06 2526.33 2559.2 2810.97 3209.77 3159.9 3124.82 3178.94 3205.6 3274.48 4175.02 4124.72 3100.57 3063.15 3050.95 3074.27 3070.27 3060.3 2936.21 2923.53 2984.05 3053.29 2977.32 3035.28 3052.68 2926.74 2852.55 2950.57 2949.89 3112.19 2710.47 2404.67 712.151 173.527 43.9062 23.7881 0 0 0 0 0 0 0 0 0 0 0 0 0 0 0 0 0 0 0 0 0 0 0 0 0 0 0 0 0 0 1884.88 0 0 0 0 0 0 0 0 0 0 0 0 0 0 0 0 0 0 0 0 0 0 0 0 0 0 0 0 0 0 0 0 0 0 0 0 0 0 0 0 0 0 0 0 0 0 0 0 0 0 0 0 0 0 0 0 0 0 0 0 0 0 0 0 0 0
0 0 0 0 0 0 0 0 0 0 0 0 0 0 0 0 0 0 0 0 0 0 0 0 0 0 0 0 0 0 0 0 0 0 0 0 0 0 0 0 0 0 0 0 0 0 0 0 0 0 0 0 0 0 0 0 0 0 0 0 0 0 0 0 0 0 0 0 0 0 0 0 0 0 0 0 0 0 0 0 0 0 0 0 1844.46 2070.25 2107.91 2668.83 2986.28 3199.79 3209.71 3309.88 3284.03 3326.62 3291.83 3350.46 3327.01 3352.67 3394.04 3368.42 3373.84 3365.45 3366.53 3398.65 3256.43 3124.13 3046.91 2991.71 2998.93 2933.65 2940.59 2584.43 2206.98 2185.25 0 0 0 0 0 0 0 0 0 0 0 0 0 0 0 0 0 0 0 0 0 0 0 0 0 0 0 0 0 0 0 0 0 0 0 0 0 0 0 0 0 0 2355.18 2175.78 2594.18 2998.13 2705.4 2907.82 2769.58 2786.41 2951.66 3100.91 3189.21 3223.77 2990.06 3202.36 2987.18 2848.91 2807.02 2620.43 2370.66 0 0 0 0 0 0 0 0 0 0 0 0 0 0 0 0 0 0 0 0 0 0 0 0 0 0 0 2900.63 2773.88 3041.88 2835.67 2751.77 3092.34 3103.72 3067.91 3139.73 2884.87 2757.7 2445.61 2540.25 2569.11 0 0 0 0 0 0 0 0 0 0 1856.23 2011.13 0 0 0 0 0 0 0 0 0 0 0 0 0 0 0 0 0 0 0 0 0 0 0 0 0 0 0 0 0 0 0 0 0 0 0 0 0 0 0 0 0 0 0 0 0 0 0 0 0 0 0 0 0 0 0 0 0 0 0 0 0 0 0 0 0 0 0 0 0 0 0 0 0 0 0 0 0 0 0 0 0 0 0 0 0 0 0 0 0 0 0 0 0 0 0 0 0 0 0 0 0 0 0 0 0 0 0 0 0 0 0 0 0 0 0 0 0 0 0 0 0 0 0 0 0 3335.28 3406.45 3424.39 3224.51 3080.25 3069.88 2985.96 3017.1 2829.55 3070.38 2998.13 3033.91 3200.28 3186.18 3046.36 3070.95 2884.42 0 0 2648.52 0 1595.48 1357.77 1209.74 1643.77 2620.72 2848.91 2441.73 2612.84 2673.12 3066.01 2993.15 2975.79 3015.04 3081.78 3190.42 3232.47 4080.38 3118.15 3071.56 3068.25 3077.93 3080.7 3056.62 2913.22 2908.17 2983.47 2993.69 2936.32 3014.39 3087.22 2939.35 2874.15 5658.93 5625.91 3140.03 3194.19 3137.86 1484.51 297.614 28.2598 43.3375 0 0 0 0 0 0 0 0 0 0 0 0 0 0 0 0 0 0 0 0 0 0 0 0 0 0 0 0 0 0 0 0 0 0 0 0 0 0 0 0 0 0 0 0 0 0 0 0 0 0 0 0 0 0 0 0 0 0 0 0 0 0 0 0 0 0 0 0 0 0 0 0 0 0 0 0 0 0 0 0 0 0 0 0 0 0 0 0 0 0 0 0 0 0 0 0 0
0 0 0 0 0 0 0 0 0 0 0 0 0 0 0 0 0 0 0 0 0 0 0 0 0 0 0 0 0 0 0 0 0 0 0 0 0 0 0 0 0 0 0 0 0 0 0 0 0 0 0 0 0 0 0 0 0 0 0 0 0 0 0 0 0 0 0 0 0 0 0 0 0 0 0 0 0 0 0 0 0 0 0 0 0 2320.65 2185.1 2636.16 2951.87 3289.7 3241.58 3256.43 3196.2 3234.27 3175.45 3259.34 3226.44 3233.03 3257.51 3250.63 3268.49 3280.56 3277.87 3344.79 3216.6 3160.49 3137.45 3030.89 3042.1 2961.82 2888.45 2574.36 2350.14 0 0 0 0 0 0 0 0 0 0 0 0 0 0 0 0 0 0 0 0 0 0 0 0 0 0 0 0 0 0 0 0 0 0 0 0 0 0 0 0 0 0 0 0 0 0 0 2922.56 3083.36 2905.05 0 2981.66 3128.44 3108.55 3223.52 2919.2 3176.47 3069.32 2863.4 0 0 0 0 0 0 0 0 0 0 0 0 0 0 0 0 0 0 0 0 0 0 0 0 0 0 0 1663.6 2186.61 2494.18 2740.27 2504.9 2747.27 2604.24 2570.61 2960.88 2986.97 2868.15 2754.71 2617.98 2617.53 2389.36 2414.57 2440.31 2256.39 2153.74 2087.45 2117.59 2032.94 2241.89 2071.55 0 0 0 4066.83 4778.87 0 0 0 0 0 0 0 0 0 0 0 0 0 0 0 0 0 0 0 0 0 0 0 0 0 0 0 0 0 0 0 0 0 0 0 0 0 0 0 0 0 0 0 0 0 0 0 0 0 0 0 0 0 0 0 0 0 0 0 0 0 0 0 0 0 0 0 0 0 0 0 0 0 0 0 0 0 0 0 0 0 0 0 0 0 0 0 0 0 0 0 0 0 0 0 0 0 0 0 0 0 0 0 0 0 0 0 0 0 0 0 0 0 0 0 0 0 0 0 0 0 0 0 0 0 3111.67 3127.85 3278.51 3150.23 2909.28 2905.75 2865.26 2971.05 2709.91 2934.88 2905.3 2895.77 3017.59 3028.16 2894.22 2821.08 2566.28 0 0 2199.43 0 990.459 1106.84 986.829 1407.78 2207.09 2429.29 2149.91 2447.18 2604.61 2923.37 2878.39 2906.86 2945.23 3064.27 3177.49 3210.88 4096.62 3083.59 3128.38 3135.74 3115.42 3117.39 3082.46 2947.87 2972.52 3034.57 3078.44 2953.01 2967.9 3037.37 2922.15 2875.23 5468.94 5232.87 3045.8 2875.62 0 0 0 0 0 0 0 0 0 0 0 0 0 0 0 0 0 0 0 0 0 0 0 0 0 0 0 0 0 0 0 0 0 0 0 0 0 0 0 0 0 0 0 0 0 0 0 0 0 0 0 0 0 0 0 0 0 0 0 0 0 0 0 0 0 0 0 0 0 0 0 0 0 0 0 0 0 0 0 0 0 0 0 0 0 0 0 0 0 0 0 0 0 0 0 0 0 0 0 0 0 0
0 0 0 0 0 0 0 0 0 0 0 0 0 0 0 0 0 0 0 0 0 0 0 0 0 0 0 0 0 0 0 0 0 0 0 0 0 0 0 0 0 0 0 0 0 0 0 0 0 0 0 0 0 0 0 0 0 0 0 0 0 0 0 0 0 0 0 0 0 0 0 0 0 0 0 0 0 0 0 0 0 0 0 0 0 2889.64 2603.23 3063.77 3222.84 3491.95 3378.19 3420.89 3357.44 3334.09 3231.16 3284.42 3223.77 3205.78 3258.14 3256.05 3246.98 3200.71 3201.81 3281.98 3162.28 3164.67 3180.93 3028.49 3053.23 3010.88 3053.18 2796.07 2703.4 0 0 0 0 0 0 0 0 0 0 0 0 0 0 0 0 0 0 0 0 0 0 0 0 0 0 0 0 0 0 0 0 0 0 0 0 0 0 0 0 0 0 0 0 0 0 0 0 0 0 0 0 0 2916.82 2926.99 2403.64 2595.66 2383.02 2038.65 0 0 0 0 0 0 0 0 0 0 0 0 0 0 0 0 0 0 0 0 0 0 0 0 0 0 1663.34 1741.53 2498.01 2765.52 2763.92 2605.3 2797.28 2729.92 2797.42 3055.73 3122.56 2959.89 2839.56 2841.15 2877.3 2707.76 2618.88 2580.49 2460.1 2335.45 2386.95 2563.3 2419.44 2642.97 2415.05 2803.17 2564.87 3078.38 3551.6 3798.53 3162.04 3520.45 0 0 0 0 0 0 0 0 0 0 0 0 0 0 0 0 0 0 0 0 0 0 0 0 0 0 0 0 0 0 0 0 0 0 0 0 0 0 0 0 0 0 0 0 0 0 0 0 0 0 0 0 0 0 0 0 0 0 0 0 0 0 0 0 0 0 0 0 0 0 0 0 0 0 0 0 0 0 0 0 0 0 0 0 0 0 0 0 0 0 0 0 0 0 0 0 0 0 0 0 0 0 0 0 0 0 0 0 0 0 0 0 0 0 0 0 0 0 0 0 0 0 0 0 0 0 3100.46 2886.11 2905.45 2828.88 2977.85 2724.69 2761.33 2702.09 2690.18 3050.51 2941.88 2885.96 2787.94 2522.23 0 0 1590.46 0 0 0 966.223 1292.45 2009.18 2471.37 2184.34 2443.51 2631.49 2851.04 2793.84 2842.01 2869.18 2999.04 3071.56 3147.86 4143.88 3009.69 3060.19 3049.79 3069.32 3074.77 3034.18 2922.61 2932.01 3009.31 3010.61 2892.98 2933.49 2917.02 2801.96 2680.42 2922.81 2573.8 2579.86 0 0 0 0 0 0 0 0 0 0 0 0 0 0 0 0 0 0 0 0 0 0 0 0 0 0 0 0 0 0 0 0 0 0 0 0 0 0 0 0 0 0 0 0 0 0 0 0 0 0 0 0 0 0 0 0 0 0 0 0 0 0 0 0 0 0 0 0 0 0 0 0 0 0 0 0 0 0 0 0 0 0 0 0 0 0 0 0 0 0 0 0 0 0 0 0 0 0 0 0 0 0 0
0 0 0 0 0 0 0 0 0 0 0 0 0 0 0 0 0 0 0 0 0 0 0 0 0 0 0 0 0 0 0 0 0 0 0 0 0 0 0 0 0 0 0 0 0 0 0 0 0 0 0 0 0 0 0 0 0 0 0 0 0 0 0 0 0 0 0 0 0 0 0 0 0 0 0 0 0 0 0 0 0 0 0 0 0 2504.31 2304.62 2652.41 3037.92 3239.27 3223.46 3207.93 3285.58 3257.13 3190.61 3274.35 3221.42 3169.27 3267.72 3239.58 3236.89 3190.3 3161.15 3213.34 3059.47 3041.55 3070.67 2911.8 2995.24 2988.62 3015.15 2869.23 2841.1 0 0 0 0 0 0 0 0 0 0 0 0 0 0 0 0 0 0 0 0 0 0 0 0 0 0 0 0 0 0 0 0 0 0 0 0 0 0 0 0 0 0 0 0 0 0 0 0 0 0 0 0 0 0 0 0 0 0 0 0 0 0 0 0 0 0 0 0 0 0 0 0 0 0 0 0 0 0 0 0 0 0 0 0 0 1837.79 1885.77 2717.1 3018.68 2956.08 2731.39 2810.36 2779.58 2831.65 2966.74 2990.86 2851.77 2737.14 2730.46 2810.97 2730.19 2637.15 2564.52 2473.99 2447 2486.97 2723.41 2682.48 3009.85 2697.84 3006.35 3354.75 3418.59 3615.74 3806.29 3342.45 3473.59 3182.68 3586.37 3482.96 0 0 0 0 0 0 1484.31 1402.35 0 0 0 0 0 0 0 0 0 0 0 0 0 0 0 0 0 0 0 0 0 0 0 0 0 0 0 0 0 0 0 0 0 0 0 0 1420.02 0 1244.43 1275.95 1005.19 729.957 0 0 0 0 0 0 0 0 0 0 0 0 0 0 0 0 0 0 0 0 0 0 0 0 0 0 0 0 0 0 0 0 0 0 0 0 0 0 0 0 0 0 0 0 0 0 0 0 0 0 0 0 0 0 0 0 0 0 0 0 0 0 0 0 0 0 0 0 0 0 0 0 0 2825.5 2714.11 2969.52 3006.4 3148.45 2741.79 2827.41 2707.11 2746.5 3089.44 3041.77 2820.42 2728.95 2356.28 0 0 0 0 0 0 701.398 1261.61 1740.09 2134.75 0 2223.06 2449.39 2665.6 2713.89 2737.9 2791 2983.47 3063.71 3119.3 3048.29 3019.38 3108.5 3097.25 3105.62 3109.65 3156.75 3036.32 3055.68 3101.72 3142.91 3003.28 3046.69 3094.91 3030.67 2554.02 2893.73 2631.03 0 0 0 0 0 0 0 0 0 0 0 0 0 0 0 0 0 0 0 0 0 0 0 0 0 0 0 0 0 0 0 0 0 0 0 0 0 0 0 0 0 0 0 0 0 0 0 0 0 0 0 0 0 0 0 0 0 0 0 0 0 0 0 0 0 0 0 0 0 0 0 0 0 0 0 0 0 0 0 0 0 0 0 0 0 0 0 0 0 0 0 0 0 0 0 0 0 0 0 0 0 0 0 0
0 0 0 0 0 0 0 0 0 0 0 0 0 0 0 0 0 0 0 0 0 0 0 0 0 0 0 0 0 0 0 0 0 0 0 0 0 0 0 0 0 0 0 0 0 0 0 0 0 0 0 0 0 0 0 0 0 0 0 0 0 0 0 0 0 0 0 0 0 0 0 0 0 0 0 0 0 0 0 0 0 0 0 0 0 0 2615.9 3015.42 3131.36 3167.53 3086.37 3117.39 3210.26 3158.77 3093.94 3188.36 3162.94 3139.62 3183.1 3177.73 3154.85 3076.69 3024.72 3088.53 2923.17 2900.03 2873.75 2761.19 2842.49 2788.64 2816.06 2744.57 2654.97 0 0 0 0 0 0 0 0 0 0 0 0 0 0 0 0 0 0 0 0 0 0 0 0 0 0 0 0 0 0 0 0 0 0 0 0 0 0 0 0 0 0 0 0 0 0 0 0 0 0 0 0 0 0 0 0 0 0 0 0 0 0 0 0 0 0 0 0 0 0 0 0 0 0 0 0 0 0 0 0 0 0 0 0 0 2256.09 2243.78 3080.25 3209.34 2946.68 2775.58 2872.82 2819.85 2920.73 2981.45 3013.31 2880.61 2775.26 2821.65 2889.24 2802.42 2761.87 2645.51 2490.85 2445.47 2598.96 2824.69 2724.56 2995.34 2923.12 3066.34 3490.57 3600.22 3608.98 3615.74 3301.28 3401.41 3190.36 3386.24 3271.1 3128.67 0 3206.15 2390.59 0 2065.53 1908.9 1893.88 0 0 0 0 0 0 0 0 0 0 0 0 0 0 0 0 0 0 0 0 0 0 0 0 0 0 0 0 0 0 0 0 0 0 0 0 0 0 1492.77 1513.64 1381.74 995.294 0 0 0 0 0 0 0 0 0 0 0 0 0 0 0 0 0 0 0 0 0 0 0 0 0 0 0 0 0 0 0 0 0 0 0 0 0 0 0 0 0 0 0 0 0 0 0 0 0 0 0 0 0 0 0 0 0 0 0 0 0 0 0 0 0 0 0 0 0 0 0 0 2182.43 1988.44 2086 2421.08 2501.32 2751.86 2436.38 2435.31 2137.83 2201.71 2596.83 2504.83 2168.89 1820.28 0 0 0 0 0 0 0 851.216 1175.86 1522.77 2033.19 0 2124 2345.01 2553.43 2591.17 2733.48 2854.54 3021.34 3101.09 3065.17 2997.11 3039.73 3099.88 3057.85 3053.79 3058.74 3113.23 2965.54 3064.05 3124.88 3075.79 2952.75 3045.2 3058.63 2986.86 2561.82 2841.68 0 0 0 0 0 0 0 0 0 0 0 0 0 0 0 0 0 0 0 0 0 0 0 0 0 0 0 0 0 0 0 0 0 0 0 0 0 0 0 0 0 0 0 0 0 0 0 0 0 0 0 0 0 0 0 0 0 0 0 0 0 0 0 0 0 0 0 0 0 0 0 0 0 0 0 0 0 0 0 0 0 0 0 0 0 0 0 0 0 0 0 0 0 0 0 0 0 0 0 0 0 0 0 0 0
0 0 0 0 0 0 0 0 0 0 0 0 0 0 0 0 0 0 0 0 0 0 0 0 0 0 0 0 0 0 0 0 0 0 0 0 0 0 0 0 0 0 0 0 0 0 0 0 0 0 0 0 0 0 0 0 0 0 0 0 0 0 0 0 0 0 0 0 0 0 0 0 0 0 0 0 0 0 0 0 0 0 0 0 0 2841.63 2704.53 3070.16 3154.43 3215.49 3123.72 3151.65 3204.74 3092.97 3044.75 3152.06 3104.01 3076.3 3105.33 3129.84 3082.57 3033.74 3006.83 3076.46 2928.22 2957.17 2903.84 2767.57 2769.53 2764.79 2760.96 2800.79 2623.59 0 0 0 0 0 0 0 0 0 0 0 0 0 0 0 0 0 0 0 0 0 0 0 0 0 0 0 0 0 0 0 0 0 0 0 0 0 0 0 0 0 0 0 0 0 0 0 0 0 0 0 0 0 0 0 0 0 0 0 0 0 0 0 0 0 0 0 0 0 0 0 0 0 0 0 0 0 0 0 0 0 0 0 0 0 2187.01 2420.63 3186.18 3304.08 3007.8 2790.54 2869.72 2840.14 2919.96 2978.54 2959.57 2824.65 2700.83 2785.67 2791.42 2717.72 2700.96 2623.18 2529.07 2486.16 2639.73 2893.18 2836.25 3044.15 3068.47 2994.33 3301.67 3255.11 3287.76 3172.93 2851.19 3023.36 3000.75 3039.18 3202.6 3045.47 3155.09 3318.59 2906.16 2887.2 2598.8 2630.66 2754.48 0 0 0 0 0 0 0 0 0 0 0 0 0 0 0 0 0 0 0 0 0 0 0 0 0 0 0 0 0 0 0 0 2353.73 2806.41 2513.72 2410.79 2159.57 0 2322.84 2572.97 2516.29 2185.1 0 0 0 0 0 0 0 0 0 0 0 0 0 0 0 0 0 0 0 0 0 0 0 0 0 0 0 0 0 0 0 0 0 0 0 0 0 0 0 0 0 0 0 0 0 0 0 0 0 0 0 0 0 0 0 0 0 0 0 0 0 0 0 0 0 0 0 0 0 0 0 0 0 1829.59 2025.95 2183.77 2292.94 2495.96 2214.9 2212.83 1953.01 0 0 0 0 0 0 0 0 0 0 0 0 848.123 1327.52 1673.36 2157.07 0 2134.29 2335.32 2481.78 2548.93 2777.1 2878.29 3057.29 3097.08 3042.71 2996.31 3048.63 3087.56 3028.92 3036.93 3034.68 3064.05 2932.47 3027.67 3110.17 3023.68 2922.3 3029.03 2915.9 2890.14 2487.75 2882 0 0 0 0 0 0 0 0 0 0 0 0 0 0 0 0 0 0 0 0 0 0 0 0 0 0 0 0 0 0 0 0 0 0 0 0 0 0 0 0 0 0 0 0 0 0 0 0 0 0 0 0 0 0 0 0 0 0 0 0 0 0 0 0 0 0 0 0 0 0 0 0 0 0 0 0 0 0 0 0 0 0 0 0 0 0 0 0 0 0 0 0 0 0 0 0 0 0 0 0 0 0 0 0 0
0 0 0 0 0 0 0 0 0 0 0 0 0 0 0 0 0 0 0 0 0 0 0 0 0 0 0 0 0 0 0 0 0 0 0 0 0 0 0 0 0 0 0 0 0 0 0 0 0 0 0 0 0 0 0 0 0 0 0 0 0 0 0 0 0 0 0 0 0 0 0 0 0 0 0 0 0 0 0 0 0 0 0 0 0 0 2564.48 2816.68 2879.42 3026.9 3053.23 3123.6 3191.7 3123.95 3060.69 3125.52 3101.6 3091.43 3137.09 3102.12 3001.13 2977.75 2941.98 3031.28 2966.43 2991.23 2932.88 2749.61 2801.3 2871.44 2817.81 2892.53 2744.39 0 0 0 0 0 0 0 0 0 0 0 0 0 0 0 0 0 0 0 0 0 0 0 0 0 0 0 0 0 0 0 0 0 0 0 0 0 0 0 0 0 0 0 0 0 0 0 0 0 0 0 0 0 0 0 0 0 0 0 0 0 0 0 0 0 0 0 0 0 0 0 0 0 0 0 0 0 0 0 0 0 0 0 0 2593.42 2527.05 2798.54 3437.65 3370.66 3158.53 2916.61 2919.96 2800.41 2962.5 2980.34 2904.4 2745.69 2671.5 2703.79 2760.24 2745.47 2835.19 2714.99 2631.74 2649.52 2827.93 3074.38 3102.46 3201.75 3201.56 3065.11 3198.27 3177.01 3452.71 3422.64 3116.81 3261.88 3203.4 3185.4 3287.25 3266.96 3273.84 3238.39 2832.94 2919.96 2671.03 2718.69 2936.01 0 2169.09 1989.88 1112.77 0 0 0 0 0 0 0 0 0 0 0 0 0 0 0 0 0 0 0 0 0 0 0 0 0 0 0 0 2631.82 2949.22 2908.12 3012.34 2925.11 3141.44 2926.02 3442.73 3235.02 3288.54 0 0 0 0 0 0 0 0 0 0 0 0 0 0 0 0 0 0 0 0 0 0 0 0 0 0 0 0 0 0 0 0 0 0 0 0 0 0 0 0 0 0 0 0 0 0 0 0 0 0 0 0 0 0 0 0 0 0 0 0 0 0 0 0 0 0 0 0 0 0 0 0 0 0 0 0 0 2243.75 0 0 0 2150.65 0 0 0 0 0 0 0 0 0 0 0 0 0 0 0 0 2030.34 2375.05 2502.25 2539.83 2826.22 2917.98 3165.32 3258.65 3142.5 2973.47 3061.14 3107.75 3086.25 3025.86 3058.35 3062.26 2906.11 2978.22 3192.12 3035.11 2912.01 2946.84 2861.4 2670.57 2264.19 0 0 0 0 0 0 0 0 0 0 0 0 0 0 0 0 0 0 0 0 0 0 0 0 0 0 0 0 0 0 0 0 0 0 0 0 0 0 0 0 0 0 0 0 0 0 0 0 0 0 0 0 0 0 0 0 0 0 0 0 0 0 0 0 0 0 0 0 0 0 0 0 0 0 0 0 0 0 0 0 0 0 0 0 0 0 0 0 0 0 0 0 0 0 0 0 0 0 0 0 0 0 0 0 0 0
0 0 0 0 0 0 0 0 0 0 0 0 0 0 0 0 0 0 0 0 0 0 0 0 0 0 0 0 0 0 0 0 0 0 0 0 0 0 0 0 0 0 0 0 0 0 0 0 0 0 0 0 0 0 0 0 0 0 0 0 0 0 0 0 0 0 0 0 0 0 0 0 0 0 0 0 0 0 0 0 0 0 0 0 0 0 0 2766.52 2796.82 2934.42 2950.26 3018.62 3119.83 3076.41 2965.01 3061.14 3062.99 3054.95 3064.16 2990.11 2893.98 2858.87 2790.77 2948.65 2860.43 2845.82 2800.93 2639.4 2770.68 2778.11 2747.99 2855.07 2594.26 0 0 0 0 0 0 0 0 0 0 0 0 0 0 0 0 0 0 0 0 0 0 0 0 0 0 0 0 0 0 0 0 0 0 0 0 0 0 0 0 0 0 0 0 0 0 0 0 0 0 0 0 0 0 0 0 0 0 0 0 0 0 0 0 0 0 0 0 0 0 0 0 0 0 0 0 0 0 0 0 0 0 0 0 2575.98 2382.07 2757.06 3358.58 3378.8 3245.22 3006.88 3036.71 4100.23 4096.52 4027.2 3027.94 2875.33 2803.88 2818.62 2882.34 2909.78 3009.36 2929.09 2813.14 2816.58 2983.04 3133.99 4195.37 3255.8 3161.21 3145.44 3095.08 3163.18 3368.36 3380.3 3224.64 3228.36 3164.73 3135.28 3271.54 3309.55 3338.07 3259.66 2855.75 2995.61 2918.44 3072.46 3315.05 0 0 2408.4 1786.37 1425.18 0 0 0 0 0 0 0 0 0 0 0 0 0 0 0 0 0 0 0 0 0 0 0 0 0 2439.28 2816.54 2749.43 3109.48 3000.54 3197.72 3115.13 3311.91 3246.79 3524.52 3366.53 3709.02 0 0 0 0 0 0 0 0 0 0 0 0 0 0 0 0 0 0 0 0 0 0 0 0 0 0 0 0 0 0 0 0 0 0 0 0 0 0 0 0 0 0 0 0 0 0 0 0 0 0 0 0 0 0 0 0 0 0 0 0 0 0 0 0 0 0 0 0 0 0 0 0 0 0 0 0 0 0 0 0 0 0 0 0 0 0 0 0 0 0 0 0 0 0 0 0 0 0 2175.16 2410.23 2596.91 2577.52 2826.79 2787.99 3058.13 3097.42 2992.78 2848.91 2895.32 2875.13 2932.52 2874.44 3002.74 3017.75 2893.78 2932.36 3122.03 3037.86 2999.09 2964.17 2851.67 2573.49 1993.41 0 0 0 0 0 0 0 0 0 0 0 0 0 0 0 0 0 0 0 0 0 0 0 0 0 0 0 0 0 0 0 0 0 0 0 0 0 0 0 0 0 0 0 0 0 0 0 0 0 0 0 0 0 0 0 0 0 0 0 0 0 0 0 0 0 0 0 0 0 0 0 0 0 0 0 0 0 0 0 0 0 0 0 0 0 0 0 0 0 0 0 0 0 0 0 0 0 0 0 0 0 0 0 0 0 0
0 0 0 0 0 0 0 0 0 0 0 0 0 0 0 0 0 0 0 0 0 0 0 0 0 0 0 0 0 0 0 0 0 0 0 0 0 0 0 0 0 0 0 0 0 0 0 0 0 0 0 0 0 0 0 0 0 0 0 0 0 0 0 0 0 0 0 0 0 0 0 0 0 0 0 0 0 0 0 0 0 0 0 0 0 0 0 2638.32 2631.65 2944.98 2940.18 3024.23 3173.71 3089.84 2926.43 3047.3 3030.78 3040.95 3000.16 2922.51 2838.31 2804.11 2742.15 2912.31 2823.36 2836.34 2796.86 2631.24 2762.28 2714.42 2651.24 0 0 0 0 0 0 0 0 0 0 0 0 0 0 0 0 0 0 0 0 0 0 0 0 0 0 0 0 0 0 0 0 0 0 0 0 0 0 0 0 0 0 0 0 0 0 0 0 0 0 0 0 0 0 0 0 0 0 0 0 0 0 0 0 0 0 0 0 0 0 0 0 0 0 0 0 0 0 0 0 0 0 0 0 0 0 3071.45 2974.37 3176.47 3619.56 3589.98 3484.99 3185.46 3206.46 4098.73 4062.99 3988.05 3063.88 2899.23 2827.45 2873.16 3521.86 3700.43 3073.36 3946.22 3985.78 4937.8 4363.51 4487.69 4527.05 4491.06 3234.34 3110.23 3085.29 3040.01 3260.1 3312.76 3235.9 3175.15 3194.86 4095.02 4311.82 4157.94 4187.94 4054.94 3115.19 3187.45 3182.19 3218.89 3402.79 0 0 2837.4 2189.55 1601.53 0 992.251 0 0 0 0 0 0 0 0 0 0 0 0 0 0 0 0 0 0 0 0 0 0 0 2230.6 2571.32 2583.99 2840.91 2889.74 3060.3 3018.08 3066.06 3076.92 3246.85 3135.39 3336.74 3160.43 3249.37 3351.07 0 3347.06 3081.72 0 0 0 0 0 0 0 0 0 0 0 0 0 0 0 0 0 0 0 0 0 0 0 0 0 0 0 0 0 0 0 0 0 0 0 0 0 0 0 0 0 0 0 0 0 0 0 0 0 0 0 0 0 0 0 0 0 0 0 0 0 0 0 0 0 0 0 0 0 0 0 0 0 0 0 0 0 0 0 0 0 0 0 0 0 0 0 0 0 0 0 0 0 0 0 2138.81 2516.21 2436.3 2738.08 2800.88 2790.54 2627.66 2713.24 2736.56 2841.72 2876.12 3016.18 3090.75 2961.87 3011.69 3251.13 3164.61 3033.08 2920.12 2717.1 0 0 0 0 0 0 0 0 0 0 0 0 0 0 0 0 0 0 0 0 0 0 0 0 0 0 0 0 0 0 0 0 0 0 0 0 0 0 0 0 0 0 0 0 0 0 0 0 0 0 0 0 0 0 0 0 0 0 0 0 0 0 0 0 0 0 0 0 0 0 0 0 0 0 0 0 0 0 0 0 0 0 0 0 0 0 0 0 0 0 0 0 0 0 0 0 0 0 0 0 0 0 0 0 0 0 0 0
0 0 0 1927.67 1868.97 1450.34 0 0 0 0 0 0 0 0 0 0 0 0 0 0 0 0 0 0 0 0 0 0 0 0 0 0 0 0 0 0 0 0 0 0 0 0 0 0 0 0 0 0 0 0 0 0 0 0 0 0 0 0 0 0 0 0 0 0 0 0 0 0 0 0 0 0 0 0 0 0 0 0 0 0 0 0 0 0 0 0 0 2470.89 2632.27 3034.57 2962.29 3075.79 3173.53 3145.03 3022.81 3151.35 3177.67 3111.26 3035.77 3018.24 2921.39 2909.33 2816.63 2945.6 2855.46 2915.65 2908.47 2694.72 2765.29 2765.93 0 0 0 0 0 0 0 0 0 0 0 0 0 0 0 0 0 0 0 0 0 0 0 0 0 0 0 0 0 0 0 0 0 0 0 0 0 0 0 0 0 0 0 0 0 0 0 0 0 0 0 0 0 0 0 0 0 0 0 0 0 0 0 0 0 0 0 0 0 0 0 0 0 0 0 0 0 0 0 0 0 0 0 0 0 0 0 2905.05 3014.56 3201.69 3659.35 4422.98 4360.68 4161.55 3913.36 4132.55 4071.87 3991.85 3087.67 2928.42 2847.17 2912.01 3531.12 2948.75 3882.66 3006.29 2974.58 2998.93 4489.38 4643.57 4720.12 4689.51 3254.41 3134.75 3116.06 3107.06 3201.5 3242.46 3201.2 3188.06 3221.17 4130.92 3193.76 3175.69 3270.52 3260.93 3132.29 3136.74 3059.63 2988.41 3232.4 3163.35 2997.27 2737.23 2198.1 1486.43 1115.22 1021.66 922.125 736.416 799.371 845.328 768.315 949.593 0 0 0 0 0 0 0 0 0 0 0 0 0 2019.73 1824.8 1958.09 1915.79 2123.76 2517.42 2594.42 2883.63 2848.29 3016.34 3077.37 3174.13 3221.54 3320.03 3292.28 3492.82 3231.35 3452.15 3589.13 3656.8 3570.8 3733.62 0 0 0 0 0 0 0 0 0 0 0 0 0 0 0 0 0 0 0 0 0 0 0 0 0 0 0 0 0 0 0 0 0 0 0 0 0 0 0 0 0 0 0 0 0 0 0 0 0 0 0 0 0 0 0 0 0 0 0 0 0 0 0 0 0 0 0 0 0 0 0 0 0 0 0 0 0 0 0 0 0 0 0 0 0 0 0 0 0 0 0 0 0 0 0 0 0 2598.2 2970.84 2961.19 2825.03 2547.39 2578.67 2544.41 2681.41 2663.7 2745.24 2751.5 2563.19 2581.21 2831.56 2850.32 2673.12 2315.27 0 0 0 0 0 0 0 0 0 0 0 0 0 0 0 0 0 0 0 0 0 0 0 0 0 0 0 0 0 0 0 0 0 0 0 0 0 0 0 0 0 0 0 0 0 0 0 0 0 0 0 0 0 0 0 0 0 0 0 0 0 0 0 0 0 0 0 0 0 0 0 0 0 0 0 0 0 0 0 0 0 0 0 0 0 0 0 0 0 0 0 0 0 0 0 0 0 0 0 0 0 0 0 0 0 0 0 0 0
0 3229.11 2996.84 2816.92 2638.98 1854.14 0 0 0 0 0 0 0 0 0 0 0 0 0 0 0 0 0 0 0 0 0 0 0 0 0 0 0 0 0 0 0 0 0 0 0 0 0 0 0 0 0 0 0 0 0 0 0 0 0 0 0 0 0 0 0 0 0 0 0 0 0 0 0 0 0 0 0 0 0 0 0 0 0 0 0 0 0 0 0 0 0 2575.22 2766.98 3109.36 2974.68 3132.23 3208.79 3146.27 3068.92 3151 3161.63 3140.03 3048.46 3058.24 2934.31 2892.83 2816.96 2922.61 2809.6 2854.1 2760.69 2578.71 2643.3 2691.52 0 0 0 0 0 0 0 0 0 0 0 0 0 0 0 0 0 0 0 0 0 0 0 0 0 0 0 0 0 0 0 0 0 0 0 0 0 0 0 0 0 0 0 0 0 0 0 0 0 0 0 0 0 0 0 0 0 0 0 0 0 0 0 0 0 0 0 0 0 0 0 0 0 0 0 0 0 0 0 0 0 0 0 0 0 0 3559.74 3270.91 3445.55 3505.67 3767.4 4478.59 4410.43 4256.9 4079 4171.38 4063.98 3972.94 3139.38 3396.38 2945.6 3002.53 2976.16 3548.97 3720.45 3825.03 3841.94 4272.4 4462.75 3679.01 3694.24 4910.63 4864.08 4724.38 3087.45 4361.81 4268.38 3189.27 3117.16 3132.35 3162.82 3972.19 3174.25 3205.11 3221.79 3225.94 3116.06 3169.51 3040.39 2955.35 3125.35 3088.13 2867.76 2706.15 2373.61 1770.51 1301 1291.59 1182.64 975.73 1120.54 1379.78 1332.69 1482.69 0 0 0 0 0 0 0 0 0 0 0 0 0 0 1872.83 1979.93 2096.66 2379.91 2692.77 2676.15 2883.83 2956.08 3158.47 3214.38 3308.64 3310.73 3324.7 3251.89 3436.66 3215.62 3282.68 3261.31 3292.47 3285.06 3536.18 3512.64 3241.27 2981.72 2348.39 0 0 0 0 0 0 0 0 0 0 0 0 0 0 0 0 0 0 0 0 0 0 0 0 0 0 0 0 0 0 0 0 0 0 0 0 0 0 0 0 0 0 0 0 0 0 0 0 0 0 0 0 0 0 0 0 0 0 0 0 0 0 0 0 0 0 0 0 0 0 0 0 0 0 0 0 0 0 0 0 0 0 0 0 0 0 0 0 0 0 0 0 0 2505.58 0 2907.87 2831.89 2602.02 2672.69 2550.52 2484.69 2503 2621.17 2664.93 2328.67 2362.65 2646.18 2562.76 0 2343.15 0 0 0 0 0 0 0 0 0 0 0 0 0 0 0 0 0 0 0 0 0 0 0 0 0 0 0 0 0 0 0 0 0 0 0 0 0 0 0 0 0 0 0 0 0 0 0 0 0 0 0 0 0 0 0 0 0 0 0 0 0 0 0 0 0 0 0 0 0 0 0 0 0 0 0 0 0 0 0 0 0 0 0 0 0 0 0 0 0 0 0 0 0 0 0 0 0 0 0 0 0 0 0 0 0 0 0 0 0
0 3749.97 3453.92 3251.7 2993.9 2281.06 0 0 0 0 0 0 0 0 0 0 0 0 0 0 0 0 0 0 0 0 0 0 0 0 0 0 0 0 0 0 0 0 0 0 0 0 0 0 0 0 0 0 0 0 0 0 0 0 0 0 0 0 0 0 0 0 0 0 0 0 0 0 0 0 0 0 0 0 0 0 0 0 0 0 0 0 0 0 0 0 0 2112.47 2322.2 2557.64 2667.43 2769.03 2942.03 2891.63 2853.91 2932.67 3024.17 3048.85 2971.47 2993.31 2942.29 2977.01 2912.46 3010.12 2932.01 2928.68 2843.17 2684.2 2652.04 2637.28 0 0 0 0 0 0 0 0 0 0 0 0 0 0 0 0 0 0 0 0 0 0 0 0 0 0 0 0 0 0 0 0 0 0 0 0 0 0 0 0 0 0 0 0 0 0 0 0 0 0 0 0 0 0 3208.11 0 0 0 0 0 0 0 0 0 0 0 0 0 0 0 0 0 0 0 0 0 0 0 0 0 0 0 0 0 0 0 3563.22 3265.88 3412.61 3415.81 4076.52 4441.72 4408.46 4280.46 4128.48 4224.95 4095.52 4001.65 3166.76 3056.9 2998.82 3023.08 2999.9 2966.22 3054.73 3707.05 3018.73 3070.22 4473.93 3607.35 3710.74 3712.39 3588.29 3450.37 3012.12 4469.17 3135.22 3188.18 4103.54 3164.13 3170.83 3963.93 3182.37 3203.89 3166.16 3152.83 3075.56 3180.93 3079.06 2960.56 3117.74 3133.81 2979.39 2914.33 2733.7 1935.39 1641.39 1665.24 1751.7 1531.63 1669.48 2238.57 1861.13 1894.14 2097.92 0 0 0 0 0 0 0 0 0 0 2950.78 0 2317.29 2301.33 2440.38 2488.23 2731.21 2962.66 2942.5 3020.85 2980.81 3139.44 3200.65 3310.8 3292.86 3292.02 3180.38 3209.96 3123.83 3296.74 3259.85 3214.57 3026.74 3310.73 0 0 0 0 0 0 0 0 0 0 0 0 0 0 0 0 0 0 0 0 0 0 0 0 0 0 0 0 0 0 0 0 0 0 0 0 0 0 0 0 0 0 0 0 0 0 0 0 0 0 0 0 0 0 0 0 0 0 0 0 0 0 0 0 0 0 0 0 0 0 0 0 0 0 0 0 0 808.278 0 0 0 0 0 0 0 0 0 0 0 0 0 0 0 0 0 0 0 0 0 0 2774.71 2400.99 2325.03 2213.97 2224.92 2209.91 2186.56 2233.74 1756.98 1943.01 0 0 0 0 0 0 0 0 0 0 0 0 0 0 0 0 0 0 0 0 0 0 0 0 0 0 0 0 0 0 0 0 0 0 0 0 0 0 0 0 0 0 0 0 0 0 0 0 0 0 0 0 0 0 0 0 0 0 0 0 0 0 0 0 0 0 0 0 0 0 0 0 0 0 0 0 0 0 0 0 0 0 0 0 0 0 0 0 0 0 0 0 0 0 0 0 0 0 0 0 0 0 0 0 0 0 0 0 0 0 0 0 0
3508.97 3734.03 3444.78 3356.56 3087.39 2486.64 1639.24 0 0 0 0 0 0 0 0 0 0 0 0 0 0 0 0 0 0 0 0 0 0 0 0 0 0 0 0 0 0 0 0 0 0 0 0 0 0 0 0 0 0 0 0 0 0 0 0 0 0 0 0 0 0 0 0 0 0 0 0 0 0 0 0 0 0 0 0 0 0 0 0 0 0 0 0 0 0 0 0 2336.36 2491.85 2954.88 2971.89 3111.9 3085.91 2972.58 2946.53 2986.39 3059.86 3129.14 2973 2996.52 2915.75 2883.63 2860.91 2983.31 2897.02 2856.53 2721.2 2477.83 2428.41 2365.81 0 0 0 0 0 0 0 0 0 0 0 0 0 0 0 0 0 0 0 0 0 0 0 0 0 0 0 0 0 0 0 0 0 0 0 0 0 0 0 0 0 0 0 0 0 0 0 0 0 0 0 0 0 0 0 0 0 0 0 0 0 0 0 0 0 0 0 0 0 0 0 0 0 0 0 0 0 0 0 0 0 0 0 0 0 3393.22 3661.11 3350.13 3468.99 4160.01 4473.1 4469.17 4467.38 4430.34 4272.18 4098.02 4000.41 3916.65 3692.61 3608.9 3121.51 3146.39 3097.02 3047.3 3146.33 3170.41 3082.4 3116.12 3196.08 3535.14 3084.84 4633.44 4630.5 3164.07 3075.51 3216.36 3252.14 3296.61 3245.1 3306.82 3969.84 3970.4 3292.93 3297.78 3238.77 3224.64 3127.5 3235.08 3115.77 3046.19 3148.51 3075.17 2880.16 2695.19 2607.08 1896.49 1672.17 1840.53 2085.89 1954.35 2059.34 2598.6 2307.16 2346.36 2435.28 0 2141.07 2126.93 0 0 0 0 0 0 0 3268.8 0 2837.93 2816.3 2855.27 2792.44 3019 3083.42 3040.45 3088.36 3129.6 3230.54 3222.22 3349.19 3395.56 3413.73 3408.39 3458.62 3428.72 3448.53 3395.9 3426.2 3220.92 3297.98 3207.75 0 0 0 0 0 0 0 0 0 0 0 0 0 0 0 0 0 0 0 0 0 0 0 0 0 0 0 0 0 0 0 0 0 0 0 0 0 0 0 0 0 0 0 0 0 0 0 0 0 0 0 0 0 0 0 0 0 0 0 0 0 0 0 0 1906.47 0 0 2125.91 2241.68 1829.09 0 0 0 0 0 1658.27 1320.68 0 0 0 0 0 0 0 0 0 0 0 0 0 0 0 0 0 0 0 0 0 0 0 0 0 0 0 1878.24 1755.31 1561.03 1380.04 0 0 0 0 0 0 0 0 0 0 0 0 0 0 0 0 0 0 0 0 0 0 0 0 0 0 0 0 0 0 0 0 0 0 0 0 0 0 0 0 0 0 0 0 0 0 0 0 0 0 0 0 0 0 0 0 0 0 0 0 0 0 0 0 0 0 0 0 0 0 0 0 0 0 0 0 0 0 0 0 0 0 0 0 0 0 0 0 0 0 0 0 0 0 0 0 0 0 0 0 0 0 0 0 0 0 0 0 0 0 0 0 0 0
3539.69 3827.04 3541.33 3405 3194.37 2745.33 1925.35 0 0 0 0 0 0 0 0 0 0 0 0 0 0 0 0 0 0 0 0 0 0 0 0 0 0 0 0 0 0 0 0 0 0 0 0 0 0 0 0 0 0 0 0 0 0 0 0 0 0 0 0 0 0 0 0 0 0 0 0 0 0 0 0 0 0 0 0 0 0 0 0 0 0 0 0 0 0 0 0 0 0 2684.24 2921.85 3113.57 3084.33 2979.44 3050.23 3037.2 3043.7 3132.58 3015.96 2986.44 2864.77 2840.95 2869.92 2885.12 2875.77 2865.55 2797.8 2501.39 2453.66 0 0 0 0 1186.49 831.45 0 0 0 0 0 0 0 0 0 0 0 0 0 0 0 0 0 0 0 0 0 0 0 0 0 0 0 0 0 0 0 0 0 0 0 0 0 0 0 0 0 0 0 0 0 0 2657.5 2852.01 0 2851.58 0 0 0 0 0 0 0 0 0 0 0 0 0 0 0 0 0 0 0 0 0 0 0 0 0 0 0 0 0 0 0 3380.57 3887.34 3832.46 4118.85 4437.37 4371.93 4361.13 4372.95 4280.68 4106.15 3988.81 3890.4 3638.64 3549.5 3155.32 3152.42 3097.02 3035.94 3091.09 3847.31 4000.13 3131 4461.32 3547.85 3110.4 4668.12 4755.31 4637.41 3120.99 3223.52 3239.77 4063.58 3177.55 3211.98 3185.94 3142.5 3225.82 3240.58 3152.77 3147.63 3118.49 3259.22 3230.29 3118.72 3239.33 3129.72 2957.12 2823.27 2825.26 2511.5 2481.01 2375.76 2584.59 2487.97 2602.06 2920.93 2681.15 2585.66 2392.77 2036.08 2134.94 2444.08 0 0 0 0 0 2471.69 0 3386.37 2830.75 2716.09 2773.84 2904.09 2812.38 3037.2 3054.95 3026.74 3076.07 3143.32 3247.61 3189.09 3302.91 3335.61 3290.54 3284.93 3339.66 3281.53 3311.91 3243.97 3322.66 3094.34 3191.7 3236.21 2983.57 2767.8 0 0 0 0 0 0 0 0 0 0 0 0 0 0 0 0 0 0 0 0 0 0 0 0 0 0 0 0 0 0 0 0 0 0 0 0 0 0 0 0 0 0 0 0 0 0 0 0 0 0 0 0 0 0 0 0 0 0 0 0 0 0 1999.8 0 2251.73 2429.18 2670.91 2255.36 2032.85 0 0 0 0 0 0 0 0 0 0 0 0 0 0 0 0 0 0 0 0 0 0 0 0 0 0 0 0 0 0 0 0 0 0 0 0 0 0 0 0 0 0 0 0 0 0 0 0 0 0 0 0 0 0 0 0 0 0 0 0 0 0 0 0 0 0 0 0 0 0 0 0 0 0 0 0 0 0 0 0 0 0 0 0 0 0 0 0 0 0 0 0 0 0 0 0 0 0 0 0 0 0 0 0 0 0 0 0 0 0 0 0 0 0 0 0 0 0 0 0 0 0 0 0 0 0 0 0 0 0 0 0 0 0 0 0 0 0 0 0 0 0 0 0 0 0 0 0 0 0 0
3509.41 3797.93 3533.2 3431.74 3245.16 3036.82 0 0 0 0 0 0 0 0 0 0 0 0 0 0 0 0 0 0 0 0 0 0 0 0 0 0 0 0 0 0 0 0 0 0 0 0 0 0 0 0 0 0 0 0 0 0 0 0 0 0 0 0 0 0 0 0 0 0 0 0 0 0 0 0 0 0 0 0 0 0 0 0 0 0 0 0 0 0 0 0 0 0 0 0 0 0 0 3016.18 3052.51 2936.42 2964.33 3038.58 2994.38 2885.91 2806.17 2734.37 2777.74 2883.48 2926.33 2915.55 0 0 0 0 0 0 0 0 0 0 0 0 0 0 0 0 0 0 0 0 0 0 0 0 0 0 0 0 0 0 0 0 0 0 0 0 0 0 0 0 0 0 0 0 0 0 0 0 0 0 0 0 0 0 2608.17 3040.45 3195.59 3396.31 3393.43 0 3585.3 0 0 0 0 0 0 0 0 0 0 0 0 0 0 0 0 0 0 0 0 0 0 0 0 0 0 0 0 0 3348.86 3191.52 3882.3 4334.88 4497.32 4447.37 4500.45 4468.81 4402.21 4172.73 4072.96 3970.87 3721.03 3682.81 3266.45 3223.9 3183.16 3113.8 3191.15 3241.33 4066.93 3186.06 3237.89 3564.81 3106.43 3211.12 3253.84 3222.47 3074.77 3159.6 4247.74 3237.71 3202.66 4052.49 3953.84 3878.17 3281.91 3351.54 3306.29 3283.71 3196.75 3281.46 3275.06 3122.26 3174.01 3167.3 2937.6 2787.62 2909.48 2736.42 3000.86 3112.53 3360.87 3279.03 3377.17 3812.52 3356.63 3147.81 2746.28 2465.37 2623.75 2867.56 0 0 2309.19 0 2569.86 2708.59 2802.14 3251.45 2744.26 2692.81 2777.33 2936.37 2870.21 3036.32 3035.33 3066.01 3055.34 3119.88 3204.68 3121.1 3216.17 3248.55 3189.09 3220.37 3255.99 3220.12 3224.7 3097.71 3237.71 3031.99 3083.59 3257.57 3192.61 2958.01 0 0 0 0 0 0 0 0 0 0 0 0 0 0 0 0 0 0 0 0 0 0 0 0 0 0 0 0 0 0 0 0 0 0 0 0 0 0 0 0 0 0 0 0 0 0 0 0 0 0 0 0 0 0 0 0 0 0 0 0 0 2026.27 2313.01 2361.38 2580.81 3007.96 3336.34 2983.94 2732.72 0 0 0 0 1979.3 1622.84 0 1111.94 0 0 0 0 0 0 0 0 0 0 0 0 0 0 0 0 0 0 0 0 0 0 0 0 0 0 0 0 0 0 0 0 0 0 0 0 0 0 0 0 0 0 0 0 0 0 0 0 0 0 0 0 0 0 0 0 0 0 0 0 0 0 0 0 0 0 0 0 0 0 0 0 0 0 0 0 0 0 0 0 0 0 0 0 0 0 0 0 0 0 0 0 0 0 0 0 0 0 0 0 0 0 0 0 0 0 0 0 0 0 0 0 0 0 0 0 0 0 0 0 0 0 0 0 0 0 0 0 0 0 0 0 0 0 0 0 0 0 0 0 0 0 0
3788.5 3977.09 3724.33 3627.94 3492.02 3400.37 2751.77 0 0 0 0 0 0 0 0 0 0 0 0 0 0 0 0 0 0 0 0 0 0 0 0 0 0 0 0 0 0 0 0 0 0 0 0 0 0 0 0 0 0 0 0 0 0 0 0 0 0 0 0 0 0 0 0 0 0 0 0 0 0 0 0 0 0 0 0 0 0 0 0 0 0 0 0 0 0 0 0 0 0 0 0 0 0 0 2936.47 2836.1 2818.43 2891.38 2847.9 2964.38 2948.39 2847.56 2954.31 3044.37 2975.21 0 0 0 0 0 0 0 0 0 0 0 0 0 0 0 0 0 0 0 0 0 0 0 0 0 0 0 0 0 0 0 0 0 0 0 0 0 0 0 0 0 0 0 0 0 0 0 0 0 0 0 0 2034.28 2456.03 2376.03 2528.23 2864.97 3114.79 3230.66 3128.44 2992.08 3280.37 3062.48 3003.01 2922.66 2602.22 2425.07 2185.59 0 0 0 0 0 0 0 0 0 0 0 0 0 0 0 0 0 0 0 0 0 0 0 2994.65 2984.9 3154.49 3303.1 3385.62 3905.34 4219.85 4410.89 4405.91 4262.52 4153.52 4079.79 3929.67 3893.83 3772.57 3786.11 3883.92 3954.22 4099.53 3497.04 4433.38 4573.07 4636 3831.24 4644.85 3281.66 3281.78 3243.03 3118.78 3188.66 3174.85 3207.19 3163.77 3225.13 3150.76 3221.48 3281.08 3321.22 3264.86 3289.89 3204.74 3300.7 3268.74 3179 3117.74 3088.58 2967.27 2810.64 2847.8 2698.75 3000.43 3127.15 3307.27 3273.01 3300.05 3528.45 3255.3 3234.15 2997.48 2689.1 2758.2 2952.91 3027.39 0 2649.23 3079.57 2751.95 2908.37 3010.77 3375.81 2974.58 2941.77 3022.7 3146.51 3021.34 3251.32 3160.02 3195.28 3118.03 3162.4 3220.68 3177.37 3244.09 3234.09 3106.6 3175.63 3145.5 3183.46 3201.93 3045.42 3054.01 2792.63 2935.75 3135.74 2925.72 2858.18 0 0 0 0 0 0 0 0 0 0 0 0 0 0 0 0 0 0 0 0 0 0 0 0 0 0 0 0 0 0 0 0 0 0 0 0 0 0 0 0 0 0 0 0 0 0 0 0 0 0 0 0 0 0 0 0 1856.76 1942.31 2029.4 2295.7 2159.43 2220.97 2531.4 2569.47 2893.23 3191.7 3395.01 3338 3162.52 0 0 0 0 2577.64 2187.13 0 1378.93 0 0 0 0 0 0 0 0 0 0 0 0 0 0 0 0 0 0 0 0 0 0 0 0 0 0 0 0 0 0 0 0 0 0 0 0 0 0 0 0 0 0 0 0 0 0 0 0 0 0 0 0 0 0 0 0 0 0 0 0 0 0 0 0 0 0 0 0 0 0 0 0 0 0 0 0 0 0 0 0 0 0 0 0 0 0 0 0 0 0 0 0 0 0 0 0 0 0 0 0 0 0 0 0 0 0 0 0 0 0 0 0 0 0 0 0 0 0 0 0 0 0 0 0 0 0 0 0 0 0 0 0 0 0 0 0 0 0 0 0 0 0 0
3757.03 3904.71 3697.58 3626.37 3513.01 3404.37 3004.95 0 0 0 0 0 0 0 0 0 0 0 0 0 0 0 0 0 0 0 0 0 0 0 0 0 0 0 0 0 0 0 0 0 0 0 0 0 0 0 0 0 0 0 0 0 0 0 0 0 0 0 0 0 0 0 0 0 0 0 0 0 0 0 0 0 0 0 0 0 0 0 0 0 0 0 0 0 0 0 0 0 0 0 0 0 0 0 2904.34 2639.06 2709.6 2674.7 2657.24 2823.65 2629.67 2468.64 2646.35 2479.84 2559.74 0 0 0 0 0 0 0 0 0 0 0 0 0 0 0 0 0 0 0 0 0 0 0 0 0 0 0 0 0 0 0 0 0 0 0 0 0 0 0 0 0 0 0 0 0 0 0 0 0 0 0 2276.69 2248.74 2476.73 2439.53 2557.56 2848.67 3066.62 3041.28 2961.09 2945.7 3246.16 3119.83 3083.76 2981.24 2760.28 2585.62 2444.9 0 0 0 0 0 0 0 0 0 0 0 0 0 0 0 0 0 0 0 0 0 0 0 3040.34 2896.32 3139.97 3245.91 3307.6 3444.28 3388.9 4221.23 4296.69 4185.74 4044 3994.22 3501.86 3857.22 3407.42 3873.25 3972.28 3984.07 4105.55 3346.92 3278.64 3295.06 3279.03 3697.5 3137.39 3317.01 3349.13 3274.55 3175.81 3163.29 3146.8 3176.29 3124.65 3249.12 3150.94 3169.69 3204.19 3229.92 3220.43 3273.08 3246.85 3336.14 3190.73 3133.93 3139.03 3135.57 3021.78 2972.31 2982.88 2674.74 2955.45 3134.51 3257.44 3204.07 3228.18 3350 3149.1 3112.13 3034.02 2815.78 2836.1 2961.03 3029.36 2845.77 2542.95 0 2718.91 2850.17 2994.65 3326.35 2970.52 3042.54 3130.01 3231.16 3104.93 3228.11 3126.98 3171.43 3093.37 3123.19 3168.07 3139.56 3214.63 3216.05 3130.48 3195.71 3133.17 3152.83 3164.73 2995.13 2985.22 2711.31 2786.04 2937.76 2677.94 2654.43 1919.25 0 0 0 0 0 0 0 0 0 0 0 0 0 0 0 0 0 0 0 0 0 0 0 0 0 0 0 0 0 0 0 0 0 0 0 0 0 0 0 0 0 0 0 0 0 0 0 0 0 0 0 0 0 0 2548.08 2220.35 2153.58 2197.67 2396.08 2351.95 2348.43 2499.9 2537.41 2758.15 3083.82 3333.82 3333.82 3263.4 3270.72 3459.19 3761.15 0 2771.13 2279.11 1682.57 1306.46 0 0 0 0 0 0 0 0 0 0 0 0 0 0 0 0 0 0 0 0 0 0 0 0 0 0 0 0 0 0 0 0 0 0 0 0 0 0 0 0 0 0 0 0 0 0 0 0 0 0 0 0 0 0 0 0 0 0 0 0 0 0 0 0 0 0 0 0 0 0 0 0 0 0 0 0 0 0 0 0 0 0 0 0 0 0 0 0 0 0 0 0 0 0 0 0 0 0 0 0 0 0 0 0 0 0 0 0 0 0 0 0 0 0 0 0 0 0 0 0 0 0 0 0 0 0 0 0 0 0 0 0 0 0 0 0 0 0 0 0 0 0 0
3664.95 3775.46 3612.55 3550.02 3457.05 3307.73 2867.27 0 0 0 0 0 0 0 0 0 0 0 0 0 0 0 0 0 0 0 0 0 0 0 0 0 0 0 0 0 0 0 0 0 0 0 0 0 0 0 0 0 0 0 0 0 0 0 0 0 0 0 0 0 0 0 0 0 0 0 0 0 0 0 0 0 0 0 0 0 0 0 0 0 0 0 0 0 0 0 0 0 0 0 0 0 0 0 0 0 0 2682.61 2687.98 2909.84 0 2490.22 0 2331.26 0 0 0 0 0 0 0 0 0 0 0 0 0 0 0 0 0 0 0 0 0 0 0 0 0 0 0 0 0 0 0 0 0 0 0 0 0 0 0 0 0 0 0 0 0 0 0 0 0 0 2219.09 2350.1 2694.54 2689.27 2759.56 2869.23 2981.56 3262.07 3434.27 3323.12 3192.24 3024.61 3179.9 3180.2 3237.33 3113.75 2922.25 2738.48 2665.86 2905.15 0 2200.81 0 0 0 0 0 0 0 0 0 0 0 0 0 0 0 0 0 0 0 0 0 2732.99 2963.28 3150.7 3152 3826.26 3297.26 4273.05 4254.09 4242.47 4106.55 4057.39 3525.33 3905.43 3481.66 3918.11 4014.77 4013.33 3992.61 4316.48 3270.14 3265.94 4464.41 4955.3 4475.48 3354.62 3393.29 3341.99 3209.22 3249.56 3989 3259.98 3142.03 4056.12 3206.95 3211.18 3261.18 3301.09 3287.76 3332.1 3253.21 3391.3 3206.34 3148.93 3238.39 3200.46 3111.67 2995.29 3131.36 2940.59 3047.46 3025.32 3170.71 3018.9 2982.35 3014.18 2829.46 2739.69 2737.5 2758.38 2906.41 3032.92 3115.71 3111.26 2847.66 3251.76 3043.26 3334.55 3250.06 3490.64 3223.46 3223.4 3299.21 3380.91 3179.12 3386.44 3297.59 3335.34 3197.6 3178.88 3197.17 3154.61 3251.95 3270.14 3171.61 3210.39 3145.68 3213.4 3265.81 3152.89 3177.13 2835 2921.23 3023.36 2722.53 2617.69 0 0 0 0 0 0 0 0 0 0 0 0 0 0 0 0 0 0 0 0 0 0 0 0 0 0 0 0 0 0 0 0 0 0 0 0 0 0 0 0 0 0 0 0 0 0 0 0 0 0 0 0 0 0 2298.91 2603.56 2331.78 2322.04 2396.84 2474.83 2439.21 2465.99 2609.35 2705.19 2866 3166.04 3216.91 3172.21 3208.3 3331.9 3519.2 3718.89 3514.92 2829.6 2076.37 1874.73 1584.62 0 0 0 0 0 0 0 0 0 0 0 0 0 0 0 0 0 0 0 0 0 0 0 0 0 0 0 0 0 0 0 0 0 0 0 0 0 0 0 0 0 0 0 0 0 0 0 0 0 0 0 0 0 0 0 0 0 0 0 0 0 0 0 0 0 0 0 0 0 0 0 0 0 0 0 0 0 0 0 0 0 0 0 0 0 0 0 0 0 0 0 0 0 0 0 0 0 0 0 0 0 0 0 0 0 0 0 0 0 0 0 0 0 0 0 0 0 0 0 0 0 0 0 0 0 0 0 0 0 0 0 0 0 0 0 0 0 0 0 0 0 0 0
3577.58 3664.95 3538.27 3499.53 3389.11 3249.75 2857.84 2391.51 0 0 0 0 0 0 0 0 0 0 0 0 0 0 0 0 0 0 0 0 0 0 0 0 0 0 0 0 0 0 0 0 0 0 0 0 0 0 0 0 0 0 0 0 0 0 0 0 0 0 0 0 0 0 0 0 0 0 0 0 0 0 0 0 0 0 0 0 0 0 0 0 0 0 0 0 0 0 0 0 0 0 0 0 0 0 0 0 0 0 0 0 0 0 0 0 0 0 0 0 0 0 0 0 0 0 0 0 0 0 0 0 0 0 0 0 0 0 0 0 0 0 0 0 0 0 0 0 0 0 0 0 0 0 0 0 0 0 0 0 0 0 0 0 0 0 2779.4 3050.51 3288.8 3247.8 3144.85 3076.01 3113 3206.46 3346.79 3237.14 3134.28 2959.57 3070.78 3025.7 3180.69 3043.1 2945.91 2648.9 2658.38 2761.01 2959.99 2454.02 2319.34 0 0 0 0 0 0 0 0 0 0 0 0 0 0 0 0 0 0 0 0 2770.72 2933.24 3031.28 2990.48 3156.04 3159.01 3326.95 3458.76 3369.84 3377.17 3494.93 3466.55 3527.85 3503.18 3982.56 4064.57 4063.58 3342.32 4243.76 4419.6 3323.52 3316.16 4979.12 3248.55 3440.89 3496.1 3478.7 3332.96 3337.14 3313.8 3364.91 3234.96 4109.17 3254.29 3274.8 3337.4 3384.8 3411.64 3477.84 3403.48 3593.52 3499.38 3468.35 3508.82 3435.82 3344.25 3226.81 3291.83 3247.92 3257.06 3251.7 3401.34 3349.39 3245.1 3241.65 3161.09 3077.88 2977.64 2954.88 3083.99 3181.11 3117.45 3094.68 2884.13 3132.82 2874.74 3073.98 3167.12 3408.04 3121.86 3282.04 3433.36 3505.96 3345.12 3520.6 3401.96 3409.84 3222.47 3230.04 3216.85 3135.86 3185.03 3181.41 3070.78 3129.9 3046.08 3156.57 3168.61 3049.73 3091.94 2886.31 2967.27 3069.65 2841.1 2935.08 0 0 0 0 0 0 0 0 0 0 0 0 0 0 0 0 0 0 0 0 0 0 0 0 0 0 0 0 0 0 0 0 0 0 0 0 0 0 0 0 0 0 0 0 0 0 0 0 0 0 0 0 0 0 2542.64 2873.01 2724.29 2684.28 2707.81 2767.84 2738.08 2771.5 2885.66 3066.85 3135.22 3365.05 3424.53 3469.21 3561.02 3659.11 3699.45 3846.96 3477.91 2834.52 1999.65 1761.61 1598.89 1272.11 0 0 0 0 0 0 0 0 0 0 0 0 0 0 0 0 0 0 0 0 0 0 0 0 0 0 0 0 0 0 0 0 0 0 0 0 0 0 0 0 0 0 0 0 0 0 0 0 0 0 0 0 0 0 0 0 0 0 0 0 0 0 0 0 0 0 0 0 0 0 0 0 0 0 0 0 0 0 0 0 0 0 0 0 0 0 0 0 0 0 0 0 0 0 0 0 0 0 0 0 0 0 0 0 0 0 0 0 0 0 0 0 0 0 0 0 0 0 0 0 0 0 0 0 0 0 0 0 0 0 0 0 0 0 0 0 0 0 0 0 0 0
3673.13 3743.28 3540.06 3492.53 3417.34 3273.52 2851.77 2312.88 0 0 0 0 0 0 0 0 0 0 0 0 0 0 0 0 0 0 0 0 0 0 0 0 0 0 0 0 0 0 0 0 0 0 0 0 0 0 0 0 0 0 0 0 0 0 0 0 0 0 0 0 0 0 0 0 0 0 0 0 0 0 0 0 0 0 0 0 0 0 0 0 0 0 0 0 0 0 0 0 0 0 0 0 0 0 0 0 0 0 0 0 0 0 0 0 0 0 0 0 0 0 0 0 0 0 0 0 0 0 0 0 0 0 0 0 0 0 0 0 0 0 0 0 0 0 0 0 0 0 0 0 0 0 0 0 0 0 0 0 0 0 0 0 0 2719.92 2757.61 3071.73 3282.62 3289.05 3224.33 3100.51 3058.8 3165.62 3258.77 3224.82 3122.09 2994.38 2995.34 2891.13 3084.72 2987.13 2866.34 2554.25 2540.87 2576.45 2576.02 2184.16 2250.19 1773.9 1842.57 1451.99 0 0 0 0 0 0 0 0 0 0 0 0 0 0 0 0 0 0 2707.11 2803.36 2844.28 3114.56 3068.81 3229.6 3327.8 3294.54 3310.99 3423.2 3420.62 3514.26 4086.65 4186.37 4096.02 4102.03 3347.32 3424.74 3329.65 3260.36 3229.17 3247.99 3160.73 3402.44 3470.93 3410.05 3369.84 3319.84 3314.85 3330.25 3225.32 3370.05 3247.48 3293.18 3364.71 3396.93 3450.44 3526.89 3478.27 3683.21 3665.43 3682.48 3695.62 3694.65 3619.41 3470.43 3407.56 3379.82 3344.39 3326.81 3391.71 3411.37 3287.25 3269.12 3253.97 3234.27 3105.45 3048.46 3165.03 3313.61 3160.85 3115.48 2951.81 3169.27 2933.19 3115.71 3239.52 3341.12 3044.97 3300.57 3484.34 3562.92 3359.05 3513.52 3403.13 3428.3 3192.79 3171.91 3116.18 3007.75 3047.91 3063.1 2964.23 3057.35 2981.98 3137.03 3188.54 3124.53 3167.53 2988.09 3043.32 3085.57 2782.85 2780.36 0 0 0 0 0 0 0 0 0 0 0 0 0 0 0 0 0 0 0 0 0 0 0 0 0 0 0 0 0 0 0 0 0 0 0 0 0 0 0 0 0 0 0 0 0 0 0 0 0 0 0 0 0 0 2616.63 2992.03 2869.77 3039.02 2973.84 2956.6 3017.54 3041.55 3137.97 3353.48 3392.6 3575.98 3467.49 3597.37 3705.83 3693.43 3750.73 3737.61 3401.61 2812.81 2256.58 1928.85 1667.39 0 0 0 0 0 0 0 0 0 0 0 0 0 0 0 0 0 0 0 0 0 0 0 0 0 0 0 0 0 0 0 0 0 0 0 0 0 0 0 0 0 0 0 0 0 0 0 0 0 0 0 0 0 0 0 0 0 0 0 0 0 0 0 0 0 0 0 0 0 0 0 0 0 0 0 0 0 0 0 0 0 0 0 0 0 0 0 0 0 0 0 0 0 0 0 0 0 0 0 0 0 0 0 0 0 0 0 0 0 0 0 0 0 0 0 0 0 0 0 0 0 0 0 0 0 0 0 0 0 0 0 0 0 0 0 0 0 0 0 0 0 0 0
3494.64 3621.52 3435.96 3396.24 3383.78 3122.85 2920.47 2482.11 0 0 0 0 0 0 0 0 0 0 0 0 0 0 0 0 0 0 0 0 0 0 0 0 0 0 0 0 0 0 0 0 0 0 0 0 0 0 0 0 0 0 0 0 0 0 0 0 0 0 0 0 0 0 0 0 0 0 0 0 0 0 0 0 0 0 0 0 0 0 0 0 0 0 0 0 0 0 0 0 0 0 0 0 0 0 0 0 0 0 0 0 0 0 0 0 0 0 0 0 0 0 0 0 0 0 0 0 0 0 0 0 0 0 0 0 0 0 0 0 0 0 0 0 0 0 0 0 0 0 0 0 0 0 0 0 0 0 0 0 0 0 0 0 0 2413.94 2606.02 2817.72 3071.62 3113 2979.33 3020.91 3041.11 3143.79 3203.34 3226.31 3227.62 3089.04 3129.72 3115.83 3217.1 3119.71 3046.02 2828.93 2761.6 2706.5 2808.52 2503.26 2468.31 1928.38 2180.3 1801.33 1750.23 0 0 0 0 0 0 0 0 0 0 0 0 0 0 0 0 0 0 2674.44 2725.13 3142.79 3110.4 3327.61 3346.65 3264.92 3261.69 3353.28 3359.45 3515.07 4164.76 4223.89 4080.88 4097.93 3491.88 3528.89 3484.48 3358.85 3275.5 3230.6 3193.09 3375.27 3362.28 3368.97 3422.85 3314.26 3288.67 3315.05 3211 3337.53 3236.15 3297.26 3340.66 3386.58 3493.62 3635.8 3572.7 3793.04 3750.14 3812.6 3872.08 3844.05 3661.75 3419.08 3345.25 3462.26 3377.44 3403.96 3402.17 3351.54 3309.82 3254.79 3293.96 3226.13 3107.63 3080.47 3140.5 3250.69 3098.74 3004.89 3032.87 3225.69 3151.12 3148.63 3213.09 3343.85 3076.07 3396.38 3610.84 3669.84 3392.4 3564.05 3480.87 3436.03 3250.19 3220.43 3167.65 3053.4 3045.14 3066.9 2951.24 3059.75 3029.47 3138.5 3157.58 3088.92 3119.77 3032.81 3116.23 3216.97 2916.61 2918.24 2112.29 0 0 0 0 0 0 0 0 0 0 0 0 0 0 0 0 0 0 0 0 0 0 0 0 0 0 0 0 0 0 0 0 0 0 0 0 0 0 0 0 0 0 0 0 0 0 0 0 0 0 0 0 2921.39 2805.56 3060.75 3034.73 3160.38 3126.8 3150.94 3145.8 3150.17 3274.67 3438.63 3450.44 3577.04 3849.87 3606.42 3647.42 3699.86 3761.66 3687.58 3475.75 2974.63 2333.21 0 0 0 0 0 0 0 0 0 0 0 0 0 0 0 0 0 0 0 0 0 0 0 0 0 0 0 0 0 0 0 0 0 0 0 0 0 0 0 0 0 0 0 0 0 0 0 0 0 0 0 0 0 0 0 0 0 0 0 0 0 0 0 0 0 0 0 0 0 0 0 0 0 0 0 0 0 0 0 0 0 0 0 0 0 0 0 0 0 0 0 0 0 0 0 0 0 0 0 0 0 0 0 0 0 0 0 0 0 0 0 0 0 0 0 0 0 0 0 0 0 0 0 0 0 0 0 0 0 0 0 0 0 0 0 0 0 0 0 0 0 0 0 0 0
3473.08 3592.52 3398.72 3347.46 3334.42 3026.57 2756.02 2429.6 0 0 0 0 0 0 0 0 0 0 0 0 0 0 0 0 0 0 0 0 0 0 0 0 0 0 0 0 0 0 0 0 0 0 0 0 0 0 0 0 0 0 0 0 0 0 0 0 0 0 0 0 0 0 0 0 0 0 0 0 0 0 0 0 0 0 0 0 0 0 0 0 0 0 0 0 0 0 0 0 0 0 0 0 0 0 0 0 0 0 0 0 0 0 0 0 0 0 0 0 0 0 0 0 0 0 0 0 0 0 0 0 0 0 0 0 0 0 0 0 0 0 0 0 0 0 0 0 0 0 0 0 0 0 0 0 0 0 0 0 0 0 0 0 0 2769.94 2709.47 2907.21 3226.75 3225.94 3152 3220.68 3215.06 3270.46 3333.16 3469.21 3425.43 3258.01 3244.53 3204.19 3254.98 3191.7 3042.54 2861.06 2720.05 2595.26 2722.17 2508.43 2289.87 1819.39 2011.09 1782.76 1755.27 0 0 0 0 0 0 0 0 0 0 0 0 0 0 0 0 0 0 0 2361.15 2796.26 2792.54 3208.73 3169.87 3188.48 3177.37 3289.12 3385.55 3615.43 4416.23 4441.83 4172.63 3350.06 3426.34 3479.93 3483.61 3327.61 3251.26 3263.84 3258.14 3445.69 3473.08 3438.49 3446.19 3257.63 3217.65 3279.6 3155.2 3224.64 3163.06 3183.76 3254.03 3322.99 3450.66 3574.83 3534.84 3741.53 3730.63 3659.99 3808.02 3731.04 3499.89 3280.56 3171.19 3168.37 3209.1 3251.01 3298.36 3229.85 3231.53 3236.83 3310.47 3273.97 3153.07 3097.65 3189.88 3281.53 3190.12 3006.88 2979.54 3068.36 3095.31 3182.56 3165.03 3172.69 2964.12 3213.46 3542.83 3643.38 3379.42 3515.51 3471.36 3413.66 3232.16 3136.39 3077.48 3005.59 2971.79 2981.03 2864.43 2936.06 2908.07 3001.24 3104.59 3074.6 3024.39 2963.39 3137.68 3253.59 3013.69 3058.57 2358.13 0 0 0 0 0 0 0 0 0 0 0 0 0 0 0 0 0 0 0 0 0 0 0 0 0 0 0 0 0 0 0 0 0 0 0 0 0 0 0 0 0 0 0 0 0 0 0 0 0 0 0 0 2939.09 2876.86 3138.09 3098.28 3151.77 3154.26 3153.37 3119.71 3098.68 3203.28 3273.59 3251.45 3314.85 3302.19 3355.62 3387.33 3396.93 3541.63 3508.16 3460.48 3045.14 2456.46 0 0 0 0 0 0 0 0 0 0 0 0 0 0 0 0 0 0 0 0 0 0 0 0 0 0 0 0 0 0 0 0 0 0 0 0 0 0 0 0 0 0 0 0 0 0 0 0 0 0 0 0 0 0 0 0 0 0 0 0 0 0 0 0 0 0 0 0 0 0 0 0 0 0 0 0 0 0 0 0 0 0 0 0 0 0 0 0 0 0 0 0 0 0 0 0 0 0 0 0 0 0 0 0 0 0 0 0 0 0 0 0 0 0 0 0 0 0 0 0 0 0 0 0 0 0 0 0 0 0 0 0 0 0 0 0 0 0 0 0 0 0 0 0 0
3458.69 3505.37 3278.83 3258.39 3227.24 2915.65 2676.79 2187.33 0 0 0 0 0 0 0 0 0 0 0 0 0 0 0 0 0 0 0 0 0 0 0 0 0 0 0 0 0 0 0 0 0 0 0 0 0 0 0 0 0 0 0 0 0 0 0 0 0 0 0 0 0 0 0 0 0 0 0 0 0 0 0 0 0 0 0 0 0 0 0 0 0 0 0 0 0 0 0 0 0 0 0 0 0 0 0 0 0 0 0 0 0 0 0 0 0 0 0 0 0 0 0 0 0 0 0 0 0 0 0 0 0 0 0 0 0 0 0 0 0 0 0 0 0 0 0 0 0 0 0 0 0 0 0 0 0 0 0 0 0 0 0 0 0 3020.25 2914.49 3114.21 3369.91 3326.09 3247.55 3299.53 3302.78 3330.31 3395.35 3475.6 3436.17 3257.63 3229.67 3203.21 3253.34 3209.4 3117.62 2951.92 2917.93 2810.4 3021.34 3043.37 3010.34 2337.43 2578.27 2414.25 2544.95 0 2118.18 1686.09 1094.79 0 0 0 0 0 0 0 0 0 0 0 0 0 0 2043.84 2278.98 3022.38 2932.31 3304.47 3142.38 3172.93 3122.67 3238.39 3312.82 4282.65 4113.09 4153.72 3460.83 3483.25 3660.07 3729.55 3692.21 3505.52 3392.88 3357.44 3272.5 3481.8 3494.64 3382 3415.12 3215.92 3196.2 3338.26 3254.73 3340.99 3263.4 3280.69 3313.87 3410.67 3583.46 3671.52 3570.57 3740.53 3680.3 3580.78 3696.19 3749.47 3534.77 3286.8 3198.15 3202.97 3240.52 3285.64 3301.41 3263.78 3240.65 3176.83 3286.15 3288.6 3175.45 3146.21 3229.29 3329.98 3208.05 3057.29 3184.67 3155.38 3139.26 3212.66 3180.26 3192.67 3077.03 3376.76 3705.91 3738.53 3508.23 3599.99 4324.71 4381.86 3234.59 3143.79 3044.64 2978.91 2951.4 2942.81 2875.08 2926.64 2874.69 3027.06 3108.15 3054.56 2961.71 2928.27 3088.92 2999.52 2732.77 0 0 0 0 0 0 0 0 0 0 0 0 0 0 0 0 0 0 0 0 0 0 0 0 0 0 0 0 0 0 0 0 0 0 0 0 0 0 0 0 0 0 0 0 0 0 0 0 0 0 0 0 0 3036.49 2999.68 2899.43 3094.51 3059.58 3125.35 3146.27 3175.39 3161.33 3117.39 3190.3 3237.39 3232.09 3299.47 3593.36 3305.06 3294.03 3307.66 3439.06 3390.62 3431.81 3069.43 2603.76 2002.49 1798.78 0 1504.37 0 0 0 0 0 0 0 0 0 0 0 0 0 0 0 0 0 0 0 0 0 0 0 0 0 0 0 0 0 0 0 0 0 0 0 0 0 0 0 0 0 0 0 0 0 0 0 0 0 0 0 0 0 0 0 0 0 0 0 0 0 0 0 0 0 0 0 0 0 0 0 0 0 0 0 0 0 0 0 0 0 0 0 0 0 0 0 0 0 0 0 0 0 0 0 0 0 0 0 0 0 0 0 0 0 0 0 0 0 0 0 0 0 0 0 0 0 0 0 0 0 0 0 0 0 0 0 0 0 0 0 0 0 0 0 0 0 0 0 0 0
3280.69 3320.82 3135.86 3105.22 3080.76 2789.8 0 0 0 0 0 0 0 0 0 0 0 0 0 0 0 0 0 0 0 0 0 0 0 0 0 0 0 0 0 0 0 0 0 0 0 0 0 0 0 0 0 0 0 0 0 0 0 0 0 0 0 0 0 0 0 0 0 0 0 0 0 0 0 0 0 0 0 0 0 0 0 0 0 0 0 0 0 0 0 0 0 0 0 0 0 0 0 0 0 0 0 0 0 0 0 0 0 0 0 0 0 0 0 0 0 0 0 0 0 0 0 0 0 0 0 0 0 0 0 0 0 0 0 0 0 0 0 0 0 0 0 0 0 0 0 0 0 0 0 0 0 0 0 0 0 0 2887.3 3128.84 2892.88 2962.08 3241.52 3208.05 3114.5 3192.3 3210.14 3147.86 3211.37 3288.86 3286.93 3082.06 3086.48 3084.04 3142.5 3127.15 3185.88 3097.08 3128.79 3032.65 3465.84 3501.35 3657.52 2906.56 2852.45 2503.11 2172.15 1732.02 2292.28 0 0 0 0 0 0 0 0 0 0 0 0 0 0 0 0 0 1493.15 0 0 2835.29 2642.76 2848.33 2897.47 3110.98 3321.22 3560.65 4169.72 4201.26 3479.93 3507.87 3670.16 3677.96 3691.39 3452.36 3368.63 3225.88 3212.11 3454.85 3505.08 3469.06 3582.08 3376.56 3314.07 3426.76 3333.03 3373.23 3262.77 3293.96 3326.09 3365.65 3511.46 3621.75 3598.99 3823.2 3793.73 3773.25 3835.53 3815.81 3616.21 3373.5 3192.3 3147.21 3146.21 3120.93 3122.61 3066.01 3062.43 3025.65 3154.26 3206.95 3079.63 3048.9 3133.29 3243.15 3146.45 3035.44 3186.61 3095.36 3060.3 3304.47 3315.64 3432.16 3236.52 3532.09 3798.88 3742.03 3491.44 3621.28 3564.35 3462.69 3246.35 3149.93 3072.35 3034.29 3641.09 2990.7 2897.72 2937.04 2886.9 3068.53 3182.37 3108.96 2960.25 2906.96 3072.97 2957.17 2686 0 0 0 0 0 0 0 0 0 0 0 0 0 0 0 0 0 0 0 0 0 0 0 0 0 0 0 0 0 0 0 0 0 0 0 0 0 0 0 0 0 0 0 0 0 0 0 0 0 0 0 0 3229.42 3097.48 3055.73 2959.57 3014.72 3087.22 3154.97 3205.36 3207.44 3176.71 3139.56 3172.81 3184.13 3198.7 3216.54 3508.09 3139.09 3139.26 3117.8 3205.48 3132.93 3175.57 2776.22 2384.57 2027.69 1927.67 1518.24 1470.86 1019.4 0 0 0 0 0 0 0 0 0 0 0 0 0 0 0 0 0 0 0 0 0 0 0 0 0 0 0 0 0 0 0 0 0 0 0 0 0 0 0 0 0 0 0 0 0 0 0 0 0 0 0 0 0 0 0 0 0 0 0 0 0 0 0 0 0 0 0 0 0 0 0 0 0 0 0 0 0 0 0 0 0 0 0 0 0 0 0 0 0 0 0 0 0 0 0 0 0 0 0 0 0 0 0 0 0 0 0 0 0 0 0 0 0 0 0 0 0 0 0 0 0 0 0 0 0 0 0 0 0 0 0 0 0 0 0 0 0 0 0 0
2812.57 2976.11 2816.68 2784.15 2759.92 2378.29 2480.13 0 0 0 0 0 0 0 0 0 0 0 0 0 0 0 0 0 0 0 0 0 0 0 0 0 0 0 0 0 0 0 0 0 0 0 0 0 0 0 0 0 0 0 0 0 0 0 0 0 0 0 0 0 0 0 0 0 0 0 0 0 0 0 0 0 0 0 0 0 0 0 0 0 0 0 0 0 0 0 0 0 0 0 0 0 0 0 0 0 0 0 0 0 0 0 0 0 0 0 0 0 0 0 0 0 0 0 0 0 0 0 0 0 0 0 0 0 0 0 0 0 0 0 0 0 0 0 0 0 0 0 0 0 0 0 0 0 0 0 0 0 0 0 0 0 3054.51 3517.79 3168.79 3043.04 3229.6 3176.65 3040.01 3164.37 3204.44 3138.44 3161.09 3235.27 3257.06 3110.51 3135.63 3158.06 3199.31 3198.51 3317.87 3220.68 3280.44 3263.53 3659.59 3843.17 4284.62 3882.3 3629.04 2935.6 2538.98 2037.14 2502.63 2503.63 2639.19 0 0 0 0 0 0 0 0 0 0 0 0 0 0 0 0 0 0 0 2434.15 2595.94 2625.76 2713.67 2834.52 2962.71 3762.84 3814.42 3078.78 3193.4 3330.31 3384.32 3495.37 3330.45 3322.27 3214.81 3088.64 3362.96 3578.34 3561.78 3752.24 3482.24 3426.55 3576.13 3496.9 3567.08 3469.64 3338.07 3348.39 3357.03 3556.04 3645.6 3661.03 3813.64 3747.04 3698.15 3924.53 3927.47 3733.28 3434.41 3284.93 3183.22 3206.15 3201.87 3201.01 3111.67 3140.97 3063.49 3187.33 3203.64 3121.57 3113.8 3179.06 3302.39 3251.45 3100.11 3314.26 3251.45 3272.76 3465.55 3333.29 3384.39 3168.49 3452.64 3762.59 3700.59 3427.53 3535.73 3502.67 4484.7 3270.59 3138.27 3012.99 2956.96 2938.89 2985.54 2911.55 2971.05 2923.37 3077.08 3216.54 3252.52 3143.97 3175.21 3247.61 3141.97 2880.81 3046.52 0 0 0 0 0 0 0 0 0 0 0 0 0 0 0 0 0 0 0 0 0 0 0 0 0 0 0 0 0 0 0 0 0 0 0 0 0 0 0 0 0 0 0 0 0 0 0 0 0 0 0 2823.88 2970.94 3084.1 2986.28 3081.95 3098.28 3152.42 3208.11 3214.45 3200.71 3161.57 3141.44 3165.5 3175.99 3214.81 3161.57 3074.32 3065.62 3108.21 3163.41 3163.53 3189.51 2777.42 2402.47 2243.66 2331.1 2061.17 1970.44 1245.07 1038.32 849.295 0 0 0 0 0 0 0 0 0 0 0 0 0 0 0 0 0 0 0 0 0 0 0 0 0 0 0 0 0 0 0 0 0 0 0 0 0 0 0 0 0 0 0 0 0 0 0 0 0 0 0 0 0 0 0 0 0 0 0 0 0 0 0 0 0 0 0 0 0 0 0 0 0 0 0 0 0 0 0 0 0 0 0 0 0 0 0 0 0 0 0 0 0 0 0 0 0 0 0 0 0 0 0 0 0 0 0 0 0 0 0 0 0 0 0 0 0 0 0 0 0 0 0 0 0 0 0 0 0 0 0 0 0 0 0 0 0 0
2691.13 2764.29 2537.14 2517.08 2506.44 2299.5 2270.62 1816.77 1618.4 1165.98 0 0 0 0 0 0 0 0 0 0 0 0 0 0 0 0 0 0 0 0 0 0 0 0 0 0 0 0 0 0 0 0 0 0 0 0 0 0 0 0 0 0 0 0 0 0 0 0 0 0 0 0 0 0 0 0 0 0 0 0 0 0 0 0 0 0 0 0 0 0 0 0 0 0 0 0 0 0 0 0 0 0 0 0 0 0 0 0 0 0 0 0 0 0 0 0 0 0 0 0 0 0 0 0 0 0 0 0 0 0 0 0 0 0 0 0 0 0 0 0 0 0 0 0 0 0 0 0 0 0 0 0 0 0 0 0 0 0 0 0 0 2770.58 3160.02 3413.45 3031.44 2942.08 3173.83 3175.21 3060.97 3164.07 3208.85 3167.12 3181.05 3265.94 3303.62 3154.08 3183.04 3195.47 3259.41 3260.99 3348.79 3319.77 3386.99 3343.19 3701.25 3841.06 4173.77 3741.44 3695.05 3029.85 2599.24 2253.49 2386.91 2334.64 2213.97 0 0 0 0 0 0 0 0 0 0 0 0 0 0 0 0 0 0 0 0 2146.03 2125.45 2107.22 2311 2347.38 2623.01 2671.21 2687.77 2926.84 2991.28 3019.66 3258.52 3112.59 3162.22 3093.42 3051.29 3385.14 3581.01 3682.72 3932.34 3705.09 3655.92 3812.6 3665.59 3662.95 3612.55 3475.39 4166.1 4176.05 3638.01 4460.61 4296.25 3802.41 3815.29 3624.25 3869.49 3851.46 3673.77 3382.34 3156.27 3142.26 3185.34 3200.53 3273.91 3134.81 3175.39 3037.64 3149.1 3251.26 3156.04 3179.84 3236.02 3271.99 3274.61 3147.1 3513.96 3558.99 3408.94 3543.5 3267.47 3244.28 3168.25 3405.9 3730.46 3576.59 3388.36 3640.69 3662.31 4403.48 3419.85 3246.98 3068.87 2987.98 2934.36 2936.42 2802.8 2862.52 2786.97 2979.07 3130.07 3226 3089.84 3203.15 3459.41 3416.37 3154.08 3236.33 0 0 0 0 0 0 0 0 0 0 0 0 0 0 0 0 0 0 0 0 0 0 0 0 0 0 0 0 0 0 0 0 0 0 0 0 0 0 0 0 0 0 0 0 0 0 0 0 0 0 2442.87 2555.77 2840.71 3004.08 2902.34 2940.43 2993.9 3135.28 3262.77 3258.65 3279.35 3235.46 3192.97 3248.99 3286.15 3268.1 3168.49 3057.79 3045.14 3003.82 3041 3032.92 2933.13 2636.49 2455.09 2385.42 2439.81 2272.41 2278.98 1359.98 1155.12 773.614 0 0 0 0 0 0 0 0 0 0 0 0 0 0 0 0 0 0 0 0 0 0 0 0 0 0 0 0 0 0 0 0 0 0 0 0 0 0 0 0 0 0 0 0 0 0 0 0 0 0 0 0 0 0 0 0 0 0 0 0 0 0 0 0 0 0 0 0 0 0 0 0 0 0 0 0 0 0 0 0 0 0 0 0 0 0 0 0 0 0 0 0 0 0 0 0 0 0 0 0 0 0 0 0 0 0 0 0 0 0 0 0 0 0 0 0 0 0 0 0 0 0 0 0 0 0 0 0 0 0 0 0 0 0 0 0 0 0
0 2867.12 2666.79 2670.35 2713.67 2551.84 2567.3 2035.9 1701.03 1369.85 0 0 0 0 0 0 0 0 0 0 0 0 0 0 0 0 0 0 0 0 0 0 0 0 0 0 0 0 0 0 0 0 0 0 0 0 0 0 0 0 0 0 0 0 0 0 0 0 0 0 0 0 0 0 0 0 0 0 0 0 0 0 0 0 0 0 0 0 0 0 0 0 0 0 0 0 0 0 0 0 0 0 0 0 0 0 0 0 0 0 0 0 0 0 0 0 0 0 0 0 0 0 0 0 0 0 0 0 0 0 0 0 0 0 0 0 0 0 0 0 0 0 0 0 0 0 0 0 0 0 0 0 0 0 0 0 0 0 2084.21 2075.55 2406.64 3031.6 3078.61 3393.29 2993.95 2940.74 3164.31 3088.81 3037.15 3136.21 3182.13 3158.23 3160.67 3261.94 3288.02 3173.29 3267.59 3250 3271.42 3246.67 3341.12 3322.66 3349.86 3315.83 3584.46 3585.61 3773.76 3316.16 3215.86 2509.36 2098.18 2053.47 2266.61 2041.33 1921.78 0 0 0 0 0 0 0 0 0 0 0 0 0 0 0 0 0 0 0 1210.7 1745.48 1817.52 1891.92 2152.31 2227.01 2495.81 2570.61 2417.66 2756.88 2688.8 2656.36 3001.02 2889.94 3001.18 2872.08 2675.59 3155.44 3442.8 3611.54 3965.15 3624.65 3536.11 3653.14 3699.13 3659.91 3596.13 3428.72 4129.19 4180.32 3580.48 4635.49 4550.38 3792.61 3853.32 3675.14 3815.29 3880.23 3688.8 3451.08 3175.51 3215.12 3260.67 3285.51 3330.84 3284.35 3317.47 3209.83 3260.67 3374.05 3266.51 3246.6 3284.35 3311.71 3278.45 3105.1 3305.38 3295.32 3148.63 3080.14 2901.53 2838.46 2723.1 3026.9 3340.86 3397.21 3366.19 3437.29 3454.49 4356.6 3308.71 3193.4 3019.17 2940.79 2863.4 2837.11 2724.25 2819.23 2680.85 2874.49 2999.9 3083.48 2913.17 3072.01 3363.83 3268.23 3028.98 3377.99 0 0 0 0 0 0 0 0 0 0 0 0 0 0 0 0 0 0 0 0 0 0 0 0 0 0 0 0 0 0 0 0 0 0 0 0 0 0 0 0 0 0 0 0 0 0 0 0 0 0 2429.43 2653.71 2824.03 3072.58 2974.47 2954.21 2999.73 3165.38 3312.76 3304.93 3345.19 3328.07 3251.2 3314.85 3368.42 3340.46 3259.72 3159.78 3152.18 3058.91 3048.52 3048.9 2958.84 2710.96 2578.95 2435.7 2348.56 2238.09 2348.56 1404.83 1059.1 575.853 0 0 0 0 0 0 0 0 0 0 0 0 0 0 0 0 0 0 0 0 0 0 0 0 0 0 0 0 0 0 0 0 0 0 0 0 0 0 0 0 0 0 0 0 0 0 0 0 0 0 0 0 0 0 0 0 0 0 0 0 0 0 0 0 0 0 0 0 0 0 0 0 0 0 0 0 0 0 0 0 0 0 0 0 0 0 0 0 0 0 0 0 0 0 0 0 0 0 0 0 0 0 0 0 0 0 0 0 0 0 0 0 0 0 0 0 0 0 0 0 0 0 0 0 0 0 0 0 0 0 0 0 0 0 0 0 0 0
2568.68 2590.69 2454.63 2454.84 2534.76 2443.44 2347.47 1939.62 1626.21 1436.2 0 0 0 0 0 0 0 0 0 0 0 0 0 0 0 0 0 0 0 0 0 0 0 0 0 0 0 0 0 0 0 0 0 0 0 0 0 0 0 0 0 0 0 0 0 0 0 0 0 0 0 0 0 0 0 0 0 0 0 0 0 0 0 0 0 0 0 0 0 0 0 0 0 0 0 0 0 0 0 0 0 0 0 0 0 0 0 0 0 0 0 0 0 0 0 0 0 0 0 0 0 0 0 0 0 0 0 0 0 0 0 0 0 0 0 0 0 0 0 0 0 0 0 0 0 0 0 0 0 0 0 0 0 0 0 0 0 0 2003.23 1839.92 2171.87 2789.75 2950.78 3136.51 2905.25 2815.12 3081.72 3028.16 2975.42 3112.25 3165.44 3142.79 3159.07 3253.59 3253.97 3152.77 3277.17 3284.67 3870.3 3251.7 3358.31 3447.61 3456.06 3461.05 3715.43 3623 3763.09 3446.05 3399.13 2745.15 2168.97 2107.51 2250.95 2288.34 2102.23 2175.61 2054.53 0 0 0 0 0 0 0 0 0 0 0 0 0 0 0 0 0 0 2013.69 0 2174.23 2389.63 2305 2557.44 2608.86 2470.42 0 0 2410.47 0 2628.56 2784.52 2517.23 2513.61 3014.72 3180.93 3067.69 3467.56 3210.82 3118.26 3273.4 3389.59 3353.34 3370.32 3206.58 3294.09 3323.98 3442.65 4447.72 4250.43 3576.36 3590.59 3448.6 3629.66 3676.35 3419.22 3259.85 3074.04 3106.71 3180.69 3228.36 3207.68 3122.38 3180.32 3111.32 3144.91 3292.73 3192.97 3197.23 3179.06 3216.05 3257.44 2999.3 3254.6 3301.15 3168.91 3118.09 2838.74 2821.56 2771.09 2975.58 3401.75 3375.13 3340.72 3397.27 3457.41 4383.69 3370.05 3232.59 3022.81 2973.52 2896.92 2851.63 2773.47 2813.94 2667.04 2743.63 2846.59 3010.55 2771.64 2887.45 3176.11 3058.46 2732.95 0 0 0 0 0 0 0 0 0 0 0 0 0 0 0 0 0 0 0 0 0 0 0 0 0 0 0 0 0 0 0 0 0 0 0 0 0 0 0 0 0 0 0 0 0 0 0 0 0 0 0 2758.74 2945.6 3043.1 3064.1 3093.2 3067.69 2988.99 3176.53 3340.26 3281.98 3338.66 3326.68 3250.94 3242.46 3274.87 3271.16 3163.29 3051.18 3038.08 2927.5 2960.36 3009.8 3000.11 2863.6 2780.55 2745.29 2761.51 2810.64 2909.18 1788.23 1298.43 0 0 0 0 0 0 0 0 0 0 0 0 0 0 0 0 0 0 0 0 0 0 0 0 0 0 0 0 0 0 0 0 0 0 0 0 0 0 0 0 0 0 0 0 0 0 0 0 0 0 0 0 0 0 0 0 0 0 0 0 0 0 0 0 0 0 0 0 0 0 0 0 0 0 0 0 0 0 0 0 0 0 0 0 0 0 0 0 0 0 0 0 0 0 0 0 0 0 0 0 0 0 0 0 0 0 0 0 0 0 0 0 0 0 0 0 0 0 0 0 0 0 0 0 0 0 0 0 0 0 0 0 0 0 0 0 0 0 0
2299.03 2377.18 2339.68 2359.96 2366.41 2338.7 2128.47 1936.13 1723.5 1494.51 1138.59 0 0 0 0 0 0 0 0 0 0 0 0 0 0 0 0 0 0 0 0 0 0 0 0 0 0 0 0 0 0 0 0 0 0 0 0 0 0 0 0 0 0 0 0 0 0 0 0 0 0 0 0 0 0 0 0 0 0 0 0 0 0 0 0 0 0 0 0 0 0 0 0 0 0 0 0 0 0 0 0 0 0 0 0 0 0 0 0 0 0 0 0 0 0 0 0 0 0 0 0 0 0 0 0 0 0 0 0 0 0 0 0 0 0 0 0 0 0 0 0 0 0 0 0 0 0 0 0 0 0 0 0 0 0 0 0 0 1769.71 1744.52 2068.36 2786.27 3072.86 3255.04 3112.53 2996.09 3182.98 3092.85 3048.96 3181.77 3237.33 3204.32 3204.87 3286.8 3322.01 3195.59 3360.87 3857.57 4012.85 3282.81 3394.94 3483.4 3467.27 3463.33 3730.63 3586.3 3748.3 3570.5 3518.24 3040.84 2638.98 2637.86 2661.5 2800.41 2758.56 2555.46 2487.38 0 0 0 0 0 0 0 0 0 0 0 0 0 0 0 0 0 0 0 0 0 0 0 0 0 0 0 0 0 0 0 2936.83 2646.05 2678.16 3222.72 3585.61 3594.52 3895.73 3610.45 3493.33 3669.68 3684.1 3690.58 5474.65 3253.59 4091.93 4123.61 4213.92 4301.31 4113.7 3444.85 3400.72 3127.27 3441.03 3507.57 3329.26 3118.67 2937.76 2961.98 3113.92 3159.9 3215.37 3090.35 3168.97 3105.22 3144.32 3301.09 3250.57 3241.15 3242.77 3261.05 3361.88 3109.65 3330.84 3364.44 3248.87 3148.93 2872.72 2963.07 2967.74 3182.74 3625.43 3714.44 3768.16 3737.78 3736.19 4300.1 4361.02 4271.42 3240.52 3205.97 3089.15 2966.48 2860.23 2868.74 2663.45 2677.51 2733.44 2857.84 2533.54 2641.51 2988.67 2950.31 2666.03 0 0 0 0 0 0 0 0 0 0 0 0 0 0 0 0 0 0 0 0 0 0 0 0 0 0 0 0 0 0 0 0 0 0 0 0 0 0 0 0 0 0 0 0 0 0 0 0 0 0 0 2739.69 2871.24 3076.58 3103.09 3089.72 3008.07 3009.2 3093.99 3326.95 3271.93 3316.82 3281.21 3224.02 3217.77 3227.43 3213.4 3176.89 3039.95 3042.6 2963.6 2929.75 2969.63 2958.01 2890.19 2761.97 2719.08 2794.02 2842.93 2767.11 2185.64 1724.21 0 0 0 0 0 0 0 0 0 0 0 0 0 0 0 0 0 0 0 0 0 0 0 0 0 0 0 0 0 0 0 0 0 0 0 0 0 0 0 0 0 0 0 0 0 0 0 0 0 0 0 0 0 0 0 0 0 0 0 0 0 0 0 0 0 0 0 0 0 0 0 0 0 0 0 0 0 0 0 0 0 0 0 0 0 0 0 0 0 0 0 0 0 0 0 0 0 0 0 0 0 0 0 0 0 0 0 0 0 0 0 0 0 0 0 0 0 0 0 0 0 0 0 0 0 0 0 0 0 0 0 0 0 0 0 0 0 0 0
0 2417.84 2377.95 2403.09 2436.2 2548.97 2184.79 2060.08 1822.2 1986.54 1609.67 0 0 0 0 0 0 0 0 0 0 0 0 0 0 0 0 0 0 0 0 0 0 0 0 0 0 0 0 0 0 0 0 0 0 0 0 0 0 0 0 0 0 0 0 0 0 0 0 0 0 0 0 0 0 0 0 0 0 0 0 0 0 0 0 0 0 0 0 0 0 0 0 0 0 0 0 0 0 0 0 0 0 0 0 0 0 0 0 0 0 0 0 0 0 0 0 0 0 0 0 0 0 0 0 0 0 0 0 0 0 0 0 0 0 0 0 0 0 0 0 0 0 0 0 0 0 0 0 0 0 0 0 0 0 0 0 0 0 0 2470.17 3085.12 3368.69 3397.14 3271.03 3219.38 3315.05 3231.72 3163.65 3237.39 3243.09 3187.88 3233.65 3267.4 3282.04 3174.43 3253.02 3930.87 4106.55 3230.91 3318 3363.83 3379.69 3379.89 3574.07 3597.99 3720.29 3680.71 3593.75 3233.77 2977.27 2941.36 2977.91 2855.46 2716.09 2439.92 2169.39 2555.15 0 0 0 0 0 0 0 0 0 0 0 0 0 0 0 0 0 0 0 0 0 0 0 0 0 0 0 0 0 0 2695.49 2808.47 2618.96 3314.33 4126.55 3746.2 4016.98 3651.07 3561.4 3801.89 3887.79 4004.14 3820.5 3343.05 4061.62 4003.95 3944.64 3983.7 3666.15 3341.39 3379.55 3018.62 3243.09 3359.32 3322.4 3233.84 3028.16 3031.99 3189.7 3190.18 3272.12 3174.73 3213.58 3149.64 3131.24 3347.32 3723.18 3247.04 3284.61 3807.76 4007.2 3276.02 3392.19 3456.27 3249.31 3350 3036.49 0 3128.26 3372.76 3836.23 3906.07 4083.46 3861.21 3707.96 4464.05 3526.07 3356.9 3088.64 3044.42 3011.63 2839.37 2787.34 2810.22 2541.37 2592.17 2719.52 2862.62 2553.28 2545.14 2858.18 2631.74 0 0 0 0 0 0 0 0 0 0 0 0 0 0 0 0 0 0 0 0 0 0 0 0 0 0 0 0 0 0 0 0 0 0 0 0 0 0 0 0 0 0 0 0 0 0 0 0 0 0 0 0 0 2754.35 3108.84 3306.23 3185.21 3066.62 2963.6 3124.82 3265.18 3239.21 3365.79 3335.41 3224.51 3232.84 3232.72 3244.59 3180.32 3082.4 3093.77 2920.78 2871.78 2930.73 2896.57 2839.37 2758.02 2710.82 2745.51 2711.7 0 2255.82 0 0 0 0 0 0 0 0 0 0 0 0 0 0 0 0 0 0 0 0 0 0 0 0 0 0 0 0 0 0 0 0 0 0 0 0 0 0 0 0 0 0 0 0 0 0 0 0 0 0 0 0 0 0 0 0 0 0 0 0 0 0 0 0 0 0 0 0 0 0 0 0 0 0 0 0 0 0 0 0 0 0 0 0 0 0 0 0 0 0 0 0 0 0 0 0 0 0 0 0 0 0 0 0 0 0 0 0 0 0 0 0 0 0 0 0 0 0 0 0 0 0 0 0 0 0 0 0 0 0 0 0 0 0 0 0 0 0 0 0
0 2756.97 2711.92 2789.15 2806.55 2877.1 2561.66 2243.09 1898.36 2012.32 0 0 0 0 0 0 0 0 0 0 0 0 0 0 0 0 0 0 0 0 0 0 0 0 0 0 0 0 0 0 0 0 0 0 0 0 0 0 0 0 0 0 0 0 0 0 0 0 0 0 0 0 0 0 0 0 0 0 0 0 0 0 0 0 0 0 0 0 0 0 0 0 0 0 0 0 0 0 0 0 0 0 0 0 0 0 0 0 0 0 0 0 0 0 0 0 0 0 0 0 0 0 0 0 0 0 0 0 0 0 0 0 0 0 0 0 0 0 0 0 0 0 0 0 0 0 0 0 0 0 0 0 0 0 0 0 0 0 0 0 2871.1 3541.63 3678.93 3617.07 3521.56 3394.94 3413.66 3296.16 3202.66 3244.47 3241.15 3192.97 4158.77 3182.07 3229.11 3139.85 3239.14 4059.16 4196.11 3222.35 3342.19 3402.86 3463.26 3492.6 3614.57 3643.3 3779.88 3735.11 3574.22 3209.65 2928.78 2942.24 2828.45 2789.56 2630.25 2402.5 2130.85 2533.77 2830.08 2772.69 0 0 0 0 0 0 0 0 0 0 0 0 0 0 0 0 0 0 0 0 0 0 0 0 0 0 0 0 0 0 2365.41 3054.84 3534.69 3131.53 3597.45 3528 0 0 0 4287.68 3934.56 3481.44 3994.51 3820.5 3858.02 3810.18 3749.55 3598.68 3549.05 3332.69 3395.97 3626.53 3578.42 3451.44 3241.52 3271.67 3303.3 3249.05 3269.38 3207.62 3211.25 3089.61 3075.73 3332.76 3778.6 3264.86 3896.45 3997.65 4159.49 3398.38 3580.25 3719.88 3473.95 3425.5 3092.57 3324.05 3250.94 3414.35 3760.31 3633.83 3661.75 3578.88 3501.35 3572.32 3456.27 3385.42 3127.74 3068.53 3124.13 2935.65 2802.05 2879.13 2477.57 2527.2 2621.29 2592.81 2326.7 2287.87 2454.3 0 0 0 0 0 0 0 0 0 0 0 0 0 0 0 0 0 0 0 0 0 0 0 0 0 0 0 0 0 0 0 0 0 0 0 0 0 0 0 0 0 0 0 0 0 0 0 0 0 0 0 0 0 0 2710.39 3169.93 3402.72 3152.48 2876.07 2831.18 2992.62 3118.9 3111.96 3283.9 3279.03 3182.31 3291.63 3362.69 3373.03 3273.14 3181.29 3224.64 3073.36 2995.29 3011.8 2907.42 2824.03 2721.16 2762.92 2760.42 0 0 2516.21 0 0 0 0 0 0 0 0 0 0 0 0 0 0 0 0 0 0 0 0 0 0 0 0 0 0 0 0 0 0 0 0 0 0 0 0 0 0 0 0 0 0 0 0 0 0 0 0 0 0 0 0 0 0 0 0 0 0 0 0 0 0 0 0 0 0 0 0 0 0 0 0 0 0 0 0 0 0 0 0 0 0 0 0 0 0 0 0 0 0 0 0 0 0 0 0 0 0 0 0 0 0 0 0 0 0 0 0 0 0 0 0 0 0 0 0 0 0 0 0 0 0 0 0 0 0 0 0 0 0 0 0 0 0 0 0 0 0 0 0
2853.71 2881.5 2901.18 3025.86 3002.15 3163.47 2859.11 2596.35 2313.97 2411.1 2435.14 0 0 0 0 0 0 0 0 0 0 0 0 0 0 0 0 0 0 0 0 0 0 0 0 0 0 0 0 0 0 0 0 0 0 0 0 0 0 0 0 0 0 0 0 0 0 0 0 0 0 0 0 0 0 0 0 0 0 0 0 0 0 0 0 0 0 0 0 0 0 0 0 0 0 0 0 0 0 0 0 0 0 0 0 0 0 0 0 0 0 0 0 0 0 0 0 0 0 0 0 0 0 0 0 0 0 0 0 0 0 0 0 0 0 0 0 0 0 0 0 0 0 0 0 0 0 0 0 0 0 0 0 0 0 0 0 0 0 0 2845.58 3314.59 3456.06 3283.84 3259.53 3029.47 3148.93 3055.01 3001.99 3061.36 3078.89 3023.25 3086.71 3064.89 3173.65 4406.49 3265.56 4288.45 4390.92 3238.21 3320.43 3391.99 3427.04 3395.56 3469.56 3439.69 3529.04 3508.6 3423.41 3287.83 3041 3065.95 2994.17 2880.91 2858.23 2715.56 2357.53 2603.23 2814.27 3072.01 0 0 0 0 0 0 0 0 0 0 0 0 0 0 0 0 0 0 0 0 0 0 0 0 0 0 0 0 0 0 0 0 0 0 0 0 0 0 0 0 3968.24 3465.77 0 0 0 3404.24 3389.66 3393.43 3323.85 3356.23 3565.34 3662.95 3681.35 3523.56 3239.77 3213.89 3241.08 3200.65 3286.22 3108.61 3165.26 3104.76 2986.12 3289.5 3244.22 3257.89 3244.03 3226.69 4132.95 3304.99 3317.74 3629.9 3401.41 3338.4 2978.7 0 3620.5 3674.5 3878.44 3974.92 3470.71 3544.47 3545.97 3575.14 3490.72 3229.92 3065.78 3148.16 3124.18 3151.65 2829.36 2875.13 2474.14 2587.46 2802.56 2881.1 2326.54 2030.68 2151.78 0 0 0 0 0 0 0 0 0 0 0 0 0 0 0 0 0 0 0 0 0 0 0 0 0 0 0 0 0 0 0 0 0 0 0 0 0 0 0 0 0 0 0 0 0 0 0 0 0 0 0 0 0 2182.86 2276.51 2705.71 3029.09 2906.26 2754.12 2727.79 2887.3 2987.13 2984.47 3200.34 3214.81 3118.09 3214.57 3276.4 3280.5 3185.03 3148.93 3198.94 3038.96 2957.59 3008.45 2935.24 2859.5 2824.17 2825.79 2779.86 0 0 0 0 0 0 0 0 0 0 0 0 0 0 0 0 0 0 0 0 0 0 0 0 0 0 0 0 0 0 0 0 0 0 0 0 0 0 0 0 0 0 0 0 0 0 0 0 0 0 0 0 0 0 0 0 0 0 0 0 0 0 0 0 0 0 0 0 0 0 0 0 0 0 0 0 0 0 0 0 0 0 0 0 0 0 0 0 0 0 0 0 0 0 0 0 0 0 0 0 0 0 0 0 0 0 0 0 0 0 0 0 0 0 0 0 0 0 0 0 0 0 0 0 0 0 0 0 0 0 0 0 0 0 0 0 0 0 0 0 0 0 0
2896.87 2900.08 2839.7 2966.01 3011.26 3231.22 2799.1 2414.67 2022.38 2129.66 2148.48 2029.35 816.407 0 0 0 0 0 0 0 0 0 0 0 0 0 0 0 0 0 0 0 0 0 0 0 0 0 0 0 0 0 0 0 0 0 0 0 0 0 0 0 0 0 0 0 0 0 0 0 0 0 0 0 0 0 0 0 0 0 0 0 0 0 0 0 0 0 0 0 0 0 0 0 0 0 0 0 0 0 0 0 0 0 0 0 0 0 0 0 0 0 0 0 0 0 0 0 0 0 0 0 0 0 0 0 0 0 0 0 0 0 0 0 0 0 0 0 0 0 0 0 0 0 0 0 0 0 0 0 0 0 0 0 0 0 0 0 0 0 0 0 3396.66 3429.29 3508.89 3382.21 3370.39 3220.8 3123.37 3141.38 3160.49 3082.85 3107.35 3040.89 3117.97 3158.89 3258.96 3269.5 3264.03 3167.53 3252.46 3286.41 3353.68 3333.22 3333.09 3322.6 3434.55 3448.81 3483.25 3360.93 3284.42 3289.44 3158.71 3006.99 2977.53 2784.42 2602.55 2644.3 3115.02 3140.09 0 0 0 0 0 0 0 0 0 0 0 0 0 0 0 0 0 0 0 0 0 0 0 0 0 0 0 0 0 0 0 0 0 0 0 0 0 0 0 0 0 0 0 0 0 0 0 0 0 0 3213.64 0 3532.31 3436.24 3208.79 3263.46 3304.93 3340.33 3468.49 3276.53 3354.22 3257.89 3173.59 3358.78 3982.37 3890.58 3304.15 3276.14 4091.13 3255.48 3270.27 3532.83 3403.34 3209.34 2527.81 0 0 2982.25 0 3946.59 0 2981.61 3104.41 3374.18 3074.55 2627.24 2439.07 2471.44 2359.06 2401.19 2092.5 2211.66 1764.22 1697.64 1842.69 1813.24 1289.92 1260.15 1111.97 0 0 0 0 0 0 0 0 0 0 0 0 0 0 0 0 0 0 0 0 0 0 0 0 0 0 0 0 0 0 0 0 0 0 0 0 0 0 0 0 0 0 0 0 0 0 0 0 0 0 0 0 0 0 0 0 3068.47 2958.84 2900.98 2810.64 2966.01 2986.01 2977.32 3235.77 3240.21 3139.15 3261.24 3281.33 3281.27 3213.58 3219.44 3279.79 3108.21 3001.24 3048.35 2913.78 2871.59 2888.99 2805.09 2762.83 0 0 0 0 0 0 0 0 0 0 0 0 0 0 0 0 0 0 0 0 0 0 0 0 0 0 0 0 0 0 0 0 0 0 0 0 0 0 0 0 0 0 0 0 0 0 0 0 0 0 0 0 0 0 0 0 0 0 0 0 0 0 0 0 0 0 0 0 0 0 0 0 0 0 0 0 0 0 0 0 0 0 0 0 0 0 0 0 0 0 0 0 0 0 0 0 0 0 0 0 0 0 0 0 0 0 0 0 0 0 0 0 0 0 0 0 0 0 0 0 0 0 0 0 0 0 0 0 0 0 0 0 0 0 0 0 0 0 0 0 0 0 0
3219.5 3150.29 3193.34 5636.12 5876.56 6043.57 2930.37 2575.3 2080.82 2368.88 2666.15 2283.92 1138.38 0 0 0 0 0 0 0 0 0 0 0 0 0 0 0 0 0 0 0 0 0 0 0 0 0 0 0 0 0 0 0 0 0 0 0 0 0 0 0 0 0 0 0 0 0 0 0 0 0 0 0 0 0 0 0 0 0 0 0 0 0 0 0 0 0 0 0 0 0 0 0 0 0 0 0 0 0 0 0 0 0 0 0 0 0 0 0 0 0 0 0 0 0 0 0 0 0 0 0 0 0 0 0 0 0 0 0 0 0 0 0 0 0 0 0 0 0 0 0 0 0 0 0 0 0 0 0 0 0 0 0 0 0 0 0 0 0 0 0 3228.42 3114.21 3120.76 3083.99 3208.54 3169.99 3138.09 3141.26 3162.94 3109.07 3132.76 3068.36 3142.5 4100.33 3266.96 3185.15 3182.31 3093.25 3181.11 3281.01 3367.34 3290.54 3246.98 3263.02 3436.94 3463.41 3514.48 3354.95 3235.77 3196.2 3203.28 3189.82 3051.12 2713.46 2471.51 2418.47 2561.35 2478.52 0 0 0 0 0 0 0 0 0 0 0 0 0 0 0 0 0 0 0 0 0 0 0 0 0 0 0 0 0 0 0 0 0 0 0 0 0 0 0 0 0 0 0 0 0 0 0 0 0 0 0 0 0 3508.53 3171.13 3317.01 3311.58 3296.23 3507.28 3361.14 3363.16 3342.45 3179.84 3381.66 4575.57 4577.69 4530.59 4495.63 4763.81 2977.32 2875.23 3124.24 3004.84 2658.38 2392.87 0 0 3147.51 0 0 0 0 0 3077.37 2705.01 0 0 0 0 2041.83 0 0 1338.18 1315.78 1324.49 0 942.901 0 0 0 0 0 0 0 0 0 0 0 0 0 0 0 0 0 0 0 0 0 0 0 0 0 0 0 0 0 0 0 0 0 0 0 0 0 0 0 0 0 0 0 0 0 0 0 0 0 0 0 0 0 0 0 0 0 2514.82 2994.86 2815.02 2798.31 2806.45 2942.19 2994.43 2962.39 3225.32 3240.4 3171.01 3349.33 3348.19 3292.41 3252.9 3316.69 3436.17 3230.97 3128.9 3105.39 2943.99 2919.05 2997.05 2840.71 0 0 0 0 0 0 0 0 0 0 0 0 0 0 0 0 0 0 0 0 0 0 0 0 0 0 0 0 0 0 0 0 0 0 0 0 0 0 0 0 0 0 0 0 0 0 0 0 0 0 0 0 0 0 0 0 0 0 0 0 0 0 0 0 0 0 0 0 0 0 0 0 0 0 0 0 0 0 0 0 0 0 0 0 0 0 0 0 0 0 0 0 0 0 0 0 0 0 0 0 0 0 0 0 0 0 0 0 0 0 0 0 0 0 0 0 0 0 0 0 0 0 0 0 0 0 0 0 0 0 0 0 0 0 0 0 0 0 0 0 0 0 0 0
3305.51 3196.01 3268.68 3313.8 3285.12 5879.24 2893.78 2704.75 2152.75 2292.5 2661.33 2044.96 1146.71 1094.6 0 0 0 0 0 0 0 0 0 0 0 0 0 0 0 0 0 0 0 0 0 0 0 0 0 0 0 0 0 0 0 0 0 0 0 0 0 0 0 0 0 0 0 0 0 0 0 0 0 0 0 0 0 0 0 0 0 0 0 0 0 0 0 0 0 0 0 0 0 0 0 0 0 0 0 0 0 0 0 0 0 0 0 0 0 0 0 0 0 0 0 0 0 0 0 0 0 0 0 0 0 0 0 0 0 0 0 0 0 0 0 0 0 0 0 0 0 0 0 0 0 0 0 0 0 0 0 0 0 0 0 0 0 0 0 0 0 0 3043.76 3073.53 3117.51 3062.03 3142.15 3195.41 3167.95 3170.23 3185.88 3132.35 3184.37 3133.64 3169.09 3225.32 3275.38 3167.89 3109.25 3084.04 3143.03 3198.82 3240.4 3211 3200.1 3266 3484.12 3577.35 3567.08 4211.91 3431.25 3477.19 3490.06 3473.52 3368.97 3042.99 2705.27 2715.96 2760.1 2816.87 0 0 0 0 0 0 0 0 0 0 0 0 0 0 0 0 0 0 0 0 0 0 0 0 0 0 0 0 0 0 0 0 0 0 0 0 0 0 0 0 0 0 0 0 0 0 0 0 0 0 0 0 0 0 3217.22 3215.86 3240.14 3139.09 3182.13 3173.71 3129.78 3296.68 3195.65 3217.03 4722.91 4728.1 4625.9 3323.19 4723.98 3122.79 2812.29 3071.34 3051.07 2604.65 0 0 0 2688.24 0 0 0 0 0 2245.22 0 0 0 0 0 0 0 0 0 0 0 0 0 0 0 0 0 0 0 0 0 0 0 0 0 0 0 0 0 0 0 0 0 0 0 0 0 0 0 0 0 0 0 0 0 0 0 0 0 0 0 0 0 0 0 0 0 0 0 0 0 0 0 0 0 0 0 0 0 0 0 0 2892.78 2947.56 2894.27 3016.51 2975.32 2978.27 3206.09 3248.3 3224.64 3331.24 3276.08 3297.39 3267.02 3351.6 3466.2 3347.66 3207.81 3123.66 3123.89 3131.82 3040.34 2875.67 0 0 0 0 0 0 0 0 0 0 0 0 0 0 0 0 0 0 0 0 0 0 0 0 0 0 0 0 0 0 0 0 0 0 0 0 0 0 0 0 0 0 0 0 0 0 0 0 0 0 0 0 0 0 0 0 0 0 0 0 0 0 0 0 0 0 0 0 0 0 0 0 0 0 0 0 0 0 0 0 0 0 0 0 0 0 0 0 0 0 0 0 0 0 0 0 0 0 0 0 0 0 0 0 0 0 0 0 0 0 0 0 0 0 0 0 0 0 0 0 0 0 0 0 0 0 0 0 0 0 0 0 0 0 0 0 0 0 0 0 0 0 0 0
3364.98 3353.75 3403.06 3431.04 3399.68 3356.5 3117.74 2978.75 2712.45 2664.42 2803.78 2309.28 1435.1 1477.31 0 0 0 0 0 0 0 0 0 0 0 0 0 0 0 0 0 0 0 0 0 0 0 0 0 0 0 0 0 0 0 0 0 0 0 0 0 0 0 0 0 0 0 0 0 0 0 0 0 0 0 0 0 0 0 0 0 0 0 0 0 0 0 0 0 0 0 0 0 0 0 0 0 0 0 0 0 0 0 0 0 0 0 0 0 0 0 0 0 0 0 0 0 0 0 0 0 0 0 0 0 0 0 0 0 0 0 0 0 0 0 0 0 0 0 0 0 0 0 0 0 0 0 0 0 0 0 0 0 0 0 0 0 0 0 0 0 0 0 0 0 2984 3016.24 3115.48 3081.83 2982.56 3024.72 2881.8 3016.94 3018.03 3126.69 3204.44 3163.12 3067.91 3116.47 3084.16 3166.94 3243.9 3318.98 3274.99 3229.17 3316.42 3519.42 3478.85 3489.05 4289.88 4222.3 4200.31 4060.73 3271.48 3150.64 2803.13 2589.41 2508.24 2584.23 2557.52 0 2011.35 0 0 0 0 0 0 0 0 0 0 0 0 0 0 0 0 0 0 0 0 0 0 0 0 0 0 0 0 0 0 0 0 0 0 0 0 0 0 0 0 0 0 0 0 0 0 0 0 0 0 0 0 0 0 2663.99 2683.64 2763.33 2751.28 2752.45 2933.7 2908.47 2959.31 3059.35 3096.62 3041.28 3165.62 3276.21 2909.43 2698.27 2772.28 3021.67 0 0 0 0 3950.96 0 0 0 0 0 0 0 0 0 0 0 0 0 0 0 0 0 0 0 0 0 0 0 0 0 0 0 0 0 0 0 0 0 0 0 0 0 0 0 0 0 0 0 0 0 0 0 0 0 0 0 0 0 0 0 0 0 0 0 0 0 0 0 0 0 0 0 0 0 0 0 0 0 0 0 0 0 0 2847.46 2884.13 2855.22 2950.41 2839.51 2904.09 3153.37 3110.4 3104.24 3221.6 3156.21 3160.2 3150.88 3289.7 3313.54 3168.07 3069.09 2936.83 2852.74 2909.28 2843.46 2655.44 0 0 0 0 0 0 0 0 0 0 0 0 0 0 0 0 0 0 0 0 0 0 0 0 0 0 0 0 0 0 0 0 0 0 0 0 0 0 0 0 0 0 0 0 0 0 0 0 0 0 0 0 0 0 0 0 0 0 0 0 0 0 0 0 0 0 0 0 0 0 0 0 0 0 0 0 0 0 0 0 0 0 0 0 0 0 0 0 0 0 0 0 0 0 0 0 0 0 0 0 0 0 0 0 0 0 0 0 0 0 0 0 0 0 0 0 0 0 0 0 0 0 0 0 0 0 0 0 0 0 0 0 0 0 0 0 0 0 0 0 0 0 0 0
3325.76 3373.23 3397.27 4269.68 4321.48 3321.61 3202.6 3037.04 2876.81 2841.72 2635.7 2105.45 1404.39 1299.09 0 0 0 0 0 0 0 0 0 0 0 0 0 0 0 0 0 0 0 0 0 0 0 0 0 0 0 0 0 0 0 0 0 0 0 0 0 0 0 0 0 0 0 0 0 0 0 0 0 0 0 0 0 0 0 0 0 0 0 0 0 0 0 0 0 0 0 0 0 0 0 0 0 0 0 0 0 0 0 0 0 0 0 0 0 0 0 0 0 0 0 0 0 0 0 0 0 0 0 0 0 0 0 0 0 0 0 0 0 0 0 0 0 0 0 0 0 0 0 0 0 0 0 0 0 0 0 0 0 0 0 0 0 0 0 0 0 0 0 0 0 3344.99 3485.57 3591.59 3473.08 3341.86 3320.43 3110.98 3200.1 3112.82 3248.8 3292.22 3140.79 2991.6 3069.15 3083.82 3159.36 3182.07 3273.65 3221.11 3205.66 3330.64 4112.69 4060.44 3508.6 4313.92 4299.44 4329.28 4338.35 4211.06 4037.57 2992.46 2965.06 2936.47 3016.4 2906.36 0 2266.45 0 0 0 0 0 0 0 0 0 0 0 0 0 0 0 0 0 0 0 0 0 0 0 0 0 0 0 0 0 0 0 0 0 0 0 0 0 0 0 0 0 0 0 0 0 0 0 0 0 0 0 0 0 0 0 0 3104.64 3041.22 2993.21 3081.55 3042.27 3144.74 3207.93 3091.2 3069.65 3104.64 3197.72 2835 2388.31 2635.54 2691.99 0 0 0 0 0 0 0 0 0 0 0 0 0 0 0 0 0 0 0 0 0 0 0 0 0 0 0 0 0 0 0 0 0 0 0 0 0 0 0 0 0 0 0 0 0 0 0 0 0 0 0 0 0 0 0 0 0 0 0 0 0 0 0 0 0 0 0 0 0 0 0 0 0 0 0 0 0 0 0 0 0 0 0 0 2673.63 2710.04 2832.18 2736.74 2873.21 3116 3076.41 3057.63 3300.18 3307.08 3302.13 3319.64 3479.06 3437.51 3260.48 3077.99 2841.77 2534.19 2454.95 2299.82 0 0 0 0 0 0 0 0 0 0 0 0 0 0 0 0 0 0 0 0 0 0 0 0 0 0 0 0 0 0 0 0 0 0 0 0 0 0 0 0 0 0 0 0 0 0 0 0 0 0 0 0 0 0 0 0 0 0 0 0 0 0 0 0 0 0 0 0 0 0 0 0 0 0 0 0 0 0 0 0 0 0 0 0 0 0 0 0 0 0 0 0 0 0 0 0 0 0 0 0 0 0 0 0 0 0 0 0 0 0 0 0 0 0 0 0 0 0 0 0 0 0 0 0 0 0 0 0 0 0 0 0 0 0 0 0 0 0 0 0 0 0 0 0 0
3306.42 3353.75 3320.23 3323.52 3290.86 3252.71 3356.83 3155.03 2958.69 2893.78 2593.98 2199.57 1377.14 1247.13 0 0 0 0 0 0 0 0 0 0 0 0 0 0 0 0 0 0 0 0 0 0 0 0 0 0 0 0 0 0 0 0 0 0 0 0 0 0 0 0 0 0 0 0 0 0 0 0 0 0 0 0 0 0 0 0 0 0 0 0 0 0 0 0 0 0 0 0 0 0 0 0 0 0 0 0 0 0 0 0 0 0 0 0 0 0 0 0 0 0 0 0 0 0 0 0 0 0 0 0 0 0 0 0 0 0 0 0 0 0 0 0 0 0 0 0 0 0 0 0 0 0 0 0 0 0 0 0 0 0 0 0 0 0 0 0 0 0 0 0 0 0 3366.67 3556.04 3414.56 3212.17 3224.45 3018.3 3176.17 3062.15 3161.69 3276.85 3104.47 3011.09 3138.38 3174.49 3200.59 3217.28 3317.93 3277.1 3206.21 3306.23 4118.75 4014.39 3958.69 4211.49 4206.52 4250.54 4303.63 4332.41 4380.37 3150.23 3196.26 2984.79 3141.73 3055.96 0 2477.13 0 0 0 0 0 0 0 0 0 0 0 0 0 0 0 0 0 0 0 0 0 0 0 0 0 0 0 0 0 0 0 0 0 0 0 0 0 0 0 0 0 0 0 0 0 0 0 0 0 0 0 0 0 0 0 0 0 3201.08 3195.34 3061.25 2887.05 2854.73 4525.83 4143.26 2581.84 2567.42 2583.19 2155.99 1950.85 2057.73 0 0 0 0 0 0 0 0 0 0 0 0 0 0 0 0 0 0 0 0 0 0 0 0 0 0 0 0 0 0 0 0 0 0 0 0 0 0 0 0 0 0 0 0 0 0 0 0 0 0 0 0 0 0 0 0 0 0 0 0 0 0 0 0 0 0 0 0 0 0 0 0 0 0 0 0 0 0 0 0 0 0 0 0 0 0 2583.43 2766.29 2620.92 2788.36 3049.07 2961.77 2938.32 3153.84 3187.88 3184.55 3096.45 3366.6 3217.65 2970.84 2946.47 2617.57 2298.24 2084.26 2024.43 0 0 0 0 0 0 0 0 0 0 0 0 0 0 0 0 0 0 0 0 0 0 0 0 0 0 0 0 0 0 0 0 0 0 0 0 0 0 0 0 0 0 0 0 0 0 0 0 0 0 0 0 0 0 0 0 0 0 0 0 0 0 0 0 0 0 0 0 0 0 0 0 0 0 0 0 0 0 0 0 0 0 0 0 0 0 0 0 0 0 0 0 0 0 0 0 0 0 0 0 0 0 0 0 0 0 0 0 0 0 0 0 0 0 0 0 0 0 0 0 0 0 0 0 0 0 0 0 0 0 0 0 0 0 0 0 0 0 0 0 0 0 0 0 0
3193.46 3238.46 3233.84 3277.94 3250 3280.69 3360.93 3143.68 3095.36 2881.35 2513.2 1963.84 941.235 977.083 0 0 0 0 0 0 0 0 0 0 0 0 0 0 0 0 0 0 0 0 0 0 0 0 0 0 0 0 0 2340.24 0 0 0 0 0 0 0 0 0 0 0 0 0 0 0 0 0 0 0 0 0 0 0 0 0 0 0 0 0 0 0 0 0 0 0 0 0 0 0 0 0 0 0 0 0 0 0 0 0 0 0 0 0 0 0 0 0 0 0 0 0 0 0 0 0 0 0 0 0 0 0 0 0 0 0 0 0 0 0 0 0 0 0 0 0 0 0 0 0 0 0 0 0 0 0 0 0 0 0 0 0 0 0 0 0 0 0 0 0 0 0 0 0 3036.98 3181.59 3149.05 3240.08 3012.07 3130.54 3135.92 3229.79 3299.01 3184.61 3065.73 3151.65 3166.82 3241.96 3272.76 3308.05 3283.07 3224.02 3289.7 3967.59 3879.7 3437.15 4003.85 4014.48 4074.34 4151.46 4160.21 4207.47 3220.24 3258.27 3041.99 3150.17 3103.67 0 2388.68 0 0 0 0 0 0 0 0 0 0 0 0 0 0 0 0 0 0 0 0 0 0 0 0 0 0 0 0 0 0 0 0 0 0 0 0 0 0 0 0 0 0 0 0 0 0 0 0 0 0 0 0 0 0 0 0 0 0 0 2926.02 2794.53 2723.94 2846.93 2715.08 2257.03 2076.91 1902.77 1422.96 1193.24 1152.66 0 0 0 0 0 0 0 0 0 0 0 0 0 0 0 0 0 0 0 0 0 0 0 0 0 0 0 0 0 0 0 0 0 0 0 0 0 0 0 0 0 0 0 0 0 0 0 0 0 0 0 0 0 0 0 0 0 0 0 0 0 0 0 0 0 0 0 0 0 0 0 0 0 0 0 0 0 0 0 0 0 0 0 0 0 0 2184.96 2329.39 2340.53 2499.38 2683.34 2648.06 2733.79 2977.17 3103.09 3050.01 3022.32 3233.15 3216.48 3289.89 3269.06 2825.07 2511.96 2239.53 2323.8 0 0 0 0 0 0 0 0 0 0 0 0 0 0 0 0 0 0 0 0 0 0 0 0 0 0 0 0 0 0 0 0 0 0 0 0 0 0 0 0 0 0 0 0 0 0 0 0 0 0 0 0 0 0 0 0 0 0 0 0 0 0 0 0 0 0 0 0 0 0 0 0 0 0 0 0 0 0 0 0 0 0 0 0 0 0 0 0 0 0 0 0 0 0 0 0 0 0 0 0 0 0 0 0 0 0 0 0 0 0 0 0 0 0 0 0 0 0 0 0 0 0 0 0 0 0 0 0 0 0 0 0 0 0 0 0 0 0 0 0 0 0 0 0 0
3120.35 3176.59 3171.67 3205.85 3193.22 3267.34 3266.2 3077.59 3077.76 2832.51 2514.52 2146.66 1036.98 940.048 498.374 0 0 0 0 0 0 0 0 0 0 0 0 0 0 0 0 0 0 0 0 0 0 0 0 0 0 0 0 2833.18 0 0 0 0 0 0 0 0 0 0 0 0 0 0 0 0 0 0 0 0 0 0 0 0 0 0 0 0 0 0 0 0 0 0 0 0 0 0 0 0 0 0 0 0 0 0 0 0 0 0 0 0 0 0 0 0 0 0 0 0 0 0 0 0 0 0 0 0 0 0 0 0 0 0 0 0 0 0 0 0 0 0 0 0 0 0 0 0 0 0 0 0 0 0 0 0 0 0 0 0 0 0 0 0 0 0 0 0 0 0 0 0 0 0 2862.33 2899.93 2935.14 2767.2 2951.04 3078.67 3128.73 3172.93 3145.86 3110.11 3188.85 3213.52 3230.23 3231.91 3280.37 3266.26 3242.15 3275.25 3398.24 3345.32 3443.01 3957.76 4005.09 4031.17 4147.77 4191.08 4200.94 3294.22 3361.54 3009.15 3048.29 2874.24 0 2298.84 0 0 0 0 0 0 0 0 0 0 0 0 0 0 0 0 0 0 0 0 0 0 0 0 0 0 0 0 0 0 0 0 0 0 0 0 0 0 0 0 0 0 0 0 0 0 0 0 0 0 0 0 0 0 0 0 0 0 0 0 0 0 2510.64 2361.72 2088.31 1801 0 1229.46 1023.97 915.024 0 0 0 0 0 0 0 0 0 0 0 0 0 0 0 0 0 0 0 0 0 0 0 0 0 0 0 0 0 0 0 0 0 0 0 0 0 0 0 0 0 0 0 0 0 0 0 0 0 0 0 0 0 0 0 0 0 0 0 0 0 0 0 0 0 0 0 0 0 0 0 0 0 0 0 0 0 0 0 0 0 0 0 0 0 0 0 2706.06 2565.42 0 3036.38 2879.57 2882.99 3041.28 2975.74 2964.96 2850.22 3197.05 2957.02 2749.11 2773.33 2506.93 0 1659.32 1734.31 0 0 0 0 0 0 0 0 0 0 0 0 0 0 0 0 0 0 0 0 0 0 0 0 0 0 0 0 0 0 0 0 0 0 0 0 0 0 0 0 0 0 0 0 0 0 0 0 0 0 0 0 0 0 0 0 0 0 0 0 0 0 0 0 0 0 0 0 0 0 0 0 0 0 0 0 0 0 0 0 0 0 0 0 0 0 0 0 0 0 0 0 0 0 0 0 0 0 0 0 0 0 0 0 0 0 0 0 0 0 0 0 0 0 0 0 0 0 0 0 0 0 0 0 0 0 0 0 0 0 0 0 0 0 0 0 0 0 0 0 0 0 0 0 0
3132.82 3160.91 3167.65 3210.39 3204.44 3279.35 3198.33 3022.65 2917.42 2683.51 2235.98 1350.35 420.824 475.895 291.593 0 0 0 0 0 0 0 0 0 0 0 0 0 0 0 0 0 0 0 0 0 0 0 0 0 0 2893.28 2925.11 3058.18 2944.92 3011.85 3076.3 3065.17 2919.76 0 3009.26 0 0 0 0 1683.06 0 0 0 0 0 0 0 0 0 0 0 0 2043.57 1690.37 1785.07 1532.09 1774.73 1722.31 1749.16 1742.83 1326.95 1496.8 0 0 0 1508.7 0 0 0 0 0 0 0 0 0 0 0 0 0 0 0 0 0 0 0 0 0 0 0 0 0 0 0 0 0 0 0 0 0 0 0 0 0 0 0 0 0 0 0 0 0 0 0 0 0 0 0 0 0 0 0 0 0 0 0 0 0 0 0 0 0 0 0 0 0 0 0 0 0 0 0 3321.94 3095.25 3116.7 3109.53 2886.81 2996.89 3137.8 3136.98 3119.94 3103.44 3085.12 3165.68 3203.21 3240.02 3230.35 3280.69 3290.41 3268.42 3307.01 3463.69 3400.99 3483.83 3898.63 3953.1 3994.6 4120.47 4238.83 4136.62 3267.79 3325.1 3042.54 3117.62 2803.31 2450 2193.07 1740.97 0 0 0 0 0 0 0 0 0 0 0 0 0 0 0 0 0 0 0 0 0 0 0 0 0 0 0 0 0 0 0 0 0 0 0 0 0 0 0 0 0 0 0 0 0 0 0 0 0 0 0 0 0 0 0 0 0 0 0 0 0 2592.57 2465.77 2198.1 2073.03 0 0 0 0 0 0 0 0 0 0 0 0 0 0 0 0 0 0 0 0 0 0 0 0 0 0 0 0 0 0 0 0 0 0 0 0 0 0 0 0 0 0 0 0 0 0 0 0 0 0 0 0 0 0 0 0 0 0 0 0 0 0 0 0 0 0 0 0 0 0 0 0 0 0 0 0 0 0 0 0 0 0 0 0 0 0 0 0 0 0 0 3029.25 0 0 0 0 3039.51 3135.74 2995.18 3070.33 2815.31 0 0 0 2612.92 0 0 0 0 0 0 0 0 0 0 0 0 0 0 0 0 0 0 0 0 0 0 0 0 0 0 0 0 0 0 0 0 0 0 0 0 0 0 0 0 0 0 0 0 0 0 0 0 0 0 0 0 0 0 0 0 0 0 0 0 0 0 0 0 0 0 0 0 0 0 0 0 0 0 0 0 0 0 0 0 0 0 0 0 0 0 0 0 0 0 0 0 0 0 0 0 0 0 0 0 0 0 0 0 0 0 0 0 0 0 0 0 0 0 0 0 0 0 0 0 0 0 0 0 0 0 0 0 0 0 0 0 0 0 0 0 0 0 0 0 0 0 0 0 0 0 0 0 0
3240.4 3236.52 3269.25 3300.38 3285.12 3315.05 3198.51 3046.58 3140.21 2725.84 2392.84 1708.81 570.76 0 391.097 0 0 0 0 0 0 0 0 0 0 0 0 0 0 0 0 0 0 0 0 0 0 0 0 0 3281.85 3375.4 3344.45 3446.05 3428.72 3405.48 3486.73 3816.33 3418.8 3313.15 3101.54 2382.54 1874.46 1553.66 0 0 0 0 0 0 0 0 0 2333.53 2195.48 2451.83 2474.14 2504.46 2470.67 2300.13 2273.52 2052.87 2356.21 2212.33 2158.15 2093.28 1646.59 1674.71 1843.52 0 0 1323.9 0 0 0 0 0 0 0 0 0 0 0 0 0 0 0 0 0 0 0 0 0 0 0 0 0 0 0 0 0 0 0 0 0 0 0 0 0 0 0 0 0 0 0 0 0 0 0 0 0 0 0 0 0 0 0 0 0 0 0 0 0 0 0 0 0 0 0 0 0 0 0 0 0 0 0 2973.05 3000.16 3237.02 2960.41 2963.86 3116.23 3216.11 3154.49 3063.04 3048.63 3034.07 3136.04 3220.18 3185.94 3175.69 3179.48 3207.56 3202.66 3262.83 3404.51 3340.26 3390.68 3446.12 3785 3867.09 4015.73 4116.73 4224.74 4754.63 3375 3102.52 3100.51 2804.77 2496.3 2066.55 0 0 0 0 0 0 0 0 0 0 0 0 0 0 0 0 0 0 0 0 0 0 0 0 0 0 0 0 0 0 0 0 0 0 0 0 0 0 0 0 0 0 0 0 0 0 0 0 0 0 0 0 0 0 0 0 0 0 0 0 0 0 0 0 0 0 0 0 0 0 0 0 0 0 0 0 0 0 0 0 0 0 0 0 0 0 0 0 0 0 0 0 0 0 0 0 0 0 0 0 0 0 0 0 0 0 0 0 0 0 0 0 0 0 0 0 0 0 0 0 0 0 0 0 0 0 0 0 0 0 0 0 0 0 0 0 0 0 0 0 0 0 0 0 0 0 0 0 0 0 0 0 0 0 0 0 0 2624.37 0 0 0 0 0 0 0 0 0 0 0 0 0 0 0 0 0 0 0 0 0 0 0 0 0 0 0 0 0 0 0 0 0 0 0 0 0 0 0 0 0 0 0 0 0 0 0 0 0 0 0 0 0 0 0 0 0 0 0 0 0 0 0 0 0 0 0 0 0 0 0 0 0 0 0 0 0 0 0 0 0 0 0 0 0 0 0 0 0 0 0 0 0 0 0 0 0 0 0 0 0 0 0 0 0 0 0 0 0 0 0 0 0 0 0 0 0 0 0 0 0 0 0 0 0 0 0 0 0 0 0 0 0 0 0 0 0 0 0 0 0 0 0 0 0 0 0 0 0 0 0 0 0 0 0 0 0 0 0 0 0 0
3249.43 3274.61 3287.83 3322.14 3306.88 3319.05 3185.4 2978.38 3202.24 2618.84 2066.83 0 0 0 0 0 0 0 0 0 0 0 0 0 0 0 0 0 0 0 0 0 0 0 0 0 0 0 0 0 3262.77 3298.36 3321.22 3300.76 3253.84 3280.44 3643.93 4091.73 3074.83 2937.65 2824.17 2350.43 1973.38 1706.58 1611.68 1368.33 0 0 901.427 861.209 0 0 0 2742.1 2740.18 2784.42 2737.54 2722.17 2656.74 2621.91 2424.34 2208.37 2509.36 2400.85 2368.78 2320.14 1920.02 1953.14 2104.44 2169.28 2271.55 1808.9 1992.58 0 0 0 0 0 0 0 0 0 0 0 0 0 0 0 0 0 0 0 0 0 0 0 0 0 0 0 0 0 0 0 0 0 0 0 0 0 0 0 0 0 0 0 0 0 0 0 0 0 0 0 0 0 0 0 0 0 0 0 0 0 0 0 0 0 0 0 0 0 0 0 0 0 0 3561.71 3520.97 3392.33 2780.83 2745.83 3064.16 3261.88 3164.67 2987.4 3028.05 3063.94 3206.52 3266.77 3184.67 3149.16 4279.92 4198.52 4078.6 3245.72 3335.34 3278 3316.1 3712.96 3782.18 3888.6 3985.68 3584.76 4122.19 3329.39 3351.67 3146.45 3225.82 2950.21 2648.27 2208.89 0 0 0 0 0 0 0 0 0 0 0 0 0 0 0 0 0 0 0 0 0 0 0 0 0 0 0 0 0 0 0 0 0 0 0 0 0 0 0 0 0 0 0 0 0 0 0 0 0 0 0 0 0 0 0 0 0 0 0 0 0 0 0 0 0 0 0 0 0 0 0 0 0 0 0 0 0 0 0 0 0 0 0 0 0 0 0 0 0 0 0 0 0 0 0 0 0 0 0 0 0 0 0 0 0 0 0 0 0 0 0 0 0 0 0 0 0 0 0 0 0 0 0 0 0 0 0 0 0 0 0 0 0 0 0 0 0 0 0 0 0 0 0 0 0 0 0 0 0 0 0 0 0 0 0 0 0 0 0 0 0 0 0 0 0 0 0 0 0 0 0 0 0 0 0 0 0 0 0 0 0 0 0 0 0 0 0 0 0 0 0 0 0 0 0 0 0 0 0 0 0 0 0 0 0 0 0 0 0 0 0 0 0 0 0 0 0 0 0 0 0 0 0 0 0 0 0 0 0 0 0 0 0 0 0 0 0 0 0 0 0 0 0 0 0 0 0 0 0 0 0 0 0 0 0 0 0 0 0 0 0 0 0 0 0 0 0 0 0 0 0 0 0 0 0 0 0 0 0 0 0 0 0 0 0 0 0 0 0 0 0 0 0 0 0 0 0 0 0 0 0 0 0 0 0 0 0 0 0 0 0 0 0 0 0 0 0 0 0 0
3335.41 3414.77 3399.48 3425.22 3419.22 3486.8 3347.32 3105.56 3277.87 2913.32 2246.91 1988.96 0 0 0 0 0 0 0 0 0 0 0 0 0 0 0 0 0 0 0 0 0 0 0 0 0 0 3477.04 3401.68 3503.47 3451.72 3426.34 3385.83 3317.34 3302.45 3294.15 4025.08 3252.71 3186.97 3143.62 2692.73 2518.36 2271.61 2053.45 1845.15 0 0 1533.44 1847.2 0 0 0 2962.6 2938.84 2846.5 2846.16 2781.1 2712.4 2701.14 2562.44 2439.78 2791.75 2741.39 2798.12 2649.94 2521.77 2499.16 2593.7 2536.07 2570.88 2074.75 2203.09 1923.85 1501.64 0 0 0 0 0 0 0 0 0 0 0 0 0 0 0 0 0 0 0 0 0 0 0 0 0 0 0 0 0 0 0 0 0 0 0 0 0 0 0 0 0 0 0 0 0 0 0 0 0 0 0 0 0 0 0 0 0 0 0 0 0 0 0 0 0 0 0 0 0 0 0 0 3427.95 3526.74 3284.74 2955.82 2685.57 2844.66 3122.56 2975.63 2811.63 2898.52 2978.43 3166.94 3192.18 3143.91 3111.44 3124.53 3171.25 3188 3202.85 3265.88 3165.14 3212.97 3728.64 3780.56 3842.03 3928.84 3432.79 3424.67 3230.91 3410.74 3220.68 3301.48 2902.84 2687.25 2191.5 0 0 0 0 0 0 0 0 0 0 0 0 0 0 0 0 0 0 0 0 0 0 0 0 0 0 0 0 0 0 0 0 0 0 0 0 0 0 0 0 0 0 0 0 0 0 0 0 0 0 0 0 0 0 0 0 0 0 0 0 0 0 0 0 0 0 0 0 0 0 0 0 0 0 0 0 0 0 0 0 0 0 0 0 0 0 0 0 0 0 0 0 0 0 0 0 0 0 0 0 0 0 0 0 0 0 0 0 0 0 0 0 0 0 0 0 0 0 0 0 0 0 0 0 0 0 0 0 0 0 0 0 0 0 0 0 0 0 0 0 0 0 0 0 0 0 0 0 0 0 0 0 0 0 0 0 0 0 0 0 0 0 0 0 0 0 0 0 0 0 0 0 0 0 0 0 0 0 0 0 0 0 0 0 0 0 0 0 0 0 0 0 0 0 0 0 0 0 0 0 0 0 0 0 0 0 0 0 0 0 0 0 0 0 0 0 0 0 0 0 0 0 0 0 0 0 0 0 0 0 0 0 0 0 0 0 0 0 0 0 0 0 0 0 0 0 0 0 0 0 0 0 0 0 0 0 0 0 0 0 0 0 0 0 0 0 0 0 0 0 0 0 0 0 0 0 0 0 0 0 0 0 0 0 0 0 0 0 0 0 0 0 0 0 0 0 0 0 0 0 0 0 0 0 0 0 0 0 0 0 0 0 0 0 0 0 0 0 0 0
3187.33 3245.53 3243.53 3278.38 3272.89 3325.56 3252.71 3076.07 3137.68 2803.97 2181.27 1829.65 0 0 0 0 0 0 0 0 0 0 0 0 0 0 0 0 0 0 0 0 0 0 0 0 0 3515.22 3463.41 3475.1 3754.5 4057.49 4133.77 4205.78 4048.39 3977.09 3811.13 4234.12 3291.63 3114.9 3040.56 2830.94 2688.67 2673.93 2467.88 2127.9 1518.68 2108.33 2006.09 2628.52 2946.53 3217.4 0 2719.79 2632.48 2637.28 2749.97 2832.94 2734.24 2682.05 2651.28 2651.37 2953.11 2914.28 2977.11 2887.1 2732.06 2823.41 2989.69 2812.43 2813.14 2329.9 2734.33 2351.36 1955.92 1606.6 0 776.403 0 0 0 0 0 0 0 0 0 0 0 0 0 0 0 0 0 0 0 0 0 0 0 0 0 0 0 0 0 0 0 0 0 0 0 0 0 0 0 0 0 0 0 0 0 0 0 0 0 0 0 0 0 0 0 0 0 0 0 0 0 0 0 0 0 0 0 0 0 0 2936.21 2729.43 2474.17 2452.22 2711.53 2883.13 2909.38 2776.91 2972.89 2987.61 3123.66 3236.21 3133.23 3085.69 3071.96 3102.86 3148.99 3130.6 3779.54 3653.14 3205.17 3840.88 3914.73 3860.5 3960.75 3575.75 3573.23 3426.06 3506.18 3364.84 3308.84 2936.52 2926.69 2446.47 0 0 0 0 0 0 0 0 0 0 0 0 0 0 0 0 0 0 0 0 0 0 0 0 0 0 0 0 0 0 0 0 0 0 0 0 0 0 0 0 0 0 0 0 0 0 0 0 0 0 0 0 0 0 0 0 0 0 0 0 0 0 0 0 0 0 0 0 0 0 0 0 2273.86 2612.15 2563.7 2226.27 2062.38 0 2356.77 0 0 0 0 0 0 0 0 0 0 0 0 0 0 0 0 0 0 0 0 0 0 0 0 0 0 0 0 0 0 0 0 0 0 0 0 0 0 0 0 0 0 0 0 0 0 0 0 0 0 0 0 0 0 0 0 0 0 0 0 0 0 0 0 0 0 0 0 0 0 0 0 0 0 0 0 0 0 0 0 0 0 0 0 0 0 0 0 0 0 0 0 0 0 0 0 0 0 0 0 0 0 0 0 0 0 0 0 0 0 0 0 0 0 0 0 0 0 0 0 0 0 0 0 0 0 0 0 0 0 0 0 0 0 0 0 0 0 0 0 0 0 0 0 0 0 0 0 0 0 0 0 0 0 0 0 0 0 0 0 0 0 0 0 0 0 0 0 0 0 0 0 0 0 0 0 0 0 0 0 0 0 0 0 0 0 0 0 0 0 0 0 0 0 0 0 0 0 0 0 0 0 0 0 0 0 0 0 0 0 0 0 0 0 0 0 0 0 0 0 0 0 0 0 0 0 0 0 0 0 0 0 0 0 0 0 0 0 0 0 0
3261.5 3300.12 3306.55 3359.72 3345.85 3369.84 3206.34 3082.23 3078.5 2629.8 2138.59 1696.78 0 0 0 0 0 0 0 0 0 0 0 0 0 0 0 0 0 0 0 0 0 0 0 0 3617.46 3722.35 3570.95 3484.26 3700.68 4175.54 4204.1 4255.82 4120.77 4016.12 3896.36 4227.4 3232.47 3132.76 3093.99 2971.05 2835.86 2820.04 2864.77 2826.12 2378.02 2900.93 2836.92 3030.07 3326.75 3597.75 3476.97 3044.59 3047.13 2965.01 3006.78 3024.45 2921.79 2864.48 2809.98 2808.19 3042.71 2938.27 2977.59 2935.29 2766.11 2816.16 2996.31 2901.43 2822.74 2425.39 2618.96 2272.5 1803.15 1678.77 1427.79 1008.48 611.439 526.665 0 18.8285 385.709 0 0 0 0 0 0 0 0 0 0 0 0 0 0 0 0 0 0 0 0 0 0 0 0 0 0 0 0 0 0 0 0 0 0 0 0 0 0 0 0 0 0 0 0 0 0 0 0 0 0 0 0 0 0 0 0 0 0 0 0 0 0 0 0 917.948 1011.15 1225.68 1435.08 1887.62 2223.77 2635.66 2816.06 2901.08 3114.38 3136.57 3228.49 3326.81 3183.34 3125.17 3085.57 3114.79 3136.74 3082.06 3135.39 3099.42 3138.56 3888.42 3982.94 3417.76 3469.35 3492.02 3471.86 3365.32 3458.55 3219.32 3179.42 2696.45 2513.31 2222.32 1801.52 1825.93 0 0 0 0 0 0 0 0 0 0 0 0 0 0 0 0 0 0 0 0 0 0 0 0 0 0 0 0 0 0 0 0 0 0 0 0 0 0 0 0 0 0 0 0 0 0 0 0 0 0 0 0 0 0 0 0 0 0 0 0 0 0 0 0 0 2417 2430.02 2174.71 2445.54 2793.79 2724.16 3049.24 3041.77 2616.06 2425.46 2471.88 2648.85 0 0 0 0 2099.6 0 0 0 0 0 0 0 0 0 0 0 0 0 0 0 0 0 0 0 0 0 0 0 0 0 0 0 0 0 0 0 0 0 0 0 0 0 0 0 0 0 0 0 0 0 0 0 0 0 0 0 0 0 0 0 0 0 0 0 0 0 0 0 0 0 0 0 0 0 0 0 0 0 0 0 0 0 0 0 0 0 0 0 0 0 0 0 0 0 0 0 0 0 0 0 0 0 0 0 0 0 0 0 0 0 0 0 0 0 0 0 0 0 0 0 0 0 0 0 0 0 0 0 0 0 0 0 0 0 0 0 0 0 0 0 0 0 0 0 0 0 0 0 0 0 0 0 0 0 0 0 0 0 0 0 0 0 0 0 0 0 0 0 0 0 0 0 0 0 0 0 0 0 0 0 0 0 0 0 0 0 0 0 0 0 0 0 0 0 0 0 0 0 0 0 0 0 0 0 0 0 0 0 0 0 0 0 0 0 0 0 0 0 0 0 0 0 0 0 0 0 0 0 0 0 0 0 0 0 0 0 0 0 0 0 0
3306.55 3301.48 3349.66 3384.73 3368.83 3406.17 3121.8 2994.97 3026.41 2644.14 2356.67 0 0 0 0 0 0 0 0 0 0 0 0 0 0 0 0 0 0 0 0 0 0 0 3481.95 3607.11 3743.78 3863.44 3694.48 3544.85 3697.9 3516.03 4082.67 4057.49 3441.95 3325.63 3205.78 4118.34 3220.68 3206.4 3311.58 3204.62 3182.68 3159.3 3182.07 3210.82 2863.75 3377.65 3281.08 3139.44 3046.41 3439.06 3413.17 3057.74 3058.74 2939.66 3034.02 3076.18 2970.31 2943.74 2907.01 2873.8 3084.27 2996.84 3046.3 2961.71 2844.95 2971.1 3150.82 3061.81 2961.4 2577.84 2782.21 2616.35 2747.36 2900.43 2540.79 2071.65 2253.18 2285.1 1598.17 2044.54 999.766 0 0 0 0 0 0 0 0 0 0 0 0 0 0 0 0 0 0 0 0 0 0 0 0 0 0 0 0 0 0 0 0 0 0 0 0 0 0 0 0 0 0 0 0 0 0 0 0 0 0 0 0 0 0 0 0 0 0 0 0 0 0 0 0 986.702 1125.12 1439.45 1541.9 1757.31 2066.55 2478.23 2761.74 2826.02 3058.35 3075.34 3154.08 3258.71 3169.15 3096.11 3048.24 3058.13 3114.9 3054.62 3094.57 3043.59 3047.91 3914.09 4007.48 3358.31 3392.88 3359.05 3310.86 3234.83 3310.93 3181.41 2996.04 2443.65 2219.85 0 0 0 0 0 0 0 0 0 0 0 0 0 0 0 0 0 0 0 0 0 0 0 0 0 0 0 0 0 0 0 0 0 0 0 0 0 0 0 0 0 0 0 0 0 0 0 0 0 0 0 0 0 0 0 0 0 0 0 0 0 0 0 0 0 2034.1 0 0 2499.34 2426.09 2388.68 2464.32 2784.52 2800.69 3169.09 3233.9 2910.74 2814.84 2934.16 2901.23 2886.21 2681.49 2658.89 2438.96 0 0 0 0 0 0 0 0 0 0 0 0 0 0 0 0 0 0 0 0 0 0 0 0 0 0 0 0 0 0 0 0 0 0 0 0 0 0 0 0 0 0 0 0 0 0 0 0 0 0 0 0 0 0 0 0 0 0 0 0 0 0 0 0 0 0 0 0 0 0 0 0 0 0 0 0 0 0 0 0 0 0 0 0 0 0 0 0 0 0 0 0 0 0 0 0 0 0 0 0 0 0 0 0 0 0 0 0 0 0 0 0 0 0 0 0 0 0 0 0 0 0 0 0 0 0 0 0 0 0 0 0 0 0 0 0 0 0 0 0 0 0 0 0 0 0 0 0 0 0 0 0 0 0 0 0 0 0 0 0 0 0 0 0 0 0 0 0 0 0 0 0 0 0 0 0 0 0 0 0 0 0 0 0 0 0 0 0 0 0 0 0 0 0 0 0 0 0 0 0 0 0 0 0 0 0 0 0 0 0 0 0 0 0 0 0 0 0 0 0 0 0 0 0 0 0 0 0 0 0 0 0 0 0 0 0 0
3293.31 3260.04 3294.61 3291.31 3255.04 3226.25 2989.05 2861.3 2807.07 2498.27 2230.06 0 0 0 0 0 0 0 0 0 0 0 0 0 0 0 0 0 0 0 0 0 0 0 3330.38 3451.37 3636.19 3700.76 3578.95 3542.68 3738.69 3570.5 3435.53 3389.25 3279.35 3182.13 3154.49 3197.9 3146.33 3084.61 3217.59 3220.12 3272.63 3371.74 3523.93 3505.37 3350.26 3742.28 3810.87 3673.69 3492.1 3482.38 3485.57 3168.19 3174.43 3096.79 3120.76 3111.44 3019.82 3007.96 2943.32 2864.04 3111.21 3047.19 3056.12 2964.96 2866.04 2963.39 3102.75 3120.64 3163.12 2732.06 2893.78 2852.84 3159.78 3491.01 3161.03 2511.05 2861.06 2495.15 1879.75 1690.32 662.416 0 0 0 0 0 0 0 0 0 0 0 0 0 0 0 0 0 0 0 0 0 0 0 0 0 0 0 0 0 0 0 0 0 0 0 0 0 0 0 0 0 0 0 0 0 0 0 0 0 0 0 0 0 0 0 0 0 0 0 0 0 0 0 0 0 972.253 1223.66 1561.8 1771.75 1902.82 2036.82 2523.71 2627.45 2988.83 3042.1 3191.33 3334.81 3158.29 3106.94 3109.48 3097.76 3146.33 3051.29 3133.34 3061.92 3045.42 3195.65 4153.62 3321.02 3366.8 3383.91 3394.04 3231.91 3346.72 3302.97 3051.73 2526.02 2575.62 0 0 0 0 0 582.734 0 0 0 0 0 0 0 0 0 0 0 0 0 0 0 0 0 0 0 0 0 0 0 0 0 0 0 0 0 0 0 0 0 0 0 0 0 0 0 0 0 0 0 0 0 0 0 0 0 0 0 0 0 0 0 1884.88 1685.16 1955.76 2050.81 1800.09 1716.66 2056.16 2583.43 2634.88 2622.64 2800.13 2988.03 3031.88 3313.48 3448.81 3278 3086.2 3155.74 3125.35 3084.67 2871.69 2862.72 2740.09 2465.34 0 0 0 0 0 0 0 0 0 0 0 0 0 0 0 0 0 0 0 0 0 0 0 0 0 0 0 0 0 0 0 0 0 0 0 0 0 0 0 0 0 0 0 0 0 0 0 0 0 0 0 0 0 0 0 0 0 0 0 0 0 0 0 0 0 0 0 0 0 0 0 0 0 0 0 0 0 0 0 0 0 0 0 0 0 0 0 0 0 0 0 0 0 0 0 0 0 0 0 0 0 0 0 0 0 0 0 0 0 0 0 0 0 0 0 0 0 0 0 0 0 0 0 0 0 0 0 0 0 0 0 0 0 0 0 0 0 0 0 0 0 0 0 0 0 0 0 0 0 0 0 0 0 0 0 0 0 0 0 0 0 0 0 0 0 0 0 0 0 0 0 0 0 0 0 0 0 0 0 0 0 0 0 0 0 0 0 0 0 0 0 0 0 0 0 0 0 0 0 0 0 0 0 0 0 0 0 0 0 0 0 0 0 0 0 0 0 0 0 0 0 0 0 0 0 0 0 0 0 0 0 0 0 0 0 0
3479.78 3409.22 3458.55 3450.16 3395.56 3303.3 3149.1 2985.96 2917.27 2523.17 2117.24 0 0 0 0 0 0 0 0 0 0 0 0 0 0 0 0 0 0 0 0 0 0 3238.64 3235.77 3303.49 3491.22 3586.3 3492.46 3471.07 3590.59 3474.16 3402.79 3350.67 3310.47 3186.85 3231.41 3976.8 3171.49 3184.61 3321.41 3272.31 3254.98 3254.92 3440.96 3320.03 3278.64 3508.01 3480.14 3477.48 3270.65 3368.29 3314.79 2998.88 2989.53 2999.3 3046.91 3099.48 3004.03 2979.17 2956.7 2912.16 3107.52 3091.6 3089.84 3074.15 3039.46 3155.03 3339.33 3410.95 3591.9 3391.92 3520.23 3650.2 3855.62 3813.82 3588.37 2765.7 2769.9 1807.07 1516.95 1492.42 978.336 0 0 0 0 0 0 0 0 0 0 0 0 0 0 0 0 0 0 0 0 0 0 0 0 0 0 0 0 0 0 0 0 0 0 0 0 0 0 0 0 0 0 0 0 0 0 0 0 0 0 0 0 0 0 0 0 0 0 0 0 0 0 0 0 0 0 0 1635.42 1702.53 1814.32 2025.73 2585.02 2637.36 2845.1 2791.51 3080.53 3257.89 3141.62 3117.74 3071.23 4081.68 4018.23 3973.13 4183.87 4161.76 4560.77 3086.48 4149.2 3274.61 3309.55 3319.44 3325.96 3174.97 3307.14 3298.17 3255.42 2660.11 0 0 0 0 1806.8 0 670.731 0 0 0 0 0 0 0 0 0 0 0 0 0 0 0 0 0 0 0 0 0 0 0 0 0 0 0 0 0 0 0 0 0 0 0 0 0 0 0 0 0 0 0 0 0 0 0 0 0 0 0 0 0 0 0 2495.81 2475.89 2998.34 2954.26 2452.08 2143.4 2268.17 2602.55 2805.47 2935.75 3080.53 2980.5 2919.66 3136.62 3336.54 3243.65 3149.52 3188.85 3071.23 2923.17 2888.69 2901.88 2795.28 2436.87 2478.74 0 0 0 0 0 0 0 0 0 0 0 0 0 0 0 0 0 0 0 0 0 0 0 0 0 0 0 0 0 0 0 0 0 0 0 0 0 0 0 0 0 0 0 0 0 0 0 0 0 0 0 0 0 0 0 0 0 0 0 0 0 0 0 0 0 0 0 0 0 0 0 0 0 0 0 0 0 0 0 0 0 0 0 0 0 0 0 0 0 0 0 0 0 0 0 0 0 0 0 0 0 0 0 0 0 0 0 0 0 0 0 0 0 0 0 0 0 0 0 0 0 0 0 0 0 0 0 0 0 0 0 0 0 0 0 0 0 0 0 0 0 0 0 0 0 0 0 0 0 0 0 0 0 0 0 0 0 0 0 0 0 0 0 0 0 0 0 0 0 0 0 0 0 0 0 0 0 0 0 0 0 0 0 0 0 0 0 0 0 0 0 0 0 0 0 0 0 0 0 0 0 0 0 0 0 0 0 0 0 0 0 0 0 0 0 0 0 0 0 0 0 0 0 0 0 0 0 0 0 0 0 0 0 0 0
3352.41 3295 3332.23 3306.03 3214.01 3110.17 3113.46 2926.53 2953.37 2444.22 2312.43 0 0 0 0 0 0 0 0 0 0 0 0 0 0 0 0 0 0 0 0 0 0 3009.69 3062.87 3267.4 3532.61 3576.28 3604.09 3589.75 3727.81 3594.36 3532.46 3496.97 3420.83 3260.74 3315.24 3322.66 3259.98 3261.56 3380.03 3302.78 3258.84 3209.83 3408.94 3245.79 3169.45 3220.06 3165.03 3190.3 3097.76 3250.69 3298.82 3046.41 3085.57 3100.4 3220.62 3261.37 3129.84 3100.05 3083.59 3092.45 3215.92 3186 3204.01 3186.79 3160.61 3817.98 3953.94 3520.75 4109.27 3461.48 3494.13 3474.09 3676.35 3588.06 3014.77 2388.89 2406.39 1692.04 1468.26 1364.86 1092.22 0 0 0 0 0 0 0 0 0 0 0 0 0 0 0 0 0 0 0 0 0 0 0 0 0 0 0 0 0 0 0 0 0 0 0 0 0 0 0 0 0 0 0 0 0 0 0 0 0 0 0 0 0 0 0 0 0 0 0 0 0 0 0 0 0 0 0 0 1492.26 1713.73 2014.78 2596.63 2596.87 2792.21 2860.33 3081.66 3278.51 3178.4 3118.03 3051.95 3058.35 3873.25 3037.53 4117.64 2997.16 4678.27 3995.84 3023.79 3095.54 3067.86 3034.9 3038.69 2915.6 3039.18 2984.05 2807.07 0 0 0 0 0 0 0 0 0 0 0 0 0 0 0 0 0 0 0 0 0 0 0 0 0 0 0 0 0 0 0 0 0 0 0 0 0 0 0 0 0 0 0 0 0 0 0 0 0 0 0 0 0 0 0 0 0 0 0 0 0 0 0 2696.23 2705.54 3107.06 2965.43 2549.09 2346.46 2418.64 2630.87 2824.74 2944.35 3013.36 2890.24 2828.12 2991.39 3172.21 3102.92 3068.19 3079.46 2982.14 2848.38 2863.75 2886.95 2849.01 2544.14 2627.66 2545.3 0 0 0 0 0 0 0 0 0 0 0 0 0 0 0 0 0 0 0 0 0 0 0 0 0 0 0 0 0 0 0 0 0 0 0 0 0 0 0 0 0 0 0 0 0 0 0 0 0 0 0 0 0 0 0 0 0 0 0 0 0 0 0 0 0 0 0 0 0 0 0 0 0 0 0 0 0 0 0 0 0 0 0 0 0 0 0 0 0 0 0 0 0 0 0 0 0 0 0 0 0 0 0 0 0 0 0 0 0 0 0 0 0 0 0 0 0 0 0 0 0 0 0 0 0 0 0 0 0 0 0 0 0 0 0 0 0 0 0 0 0 0 0 0 0 0 0 0 0 0 0 0 0 0 0 0 0 0 0 0 0 0 0 0 0 0 0 0 0 0 0 0 0 0 0 0 0 0 0 0 0 0 0 0 0 0 0 0 0 0 0 0 0 0 0 0 0 0 0 0 0 0 0 0 0 0 0 0 0 0 0 0 0 0 0 0 0 0 0 0 0 0 0 0 0 0 0 0 0 0 0 0 0 0
3234.77 3204.01 3248.61 3269.57 3107.46 3040.5 3161.45 2946.73 2881.65 2364.21 2031.64 0 0 0 0 0 0 0 0 0 0 0 0 0 0 0 0 0 0 0 0 0 0 2835.43 2873.6 3224.64 3528.23 3556.8 3587.83 3559.89 4175.22 3536.18 3517.21 3477.4 3328.27 3185.76 3237.46 3261.24 3221.67 3248.93 3367.27 3305.71 3285.06 3338.33 3449.17 3299.14 3139.56 3103.72 3053.9 3101.54 2882.59 2989.53 3165.26 3006.35 3179.78 3141.44 3247.23 3228.24 3122.09 3082.34 3066.18 3058.3 3206.95 3174.37 3194.74 3156.33 3209.34 3772.15 3927.19 4018.43 4198.1 3507.65 3483.18 3619.17 4056.41 3840.71 3377.24 2699.96 2541.48 1952.51 1651.53 1445.84 1141.86 0 0 0 0 0 0 0 0 0 0 0 0 0 0 0 0 0 0 0 0 0 0 0 0 0 0 0 0 0 0 0 0 0 0 0 0 0 0 0 0 0 0 0 0 0 0 0 0 0 0 0 0 0 0 0 0 0 0 0 0 0 0 0 0 0 0 0 0 0 0 0 2902.64 2831.41 3017.86 3076.92 3250.38 3506.4 3387.67 3278.71 3145.5 4005.09 4131.94 4079 3104.07 4395.52 4329.95 2962.34 4145.31 3019.71 3012.77 2918.85 2941.62 2837.83 2815.92 2849.45 2679.05 0 0 0 0 0 0 0 0 0 0 0 0 0 0 0 0 0 0 0 0 0 0 0 0 0 0 0 0 0 0 0 0 0 0 0 0 0 0 0 0 0 0 0 0 0 0 0 0 0 0 0 0 0 0 0 0 0 0 0 0 0 0 0 3062.71 3137.86 3285.7 3103.49 2804.81 2532.51 2561.23 2726.37 2866.63 3109.48 3141.15 3091.14 3093.77 3196.99 3369.51 3320.36 3316.1 3315.64 3157.7 3129.25 3116.47 3107.86 3106.89 2856.29 2890.73 2854.44 2674.06 2456.06 0 0 0 0 0 0 0 0 0 0 0 0 0 0 0 0 0 0 0 0 0 0 0 0 0 0 0 0 0 0 0 0 0 0 0 0 0 0 0 0 0 0 0 0 0 0 0 0 0 0 0 0 0 0 0 0 0 0 0 0 0 0 0 0 0 0 0 0 0 0 0 0 0 0 0 0 0 0 0 0 0 0 0 0 0 0 0 0 0 0 0 0 0 0 0 0 0 0 0 0 0 0 0 0 0 0 0 0 0 0 0 0 0 0 0 0 0 0 0 0 0 0 0 0 0 0 0 0 0 0 0 0 0 0 0 0 0 0 0 0 0 0 0 0 0 0 0 0 0 0 0 0 0 0 0 0 0 0 0 0 0 0 0 0 0 0 0 0 0 0 0 0 0 0 0 0 0 0 0 0 0 0 0 0 0 0 0 0 0 0 0 0 0 0 0 0 0 0 0 0 0 0 0 0 0 0 0 0 0 0 0 0 0 0 0 0 0 0 0 0 0 0 0 0 0 0 0 0 0 0 0 0
2859.94 2765.38 2827.69 2884.47 2757.33 2736.56 3053.79 2881.8 2558.53 2235.59 2003.86 0 0 0 0 0 0 0 0 0 0 0 0 0 0 0 0 0 0 0 0 0 0 2776.91 2808.94 2988.46 3387.6 3467.49 3608.35 3572.32 3667.35 3532.46 3478.2 3468.56 3418.04 3271.8 3348.26 3324.57 3293.25 3316.36 3449.24 3432.09 3388.29 3391.3 3475.75 3255.42 3063.26 3043.81 3209.4 3171.55 3068.92 3136.68 3243.03 3183.7 3318.26 3328.46 3348.86 3293.06 3193.09 3126.98 3097.88 3091.66 3191.64 3159.96 3182.62 3168.97 3197.9 3673.94 3463.55 3542.08 4094.32 3493.84 3491.01 3506.62 4210.64 3745.37 3416.44 2793.42 2706.5 2095.56 1907.14 1452.3 1183.17 0 0 0 0 0 0 0 0 0 0 0 0 0 0 0 0 0 0 0 0 0 0 0 0 0 0 0 0 0 0 0 0 0 0 0 0 0 0 0 0 0 0 0 0 0 0 0 0 0 0 0 0 0 0 0 0 0 0 0 0 0 0 0 0 0 0 0 0 0 0 0 2719.39 2545.11 2603.72 2782.9 2841.2 3157.58 3144.8 3183.1 3038.14 3995.94 4162.17 4290.32 4294.16 4467.26 4427.18 4171.49 3001.67 3112.65 3037.53 3015.96 3002.47 2854.29 2939.51 2897.67 2594.98 0 2091.17 0 0 0 1952.98 2084.96 0 2320.27 0 0 0 0 0 0 0 0 0 0 0 0 0 0 0 0 0 0 0 0 0 0 0 0 0 0 0 0 0 0 0 0 0 0 0 0 0 0 0 0 0 0 0 0 0 0 0 0 0 0 0 0 3028.81 2996.84 3172.27 3354.62 3559.97 3507.06 3165.32 2864.82 2890.44 2933.34 2976.32 3144.44 3110.28 3063.71 3018.13 3126.16 3365.45 3311.06 3350.8 3396.04 3230.66 3224.64 3239.58 3261.37 3229.11 2933.9 2871.54 2847.9 2704.49 2518.74 2265.93 0 0 0 0 0 0 0 0 0 0 0 0 0 0 0 0 0 0 0 0 0 0 0 0 0 0 0 0 0 0 0 0 0 0 0 0 0 0 0 0 0 0 0 0 0 0 0 0 0 0 0 0 0 0 0 0 0 0 0 0 0 0 0 0 0 0 0 0 0 0 0 0 0 0 0 0 0 0 0 0 0 0 0 0 0 0 0 0 0 0 0 0 0 0 0 0 0 0 0 0 0 0 0 0 0 0 0 0 0 0 0 0 0 0 0 0 0 0 0 0 0 0 0 0 0 0 0 0 0 0 0 0 0 0 0 0 0 0 0 0 0 0 0 0 0 0 0 0 0 0 0 0 0 0 0 0 0 0 0 0 0 0 0 0 0 0 0 0 0 0 0 0 0 0 0 0 0 0 0 0 0 0 0 0 0 0 0 0 0 0 0 0 0 0 0 0 0 0 0 0 0 0 0 0 0 0 0 0 0 0 0 0 0 0 0 0 0 0 0 0 0 0 0 0 0 0 0 0 0 0 0
2523.74 2342.95 2436.87 2507.75 2373.64 2386.71 2801.21 2546.19 2267.25 1536.15 0 0 0 0 0 0 0 0 0 0 0 0 0 0 0 0 0 0 0 0 0 0 2211.05 2558.46 2582.92 2747 3089.1 3195.95 3372.08 3355.83 3463.41 3408.32 3360.73 3375.68 3338.86 3227.18 3303.75 3271.99 3236.08 4044 4145.21 3343.32 3302.26 3290.09 3340.72 3138.5 2988.46 2986.44 3084.55 3024.01 2945.96 3062.43 3203.28 4810.8 4621.19 3344.12 4448.67 3339.33 3223.96 3162.76 3157.52 3145.09 3206.21 3163.06 3164.31 3160.79 3198.57 3740.44 3855.53 3983.6 4257.55 4290.54 4379.8 4233.91 4646.01 4422.05 3932.8 3244.84 2964.8 2257.64 1686.77 1077.37 0 0 0 0 0 0 0 0 0 0 0 0 0 0 0 0 0 0 0 0 0 0 0 0 0 0 0 0 0 0 0 0 0 0 0 0 0 0 0 0 0 0 0 0 0 0 0 0 0 0 0 0 0 0 0 0 0 0 0 0 0 0 0 0 0 0 0 0 0 0 0 0 2466.03 2381.93 2413.11 2534.72 2678.8 3084.33 3073.98 3114.9 2962.97 2933.7 3896.54 4194.11 4251.4 5265.39 4210.96 2948.49 3011.58 3213.15 3068.92 3067.75 2974 2802.47 2578.15 2622.52 2419.72 0 0 0 0 0 0 1863.24 1720.72 2116.68 2505.88 0 0 0 0 0 0 0 0 0 0 0 0 0 0 0 0 0 0 0 0 0 0 0 0 0 0 0 0 0 0 0 0 0 0 0 0 0 0 0 0 0 0 0 0 0 0 0 0 0 0 0 3013.47 3081.27 3173.17 3208.24 3376.76 3222.78 3068.92 2907.97 2918.59 2837.98 2851.24 3001.93 2979.6 2998.34 3036.49 3130.36 3372.55 3379.07 3470 3532.76 3407.42 3489.63 3468.49 3463.98 3390.68 3019.71 2866.39 2784.52 2687.68 2421.22 2297.71 0 0 0 0 0 0 0 0 0 0 0 0 0 0 0 0 0 0 0 0 0 0 0 0 0 0 0 0 0 0 0 0 0 0 0 0 0 0 0 0 0 0 0 0 0 0 0 0 0 0 0 0 0 0 0 0 0 0 0 0 0 0 0 0 0 0 0 0 0 0 0 0 0 0 0 0 0 0 0 0 0 0 0 0 0 0 0 0 0 0 0 0 0 0 0 0 0 0 0 0 0 0 0 0 0 0 0 0 0 0 0 0 0 0 0 0 0 0 0 0 0 0 0 0 0 0 0 0 0 0 0 0 0 0 0 0 0 0 0 0 0 0 0 0 0 0 0 0 0 0 0 0 0 0 0 0 0 0 0 0 0 0 0 0 0 0 0 0 0 0 0 0 0 0 0 0 0 0 0 0 0 0 0 0 0 0 0 0 0 0 0 0 0 0 0 0 0 0 0 0 0 0 0 0 0 0 0 0 0 0 0 0 0 0 0 0 0 0 0 0 0 0 0 0 0 0 0 0 0 0 0
2458.4 2202.05 2268.29 2242.34 2154.91 1952.48 2266.88 1944.95 1670.34 1290.3 0 0 0 0 0 0 0 0 0 0 0 0 0 0 0 0 0 0 0 0 0 0 2447.54 2795.19 2882.24 3018.62 3345.59 3411.16 3554.84 3512.93 3492.6 3460.55 3426.34 3428.44 3412.89 3279.79 3345.79 3336.14 3983.22 3335.54 3431.67 4578.94 3345.85 3264.1 3337.2 3180.63 3019.71 3032.15 3135.92 2987.56 2908.32 3022.48 3281.78 3284.74 3445.13 3532.01 3473.52 3392.4 3335.88 3278.83 3252.58 3217.9 3256.88 3199.79 3471.79 3160.38 3810.61 3937.7 3830.27 4029.81 4215.4 4267.62 3979.54 3422.29 3574.53 3567.92 3509.55 2712.23 2326.8 0 0 0 0 0 0 0 0 0 0 0 0 0 0 0 0 0 0 0 0 0 0 0 0 0 0 0 0 0 0 0 0 0 0 0 0 0 0 0 0 0 0 0 0 0 0 0 0 0 0 0 0 0 0 0 0 0 0 0 0 0 0 0 0 0 0 0 0 0 0 0 0 0 0 0 2371.53 2283.95 2365.68 2551.3 2614.55 3013.36 3011.96 3028.38 2927.91 3001.4 3125 3965.99 3967.49 4200.84 3960.19 2941.52 2991.28 3291.76 2942.24 2830.08 2793.05 2643.55 2352.34 2458.98 2641.1 0 2112.92 0 0 0 2194.19 2302.56 2333.14 2563.93 2937.96 0 0 0 2545.42 0 0 0 0 0 0 0 0 0 0 0 0 0 0 0 0 0 0 0 0 0 0 0 0 0 0 0 0 0 0 0 0 0 0 0 0 0 0 0 0 0 2655.31 0 0 0 2799.1 3041.94 2971.1 3072.52 3314.85 3331.24 3249.56 2996.89 2991.07 2807.86 2899.18 2874.83 2861.69 2991.18 3022.1 3129.54 3194.01 3276.34 3473.23 3439.41 3491.44 3536.03 3413.1 3444.07 3364.37 3332.69 3288.54 2986.33 2908.42 2860.57 2867.76 2732.72 2586.38 0 0 0 0 0 0 0 0 0 0 0 0 0 0 0 0 0 0 0 0 0 0 0 0 0 0 0 0 0 0 0 0 0 0 0 0 0 0 0 0 0 0 0 0 0 0 0 0 0 0 0 0 0 0 0 0 0 0 0 0 0 0 0 0 0 0 0 0 0 0 0 0 0 0 0 0 0 0 0 0 0 0 0 0 0 0 0 0 0 0 0 0 0 0 0 0 0 0 0 0 0 0 0 0 0 0 0 0 0 0 0 0 0 0 0 0 0 0 0 0 0 0 0 0 0 0 0 0 0 0 0 0 0 0 0 0 0 0 0 0 0 0 0 0 0 0 0 0 0 0 0 0 0 0 0 0 0 0 0 0 0 0 0 0 0 0 0 0 0 0 0 0 0 0 0 0 0 0 0 0 0 0 0 0 0 0 0 0 0 0 0 0 0 0 0 0 0 0 0 0 0 0 0 0 0 0 0 0 0 0 0 0 0 0 0 0 0 0 0 0 0 0 0 0 0 0 0 0 0 0 0
0 1881.12 1968.1 1958.16 1859.73 1658.37 2125.05 1676.72 1632.3 1177.41 0 0 0 0 0 0 0 0 0 0 0 0 0 0 0 0 0 0 0 0 0 0 2297.24 2611.78 2888.69 2878.48 3247.04 3339.86 3511.32 3474.81 3489.84 3447.04 3414.35 3402.23 3400.58 3258.14 3319.97 3290.92 3284.42 3287.18 3359.18 3334.95 3272.76 3236.27 3261.43 3044.7 2938.84 2910.39 2958.22 2942.91 2838.26 2925.62 3203.7 3348.93 3451.15 3502.74 3492.31 3452.43 3355.76 3278.58 3255.74 3193.22 3212.23 3165.26 3576.36 3120.46 3851.73 3959.44 3801.12 3921.22 4089.04 4108.86 3923.06 3317.28 3437.86 3397.21 3348.32 2754.71 0 0 0 0 0 0 0 0 0 0 0 0 0 0 0 0 0 0 0 0 0 0 0 0 0 0 0 0 0 0 0 0 0 0 0 0 0 0 0 0 0 0 0 0 0 0 0 0 0 0 0 0 0 0 0 0 0 0 0 0 0 0 0 0 0 0 0 0 0 0 0 0 0 0 0 0 0 1535.48 1709.59 1860.99 1839.86 2305.03 2424.16 2753.44 2762.56 2847.85 2975 3045.25 3096.34 3187.51 2951.4 2928.48 2773.42 2975.11 2642.6 2642.39 2530.25 2484.03 2185.39 2461.43 0 0 0 0 0 3080.64 2732.15 2842.54 2844.42 3020.91 3113.69 3135.57 2873.06 2645.47 2641.43 2567.3 2470.38 2284.79 0 0 0 0 0 0 0 0 0 0 0 0 0 0 0 0 0 0 0 0 0 0 0 0 0 0 0 0 0 0 0 0 0 0 0 0 0 0 0 0 0 3148.45 3145.92 3278.13 3140.26 3154.43 3312.43 3277.55 3177.37 3076.01 3096.62 2911.25 2956.96 2908.52 2912.51 3012.77 3034.51 3103.9 3146.62 3186.36 3353.01 3339.26 3443.57 3537.45 3463.91 3496.39 3442.51 3394.32 3374.93 3146.57 3021.07 2936.83 2771.68 2700.27 2674.82 0 2757.92 0 0 0 0 0 0 0 0 0 0 0 0 0 0 0 0 0 0 0 0 0 0 0 0 0 0 0 0 0 0 0 0 0 0 0 0 0 0 0 0 0 0 0 0 0 0 0 0 0 0 0 0 0 0 0 0 0 0 0 0 0 0 0 0 0 0 0 0 0 0 0 0 0 0 0 0 0 0 0 0 0 0 0 0 0 0 0 0 0 0 0 0 0 0 0 0 0 0 0 0 0 0 0 0 0 0 0 0 0 0 0 0 0 0 0 0 0 0 0 0 0 0 0 0 0 0 0 0 0 0 0 0 0 0 0 0 0 0 0 0 0 0 0 0 0 0 0 0 0 0 0 0 0 0 0 0 0 0 0 0 0 0 0 0 0 0 0 0 0 0 0 0 0 0 0 0 0 0 0 0 0 0 0 0 0 0 0 0 0 0 0 0 0 0 0 0 0 0 0 0 0 0 0 0 0 0 0 0 0 0 0 0 0 0 0 0 0 0 0 0 0 0 0 0 0 0 0 0 0
0 0 1756.46 1803.36 1680.38 1295.31 1764.94 0 0 0 0 0 0 0 0 0 0 0 0 0 0 0 0 0 0 0 0 0 0 0 0 0 2118.45 2464.25 2695.32 2741.39 3133.87 3184.61 3402.03 3400.44 3440.04 4166.51 3401.96 3395.69 3362.01 3227.12 3291.51 3212.97 3187.27 3131.94 3160.32 3126.92 3063.82 3039.18 3035.61 2837.54 2846.69 2817.53 2874.29 2863.26 2784.15 2831.41 3049.9 3284.03 3388.15 3441.81 3396.24 3371.13 3283.07 3219.75 3196.81 3171.31 3185.82 3150.94 3141.73 3180.75 3178.03 3739.86 4094.62 4267.62 4118.95 4152.8 3492.1 3426.97 3362.35 3309.69 3394.8 2750.37 2144.3 0 0 0 0 0 0 0 0 0 0 0 0 0 0 0 0 0 0 0 0 0 0 0 0 0 0 0 0 0 0 0 0 0 0 0 0 0 0 0 0 0 0 0 0 0 0 0 0 0 0 0 0 0 0 0 0 0 0 0 0 0 0 0 0 0 0 0 0 0 0 0 0 0 0 0 0 0 0 0 1826.92 2149.96 2226.07 2667.38 2685.53 2834.62 2995.5 3148.28 3169.21 3383.71 3128.79 3163.12 3032.21 0 0 2925.11 2759.06 2899.08 2612.64 0 2633.1 0 2713.02 0 2827.17 3043.43 2580.85 2685.92 2784.93 2931.6 3111.73 3041.22 2922.76 2741.43 2642.39 2663.36 2549.71 2397.73 0 0 0 1084.56 0 0 0 0 0 0 0 0 0 0 0 0 0 0 0 0 0 0 0 0 0 0 0 0 0 0 0 0 0 0 0 0 0 0 0 0 3111.49 3038.25 3254.6 3304.47 3199.61 3183.46 3368.9 3269.44 3180.81 3114.44 3134.4 2929.65 2999.14 2996.84 2995.98 3022.48 3056.96 3109.53 3179.3 3210.82 3352.14 3317.6 3380.57 3434.62 3321.61 3368.02 3333.49 3248.49 3252.46 3067.58 2976.16 2890.54 2827.31 2957.23 3040.5 0 3179.78 0 0 0 0 0 0 0 0 0 0 0 0 0 0 0 0 0 0 0 0 0 0 0 0 0 0 0 0 0 0 0 0 0 0 0 0 0 0 0 0 0 0 0 0 0 0 0 0 0 0 0 0 0 0 0 0 0 0 0 0 0 0 0 0 0 0 0 0 0 0 0 0 0 0 0 0 0 0 0 0 0 0 0 0 0 0 0 0 0 0 0 0 0 0 0 0 0 0 0 0 0 0 0 0 0 0 0 0 0 0 0 0 0 0 0 0 0 0 0 0 0 0 0 0 0 0 0 0 0 0 0 0 0 0 0 0 0 0 0 0 0 0 0 0 0 0 0 0 0 0 0 0 0 0 0 0 0 0 0 0 0 0 0 0 0 0 0 0 0 0 0 0 0 0 0 0 0 0 0 0 0 0 0 0 0 0 0 0 0 0 0 0 0 0 0 0 0 0 0 0 0 0 0 0 0 0 0 0 0 0 0 0 0 0 0 0 0 0 0 0 0 0 0 0 0 0 0 0 0
0 0 1797.79 1748.3 1611.45 1021.98 0 0 0 0 0 0 0 0 0 0 0 0 0 0 0 0 0 0 0 0 0 0 0 0 0 0 2328.55 2650.32 2861.06 2915.8 3202.54 3220.06 3453.21 3345.19 4291.3 3389.79 4261.98 4142.03 3397.34 3290.34 4323.93 4298.56 4354.45 3207.01 3187.21 3112.48 3017.32 2990.8 2934.11 2807.3 2836.2 2839.94 2863.84 2874.83 2893.23 3050.4 3101.43 3376.22 3448.31 3471.58 3372.15 3367.88 3266.96 3213.83 3199.61 3204.93 3209.03 3154.97 3159.96 3216.97 3177.19 3819.37 3308.71 3344.65 3391.37 3390 3471.07 3356.9 3258.96 3301.09 3248.11 2724.6 0 0 0 0 0 0 0 0 0 0 0 0 0 0 0 0 0 0 0 0 0 0 0 0 0 0 0 0 0 0 0 0 0 0 0 0 0 0 0 0 0 0 0 0 0 0 0 0 0 0 0 0 0 0 0 0 0 0 0 0 0 0 0 0 0 0 0 0 0 0 0 0 0 0 0 0 0 0 0 0 0 0 0 0 2273.24 2448.93 2656.57 2937.6 2883.53 3061.81 2849.74 0 0 3314 0 0 2578.99 3161.69 2898.27 2462.66 2926.79 2985.59 2934.06 3014.29 3025.1 3173.29 2913.78 3008.12 3164.31 3120.29 3340.66 3219.01 3071.62 3004.35 2919 2976.21 2888.4 2727.04 0 0 1990.54 1876.16 0 0 0 0 0 0 0 0 0 0 0 0 0 0 0 0 0 0 0 0 0 0 0 0 0 0 0 0 0 0 0 0 0 3318.39 3142.5 3073.82 3108.15 3056.46 3177.79 3171.13 3225.38 3312.56 3435.32 3377.17 3279.47 3193.09 3243.84 3148.75 3216.11 3093.37 3032.37 3093.99 3124.18 3193.22 3275.82 3308.25 3379.35 3324.31 3428.3 3478.12 3334.02 3357.5 3347.06 3243.9 3232.28 3124.3 3041.88 2882.84 2844.57 3020.31 3134.87 2856.63 2962.13 0 0 0 0 0 0 0 0 0 0 0 0 0 0 0 0 0 0 0 0 0 0 0 0 0 0 0 0 0 0 0 0 0 0 0 0 0 0 0 0 0 0 0 0 0 0 0 0 0 0 0 0 0 0 0 0 0 0 0 0 0 0 0 0 0 0 0 0 0 0 0 0 0 0 0 0 0 0 0 0 0 0 0 0 0 0 0 0 0 0 0 0 0 0 0 0 0 0 0 0 0 0 0 0 0 0 0 0 0 0 0 0 0 0 0 0 0 0 0 0 0 0 0 0 0 0 0 0 0 0 0 0 0 0 0 0 0 0 0 0 0 0 0 0 0 0 0 0 0 0 0 0 0 0 0 0 0 0 0 0 0 0 0 0 0 0 0 0 0 0 0 0 0 0 0 0 0 0 0 0 0 0 0 0 0 0 0 0 0 0 0 0 0 0 0 0 0 0 0 0 0 0 0 0 0 0 0 0 0 0 0 0 0 0 0 0 0 0 0 0 0 0 0 0 0 0 0 0 0
0 0 1276.64 1200.97 1153.18 0 0 0 0 0 0 0 0 0 0 0 0 0 0 0 0 0 0 0 0 0 0 0 0 0 0 0 2184.68 2558.34 2716.13 2811.49 3223.71 3145.62 3336.94 3228.24 3320.49 3339.53 4121.68 3367.14 4095.32 3264.03 4363.4 4340.15 4382.77 3199.18 3164.43 3139.91 3105.91 3082.57 2983.09 2851.82 2873.06 2891.88 2942.08 2963.86 3015.91 3017.32 3087.16 3512.64 3639.9 3599.61 3511.24 3485.93 3368.83 3328.33 3297.46 3268.49 3235.65 3163.53 3159.19 3182.74 3152.71 3825.3 3269.7 3251.7 3291.18 3257.89 3336.61 3190.42 3102.75 3126.51 2931.8 2530.14 0 0 0 0 0 0 0 0 0 0 0 0 0 0 0 0 0 0 0 0 0 0 0 0 0 0 0 0 0 0 0 0 0 0 0 0 0 0 0 0 0 0 0 0 0 0 0 0 0 0 0 0 0 0 0 0 0 0 0 0 0 0 0 0 0 0 0 0 0 0 0 0 0 0 0 0 0 0 0 0 0 0 0 0 0 0 0 0 0 0 0 0 0 0 0 0 0 3271.54 0 2552.85 2877.2 2756.2 2898.78 2962.39 3027.06 3201.5 2984.47 3134.22 3387.26 3285 3506.91 3274.48 3212.04 3161.63 3125.64 3161.69 3076.52 2795.56 2896.07 0 0 2439.74 0 0 0 0 0 0 0 0 0 0 0 0 0 0 0 0 0 0 0 0 0 0 0 0 0 0 0 0 0 0 0 0 3509.55 3422.15 3213.46 3143.26 3188.73 3148.4 3173.05 3075.62 3166.22 3223.21 3276.66 3259.34 3172.27 3055.84 3104.53 3085.86 3192.49 3088.41 3013.96 3055.9 3094.96 3197.66 3328.6 3338.8 4249.78 4143.57 3361.94 3415.05 3314.39 3339.66 3280.95 3123.19 3112.71 3085.52 3027.99 2822.6 2814.36 3016.56 2998.23 0 0 0 0 0 0 0 0 0 0 0 0 0 0 0 0 0 0 0 0 0 0 0 0 0 0 0 0 0 0 0 0 0 0 0 0 0 0 0 0 0 0 0 0 0 0 0 0 0 0 0 0 0 0 0 0 0 0 0 0 0 0 0 0 0 0 0 0 0 0 0 0 0 0 0 0 0 0 0 0 0 0 0 0 0 0 0 0 0 0 0 0 0 0 0 0 0 0 0 0 0 0 0 0 0 0 0 0 0 0 0 0 0 0 0 0 0 0 0 0 0 0 0 0 0 0 0 0 0 0 0 0 0 0 0 0 0 0 0 0 0 0 0 0 0 0 0 0 0 0 0 0 0 0 0 0 0 0 0 0 0 0 0 0 0 0 0 0 0 0 0 0 0 0 0 0 0 0 0 0 0 0 0 0 0 0 0 0 0 0 0 0 0 0 0 0 0 0 0 0 0 0 0 0 0 0 0 0 0 0 0 0 0 0 0 0 0 0 0 0 0 0 0 0 0 0 0 0 0 0 0
0 0 0 0 0 0 0 0 0 0 0 0 0 0 0 0 0 0 0 0 0 0 0 0 0 0 0 0 0 0 1585.85 1896.24 2207.47 2572.34 2645.72 2715.74 3072.86 3056.07 3146.98 3087.79 3174.67 3225.63 3225.01 4239.9 4251.4 4443.48 4449.85 3220.37 3252.08 3196.99 3143.32 3154.26 3122.38 3087.96 2993.42 2918.39 2898.12 2953.89 2986.28 3024.5 3128.44 3071.45 3073.08 3456.84 3438.42 3514.55 3383.57 3370.39 3303.1 3233.9 3247.36 3215.86 3220.18 3188 3197.9 3225.69 3220 3258.27 3302.19 3305.38 3371.94 3310.86 3417.97 3212.54 3123.72 3137.27 3227 2776.59 0 0 0 0 0 0 0 0 0 0 0 0 0 0 0 0 0 0 0 0 0 0 0 0 0 0 0 0 0 0 0 0 0 0 0 0 0 0 0 0 0 0 0 0 0 0 0 0 0 0 0 0 0 0 0 0 0 0 0 0 0 0 0 0 0 0 0 0 0 0 0 0 0 0 0 0 0 0 0 0 0 0 0 0 0 0 0 0 0 0 0 0 0 0 0 0 0 4193.9 0 3291.05 3255.36 3086.94 3283.65 3340.72 3382.75 4099.23 3203.09 3326.62 3480.65 3368.22 3521.63 3309.42 3245.16 3155.74 3125.06 3136.62 3024.83 2790.82 3005.91 0 2780.04 0 0 0 0 0 0 0 0 0 0 0 0 0 0 0 0 0 0 0 0 0 0 0 0 0 0 0 0 0 0 0 2541.6 2940.95 3251.95 3355.83 3234.52 3212.54 3198.63 3126.28 3299.14 3266.51 3298.23 3265.31 3251.64 3220.18 3116.18 3004.41 3106.77 3027.78 3127.91 3023.74 2998.07 3051.4 3143.62 3235.21 3383.3 3408.8 4324.26 4242.8 3440.47 3476.75 3370.39 3352.74 3320.76 3187.21 3143.74 3157.76 3119.25 2930.57 2975.84 3206.89 3157.64 2823.98 2799.62 2184.02 0 0 0 0 0 0 0 0 0 0 0 0 0 0 0 0 0 0 0 0 0 0 0 0 0 0 0 0 0 0 0 0 0 0 0 0 0 0 0 0 0 0 0 0 0 0 0 0 0 0 0 0 0 0 0 0 0 0 0 0 0 0 0 0 0 0 0 0 0 0 0 0 0 0 0 0 0 0 0 0 0 0 0 0 0 0 0 0 0 0 0 0 0 0 0 0 0 0 0 0 0 0 0 0 0 0 0 0 0 0 0 0 0 0 0 0 0 0 0 0 0 0 0 0 0 0 0 0 0 0 0 0 0 0 0 0 0 0 0 0 0 0 0 0 0 0 0 0 0 0 0 0 0 0 0 0 0 0 0 0 0 0 0 0 0 0 0 0 0 0 0 0 0 0 0 0 0 0 0 0 0 0 0 0 0 0 0 0 0 0 0 0 0 0 0 0 0 0 0 0 0 0 0 0 0 0 0 0 0 0 0 0 0 0 0 0 0 0 0 0 0 0 0 0 0 0 0 0
0 0 0 0 0 0 0 0 0 0 0 0 0 0 0 0 0 0 0 0 0 0 0 0 0 0 0 0 0 1901.83 2154.71 2422.34 2635.99 2844.13 2782.25 2628.73 3002.36 2968.11 2998.93 2955.09 3095.99 3163.29 3141.56 3249.31 3348.26 3232.16 4507.35 3189.82 4411 3119.19 3088.02 3111.26 3041.61 2981.4 2914.89 2888.25 3000.86 3103.67 3166.7 3161.92 3348.86 3365.38 3394.53 3660.07 3476.68 3477.04 3318.06 3388.15 3301.54 3200.77 3221.3 3199.12 3165.56 3138.33 3154.26 3245.35 3158.06 3209.83 3273.91 3262.38 3263.46 3214.57 3408.25 3088.13 2767.02 2713.06 0 0 0 0 0 0 0 0 0 0 0 0 0 0 0 0 0 0 0 0 0 0 0 0 0 0 0 0 0 0 0 0 0 0 0 0 0 0 0 0 0 0 0 0 0 0 0 0 0 0 0 0 0 0 0 0 0 0 0 0 0 0 0 0 0 0 0 0 0 0 0 0 0 0 0 0 0 0 0 0 0 0 0 0 0 0 0 0 0 0 0 0 0 0 0 0 0 0 0 0 0 3250.88 3107.35 2991.55 3075.51 3205.91 3311.38 3287.12 3138.03 3280.05 3433.5 3429.43 3558.16 3343.59 3340.33 3310.14 3322.33 3308.9 3280.76 3112.07 3246.92 3079.12 0 0 0 0 0 0 0 0 0 0 0 0 0 0 0 0 0 0 0 0 0 0 0 0 0 0 0 0 0 0 0 0 2698.66 2880.02 3172.21 3370.93 3250.44 3167.24 3110.8 3079.51 3191.33 3135.8 3189.27 3164.31 3086.54 3069.88 3074.94 3007.53 3077.31 3046.8 3140.26 3063.82 3030.67 3050.46 3154.67 3212.6 3359.05 3420.83 4464.88 3329.45 3437.58 3503.98 3482.31 3438.91 3444 3326.75 3262.51 3280.82 3239.14 2981.77 2942.81 3096.28 3114.27 2712.23 2799.9 0 0 0 0 0 0 0 0 0 0 0 0 0 0 0 0 0 0 0 0 0 0 0 0 0 0 0 0 0 0 0 0 0 0 0 0 0 0 0 0 0 0 0 0 0 0 0 0 0 0 0 0 0 0 0 0 0 0 0 0 0 0 0 0 0 0 0 0 0 0 0 0 0 0 0 0 0 0 0 0 0 0 0 0 0 0 0 0 0 0 0 0 0 0 0 0 0 0 0 0 0 0 0 0 0 0 0 0 0 0 0 0 0 0 0 0 0 0 0 0 0 0 0 0 0 0 0 0 0 0 0 0 0 0 0 0 0 0 0 0 0 0 0 0 0 0 0 0 0 0 0 0 0 0 0 0 0 0 0 0 0 0 0 0 0 0 0 0 0 0 0 0 0 0 0 0 0 0 0 0 0 0 0 0 0 0 0 0 0 0 0 0 0 0 0 0 0 0 0 0 0 0 0 0 0 0 0 0 0 0 0 0 0 0 0 0 0 0 0 0 0 0 0 0 0 0 0 0 0
0 0 0 0 0 0 0 0 0 0 0 0 0 0 0 0 0 0 0 0 0 0 0 0 0 0 0 0 0 0 2146.36 2433.48 2629.59 2938.17 2713.5 2774.3 3048.68 2934.21 3034.95 2952.33 3117.86 3193.4 3166.64 3278 4345.2 3222.16 3247.61 3167.65 4438.19 3116.93 3075.05 3069.09 2986.07 2973.89 2917.58 3013.31 3167 3226.13 3263.27 3259.79 3462.41 3478.05 3467.13 3688.88 3375.61 3244.03 3184.19 3344.39 3257 3138.8 3244.84 3202.05 3196.14 3173.35 3187.7 3216.91 3138.09 3221.54 3335.08 3185.27 3179.48 3051.12 3216.79 2944.25 2655.6 0 0 0 0 0 0 0 0 0 0 0 0 0 0 0 0 0 0 0 0 0 0 0 0 0 0 0 0 0 0 0 0 0 0 0 0 0 0 0 0 0 0 0 0 0 0 0 0 0 0 0 0 0 0 0 0 0 0 0 0 0 0 0 0 0 0 0 0 0 0 0 0 0 0 0 0 0 0 0 0 0 0 0 0 0 0 0 0 0 0 0 0 0 0 0 0 0 0 0 0 0 0 3341.19 3305.51 3150.82 3350.93 3347.72 3402.44 4048.09 3188 3942.79 3354.75 3367.07 3512.49 3328.93 3337.47 3312.69 3358.51 3348.86 3356.56 3250.75 3311.38 3077.37 3281.72 0 0 0 0 0 0 0 0 0 0 0 0 0 0 0 0 0 0 0 0 0 0 0 0 0 0 0 0 0 0 2344.49 2773.88 2869.72 3119.19 3272.25 3186.73 3243.34 3251.38 3191.7 3217.84 3151.47 3242.52 3204.62 3182.07 3156.75 3082.06 2949.43 2967.42 2996.2 3039.57 2995.18 3009.85 3017.86 3109.82 3182.31 3372.89 3452.57 3405.13 3384.32 3467.49 3476.61 3450.94 3414.21 3428.86 3319.18 3280.56 3279.22 3242.15 2966.06 2984.53 3091.09 3188.06 2812.95 2797.75 0 0 0 0 0 0 0 0 0 0 0 0 0 0 0 0 0 0 0 0 0 0 0 0 0 0 0 0 0 0 0 0 0 0 0 0 0 0 0 0 0 0 0 0 0 0 0 0 0 0 0 0 0 0 0 0 0 0 0 0 0 0 0 0 0 0 0 0 0 0 0 0 0 0 0 0 0 0 0 0 0 0 0 0 0 0 0 0 0 0 0 0 0 0 0 0 0 0 0 0 0 0 0 0 0 0 0 0 0 0 0 0 0 0 0 0 0 0 0 0 0 0 0 0 0 0 0 0 0 0 0 0 0 0 0 0 0 0 0 0 0 0 0 0 0 0 2333.86 2422.83 2470.17 2088.62 2168.83 2329.03 2395.81 0 0 0 0 0 0 0 0 0 0 0 0 0 0 0 0 0 0 0 0 0 0 0 0 0 0 0 0 0 0 0 0 0 0 0 0 0 0 0 0 0 0 0 0 0 0 0 0 0 0 0 0 0 0 0 0 0 0 0 0 0 0 0 0 0 0 0 0 0 0 0 0 0 0 0 0
0 0 0 0 0 0 0 0 0 1437.16 0 1780.81 0 0 0 0 0 0 0 0 0 0 0 0 0 0 0 0 0 1987.38 2715.48 2795.61 2903.34 3278.06 3001.56 3041.44 3344.92 3131.06 3160.02 3027.39 3078.38 3167.36 3163.89 3276.53 3287.44 3195.77 3223.59 3124.59 3156.15 3104.07 3076.3 3061.14 2986.23 2957.54 2908.17 2967.53 3132.23 3149.58 3260.23 3220.8 3374.32 3347.86 3472.8 3647.74 3505.23 3387.67 3292.15 3432.58 3351.47 3238.27 3266.64 3153.01 3170.17 3095.71 3100.57 3147.51 2958.27 3031.11 3087.79 2998.18 2931.44 2666.83 2682.82 2373.54 2159.29 0 0 0 0 0 0 0 0 0 0 0 0 0 0 0 0 0 0 0 0 0 0 0 0 0 0 0 0 0 0 0 0 0 0 0 0 0 0 0 0 0 0 0 0 0 0 0 0 0 0 0 0 0 0 0 0 0 0 0 0 0 0 0 0 0 0 0 0 0 0 0 0 0 0 0 0 0 0 0 0 0 0 0 0 0 0 0 0 0 0 0 0 0 0 0 0 0 0 0 0 4038.54 3729.14 3244.34 3200.34 3099.77 3325.56 3369.78 3485.57 3493.33 3348.12 3389.45 3383.5 3463.55 3647.02 3480 3489.05 3405.76 3391.16 3370.39 3400.3 3405.69 3431.95 3198.51 3320.62 2792.81 2903.54 1917.76 0 1453.88 0 0 0 0 0 0 0 0 0 0 0 0 0 0 0 0 0 0 0 0 0 0 0 0 1988.75 2449.18 2873.9 2989.47 3222.16 3359.45 3245.1 3321.08 3374.18 3300.44 3335.08 3269 3359.66 3299.53 3303.49 3329.45 3233.4 3123.25 3151.65 3158 3158.41 3107.92 3143.91 3116.41 3204.44 3232.34 4776.02 3507.13 3404.93 3419.08 4257.87 3451.86 3416.85 3349.26 3357.1 3220.43 3119.54 3203.15 3153.19 2924.8 3010.01 3272.89 3402.23 3272.06 3076.07 0 0 0 0 0 0 0 0 0 0 0 0 0 0 0 0 0 0 0 0 0 0 0 0 0 0 0 0 0 0 0 0 0 0 0 0 0 0 0 0 0 0 0 0 0 0 0 0 0 0 0 0 0 0 0 0 0 0 0 0 0 0 0 0 0 0 0 0 0 0 0 0 0 0 0 0 0 0 0 0 0 0 0 0 0 0 0 0 0 0 0 0 0 0 0 0 0 0 0 0 0 0 0 0 0 0 0 0 0 0 0 0 0 0 0 0 0 0 0 0 0 0 0 0 0 0 0 0 0 0 0 0 0 0 0 0 0 0 0 0 0 0 1879.88 1939.51 2017.54 2034.72 2057.35 2163.83 2193.01 1971.37 2133.26 2317.13 2455.45 2450.68 2451.18 0 0 0 0 0 0 0 0 0 0 0 0 0 0 0 0 0 0 0 0 0 0 0 0 0 0 0 0 0 0 0 0 0 0 0 0 0 0 0 0 0 0 0 0 0 0 0 0 0 0 0 0 0 0 0 0 0 0 0 0 0 0 0 0 0 0 0 0 0 0 0 0 0 0
0 0 0 0 0 0 0 0 0 2180.73 2302.53 2360.29 0 2247.33 0 0 0 0 0 0 0 0 0 0 0 0 0 0 0 2143.81 2731.92 2819.33 2958.74 3249.18 2918.59 2969.16 3198.76 2929.6 3033.19 2850.51 2949.32 3012.82 3013.47 3142.79 3153.37 3115.66 3143.97 3021.67 3073.25 3029.91 3033.3 3035.83 2977.38 2957.54 2887.25 2966.64 3144.03 3119.01 3187.03 3138.91 3235.65 3272.57 3422.92 3613.56 3477.69 3338.73 3333.16 3430.13 3260.04 3152.71 3144.68 2977.75 2957.38 2923.37 3018.3 3089.49 2977.69 3166.46 3254.6 3139.62 3084.44 2963.39 3131.53 2584.99 2286.75 0 0 1881.67 0 0 0 0 0 0 0 0 0 0 0 0 0 0 0 2333.63 0 0 0 0 0 0 0 0 0 0 0 0 0 0 0 0 0 0 0 0 0 0 0 0 0 0 0 0 0 0 0 0 0 0 0 0 0 0 0 0 0 0 0 0 0 0 0 0 0 0 0 0 0 0 0 0 0 0 0 0 0 0 0 0 0 0 0 0 0 0 0 0 0 0 0 0 0 0 0 0 2931.75 4375 3925.72 3345.92 3149.4 3165.44 3368.76 3332.3 3455.42 3529.41 3349.13 3353.28 3362.42 3474.59 3598.6 3451.72 3487.81 3370.32 3316.36 3342.39 3430.76 3472.22 3473.3 3233.03 3334.81 2954.41 0 0 0 0 0 0 0 0 0 0 0 0 0 0 0 0 0 0 0 0 0 0 0 0 0 0 0 0 2271.95 2572.3 3036.82 3185.64 3314.46 3453.92 3326.15 3326.81 3416.58 3380.1 3346.99 3315.44 3364.3 3284.61 3246.04 3302.58 3311.58 3188.3 3189.45 3247.86 3213.77 3138.5 3208.3 3186.06 3236.27 3195.04 3365.99 3458.27 3335.74 3368.36 3475.1 3463.33 3431.04 3385.14 3422.64 3251.57 3199.85 3359.45 3251.45 2953.43 2977.38 3046.85 2875.52 2563.3 2707.33 0 0 0 0 0 0 0 0 0 0 0 0 0 0 0 0 0 0 0 0 0 0 0 0 0 0 0 0 0 0 0 0 0 0 0 0 0 0 0 0 0 0 0 0 0 0 0 0 0 0 0 0 0 0 0 0 0 0 0 0 0 0 0 0 0 0 0 0 0 0 0 0 0 0 0 0 0 0 0 0 0 0 0 0 0 0 0 0 0 0 0 0 0 0 0 0 0 0 0 0 0 0 0 0 0 0 0 0 0 0 0 0 0 0 0 0 0 0 0 0 0 0 0 0 0 0 0 0 0 0 0 0 0 0 0 0 0 0 0 0 0 0 2098 2143.29 2115.11 2152.61 2100.89 2125.72 2267.8 2060.1 2175.78 2456.71 2535.18 2617.94 2467.59 2864.63 2862.72 2663.19 0 0 0 2174.06 0 0 0 0 0 0 0 0 0 0 0 0 0 0 0 0 0 0 0 0 0 0 0 0 0 0 0 0 0 0 0 0 0 0 0 0 0 0 0 0 0 0 0 0 0 0 0 0 0 0 0 0 0 0 0 0 0 0 0 0 0 0 0 0 0 0 0
0 0 0 0 0 0 0 0 2201.24 2297.61 2258.06 2291.81 2486.05 2235.02 2245.49 2393.93 2344.32 2347.24 0 0 0 0 0 0 0 0 0 0 1213.72 1460.35 2326.87 2630.7 2894.22 3380.85 2850.22 3031.82 3136.39 2826.02 2960.98 2823.5 2935.65 2995.82 2950.36 3103.72 3096.51 3096.22 3158.06 3025.59 3040.17 3005.48 3030.07 3035.28 3001.56 3002.47 2939.61 3007.85 3215.06 3259.15 3364.84 3271.74 3398.79 3423.2 3493.84 3613.95 3475.67 3310.27 3153.6 3202.3 3037.26 2984.58 2959.47 2882.54 2910.74 2951.24 2998.5 3193.82 3150.05 3502.23 3595.75 3554.76 3493.4 3536.55 3606.8 0 0 0 0 0 0 0 0 0 0 0 0 0 0 0 0 0 0 0 2986.23 2562.09 2881.05 2978.33 3144.74 3227.8 3492.82 3429.57 3634.15 3633.67 0 0 0 0 0 0 0 0 0 0 0 0 0 0 0 0 0 0 0 0 0 0 0 0 0 0 0 0 0 0 0 0 0 0 0 0 0 0 0 0 0 0 0 0 0 0 0 0 0 0 0 0 0 0 0 0 0 0 0 0 0 0 0 0 0 0 0 0 0 0 0 0 2976.8 3698.39 3661.11 3227.06 3181.53 3162.34 3332.56 3325.69 3394.59 3507.94 3389.38 3362.28 3361.14 3870.3 3579.56 3468.92 3450.44 3375.27 3293.06 3283.97 3372.62 3401.54 3412.27 3129.95 3136.51 2923.22 2863.45 0 0 0 0 0 0 0 0 0 0 0 0 0 0 0 0 0 0 0 0 0 0 0 0 0 0 2000.82 2230.21 2718.78 3174.55 3258.9 3364.37 4776.56 3896 3332.5 3398.86 3375.47 3305.12 3240.9 3294.93 3242.77 3209.46 3319.97 3334.22 3230.66 3207.99 3295.19 3303.17 3214.69 3275.82 3293.18 3293.18 3238.52 3432.44 3560.12 3391.03 3422.78 3560.42 3507.06 3415.46 3358.58 3447.75 3289.83 3200.71 3350.33 3253.21 2946.22 3042.6 3100.17 2747.63 0 0 0 0 0 0 0 0 0 0 0 0 0 0 0 0 0 0 0 0 0 0 0 0 0 0 0 0 0 0 0 0 0 0 0 0 0 0 0 0 0 0 0 0 0 0 0 0 0 0 0 0 0 0 0 0 0 0 0 0 0 0 0 0 0 0 0 0 0 0 0 0 0 0 0 0 0 0 0 0 0 0 0 0 0 0 0 0 0 0 0 0 0 0 0 0 0 0 0 0 0 0 0 0 0 0 0 0 0 0 0 0 0 0 0 0 0 0 0 0 0 0 0 0 0 0 0 0 0 0 0 0 0 0 0 0 0 0 0 0 0 0 0 2558.96 2264.4 2313.1 2339.13 2361.22 2289.9 2347.97 2365.04 2183.54 2309.54 2641.97 2732.32 2786.55 2685.87 3001.51 2887.95 2976 3647.58 0 0 2232.02 0 0 0 0 0 0 0 0 0 0 0 0 0 0 0 0 0 0 0 0 0 0 0 0 0 0 0 0 0 0 0 0 0 0 0 0 0 0 0 0 0 0 0 0 0 0 0 0 0 0 0 0 0 0 0 0 0 0 0 0 0 0 0 0 0 0 0
0 0 0 0 0 0 0 0 2917.88 2713.98 2652.92 2353.76 2656.02 2420.7 2403.15 2330.81 2198.22 2201.53 2242.34 2322.07 2360.89 0 1683.03 0 1398.78 1187.2 1279.73 0 1333.86 1655.08 2422.83 2797.24 3082.51 3633.83 2982.56 3136.16 3166.1 2815.59 2917.73 2714.86 2893.83 2976.11 2894.47 3100 3083.87 3111.84 3178.34 3048.4 3089.72 3063.77 3056.57 3011.85 2975 2975.69 2923.73 2953.27 3123.19 3125.29 3197.17 3197.72 3389.52 3364.71 3439.48 3497.77 3440.18 3393.63 3253.59 3286.03 3085.86 3080.08 3067.86 2945.85 2860.57 2907.21 2792.58 2964.33 2823.17 3171.97 3209.4 3085.06 2930.78 0 0 0 0 0 0 0 0 0 0 0 0 0 0 0 0 0 1995.49 2320.78 2767.07 2970.79 3079.97 2677.86 2836.15 3024.06 3159.01 3172.57 3271.23 3225.94 3198.63 3236.21 3969.28 4071.67 0 0 0 0 0 0 0 0 0 0 0 0 0 0 0 0 0 0 0 0 0 0 0 0 0 0 0 0 0 0 0 0 0 0 0 0 0 0 0 0 0 0 0 0 0 0 0 0 0 0 0 0 0 0 0 0 0 0 0 0 0 0 0 0 0 0 0 0 0 0 2954.78 3434.62 3483.9 3310.21 3154.26 3141.91 3270.14 3274.16 3313.02 3382.28 3355.29 3361.68 3358.92 3907.34 3914.91 3845.73 3786.28 3506.55 3463.41 3437.72 3557.17 3534.25 3454.42 3194.31 3182.25 3070.27 3146.57 2542.21 0 2092.16 0 0 0 0 0 0 0 0 0 0 0 0 0 0 0 0 0 0 0 0 0 0 0 2084.57 2332.85 2661.63 3081.15 3126.8 3168.13 4584.57 3778.09 3215.92 3284.35 3305.45 3223.77 3186.85 3268.8 3265.5 3207.32 3329.39 4049.75 3247.86 3210.69 4309.82 4436.78 3161.57 3220.62 3256.31 3234.21 3168.79 3348.06 3467.92 3336.94 3409.49 3576.89 3529.93 3513.89 3420.96 3514.55 3430.34 3317.93 3506.47 3339.73 3103.32 3082.97 2865.07 2539.64 1935.57 1889.74 0 0 0 0 0 0 0 0 0 0 0 0 0 0 0 0 0 0 0 0 0 0 0 0 0 0 0 0 0 0 0 0 0 0 0 0 0 0 0 0 0 0 0 0 0 0 0 0 0 0 0 0 0 0 0 0 0 0 0 0 0 0 0 0 0 0 0 0 0 0 0 0 0 0 0 0 0 0 0 0 0 0 0 0 0 0 0 0 0 0 0 0 0 0 0 0 0 0 0 0 0 0 0 0 0 0 0 0 0 0 0 0 0 0 0 0 0 0 0 0 0 0 0 0 0 0 0 0 0 0 0 0 0 0 0 0 0 0 2150.9 2250.55 2449.82 2520.64 2399.55 2483.77 2469.15 2545.99 2528.96 2579.38 2530.44 2398.24 2492.03 2740.89 2790.68 2873.95 2836.44 3034.57 3019.98 3259.53 3791.5 0 0 2537.06 0 0 0 0 0 0 0 0 0 0 0 0 0 0 0 0 0 0 0 0 0 0 0 0 0 0 0 0 0 0 0 0 0 0 0 0 0 0 0 0 0 0 0 0 0 0 0 0 0 0 0 0 0 0 0 0 0 0 0 0 0 0 0 0 0 0 0
0 0 0 0 0 0 0 3282.68 3010.39 2941.88 3003.28 2831.56 2876.07 2705.4 2821.6 2859.16 2654.85 2520.37 2579.1 2680.17 2616.18 0 2323.45 0 1653.81 1415.07 1611.73 0 1431.3 1733.01 2217.51 2593.7 2731.39 3319.57 2773.24 2946.27 2926.18 2588.81 2685.61 2664.71 2887.05 2955.14 2941.93 3126.4 3138.15 3138.44 3189.88 3086.71 3085.52 3055.96 3110.17 3053.95 3014.18 2963.91 2958.32 2985.91 3130.3 3122.9 3197.72 3134.1 3300.05 3287.06 3415.67 3451.79 3372.69 3290.54 3242.77 3290.54 3088.24 3026.96 3097.36 2969.95 2813.7 3037.64 2810.5 3016.02 2998.55 3262.13 3323.32 0 0 0 0 0 0 0 0 0 0 0 0 0 0 0 0 0 0 0 0 2167.85 2456.28 2751.91 2900.23 2617.49 2821.56 3164.61 3211.25 3261.81 3326.95 3381.8 3346.39 3442.37 4202.94 4216.14 3763.77 3739.94 3880.05 3264.61 0 0 0 0 0 0 0 0 0 0 0 0 0 0 0 0 0 0 0 0 0 0 0 0 0 0 0 0 0 0 0 0 0 0 0 0 0 0 0 0 0 0 0 0 0 0 0 0 0 0 0 0 0 0 0 0 0 0 0 0 0 0 0 0 0 0 2471.77 2923.58 3094.79 3177.67 2973.47 2998.72 3105.28 3122.73 3235.15 3330.31 3348.19 3275.44 3290.92 3838.77 3835.35 3481.01 3504.06 3388.42 3369.98 3310.34 3498.94 3411.44 3291.12 3056.23 3062.2 2978.33 3195.41 0 0 1766.9 0 0 0 0 0 0 0 0 0 0 0 0 0 0 0 0 0 0 0 0 0 0 0 2141.57 2338.22 2625.72 2982.67 4423.8 3099.48 3220.62 3159.24 3222.47 3256.05 3281.72 3226.31 3220.74 3268.17 3258.96 3232.84 3367.48 3392.95 4022.47 3991.47 3337.27 3298.43 3170.95 3274.03 3265.56 3221.91 3118.03 3316.88 3410.6 3278.13 3399.41 3538.94 3472.58 3489.05 3338.66 3410.12 3205.6 3092.63 3260.1 3008.88 2847.22 2674.91 2388.31 1891.51 1644.94 1737.44 0 0 0 0 0 0 0 0 0 0 0 0 0 0 0 0 0 0 0 0 0 0 0 0 0 0 0 0 0 0 0 0 0 0 0 0 0 0 0 0 0 0 0 0 0 0 0 0 0 0 0 0 0 0 0 0 0 0 0 0 0 0 0 0 0 0 0 0 0 0 0 0 0 0 0 0 0 0 0 0 0 0 0 0 0 0 0 0 0 0 0 0 0 0 0 0 0 0 0 0 0 0 0 0 0 0 0 0 0 0 0 0 0 0 0 0 0 0 0 0 0 0 0 0 0 0 0 0 0 0 0 0 0 0 0 0 0 1942.72 2151.95 2362.15 2594.38 2668.74 2561.89 2651.24 2650.7 2690.87 2697.92 2859.99 2725.62 2604.85 2692.38 2977.85 2934.57 2989.95 3013.74 3251.57 3114.5 3348.53 3694.97 3517.79 0 2379.3 0 0 0 0 0 0 0 0 0 0 0 0 0 0 0 0 0 0 0 0 0 0 0 0 0 0 0 0 0 0 0 0 0 0 0 0 0 0 0 0 0 0 0 0 0 0 0 0 0 0 0 0 0 0 0 0 0 0 0 0 0 0 0 0 0 0 0
0 0 0 0 3054.56 0 3234.96 3346.59 3058.13 3077.2 3055.29 2872.23 2789.93 2546.96 2531.21 2595.66 2439.56 2366.98 2337.43 2482.48 2445.75 2454.09 2232.85 2152.28 1832.59 1763.94 2023.51 0 0 0 0 0 0 0 3194.13 3426.41 2927.15 2833.95 2876.12 2917.98 2992.08 3054.95 2995.77 4480.14 3112.42 3144.21 3177.85 3065.5 3058.46 3075 3128.73 3054.95 3008.18 2965.69 2967.21 2981.45 3111.03 3102.35 3158.71 3083.87 3244.15 3271.1 3451.93 3432.86 3399.82 3325.96 3211 3159.01 3043.43 2932.57 2925.51 2852.98 2759.42 2899.38 2684.58 3016.24 2983.41 3143.21 3241.65 0 0 2381.19 0 1995.49 0 0 0 0 0 0 0 0 0 0 0 0 0 0 2356.41 2475.38 2585.74 2964.38 3067.86 2880.96 3008.99 3181.71 4497.32 4412.4 3350 3403.34 3354.82 3392.95 4074.84 3991.75 3657.44 3615.74 3737.61 0 0 0 0 0 0 0 0 0 0 0 0 0 0 0 0 0 0 0 0 0 0 0 0 0 0 0 0 0 0 0 0 0 0 0 0 0 0 0 0 0 0 0 0 0 0 0 0 0 0 0 0 0 0 0 0 0 0 0 0 0 0 0 0 0 0 0 2675.17 2888 2972.73 3160.26 2942.6 3035.83 3052.34 3040.39 3153.25 3274.55 3307.99 3211.12 3184.97 3400.3 3468.99 3450.09 3461.98 3366.87 3345.65 3296.61 3524.96 3476.83 3294.03 3037.42 2975.53 2974.47 3137.33 2364.78 1936.82 1674.86 1882.43 1795.7 1928.23 511.739 0 0 0 0 0 0 0 0 0 0 0 0 0 0 0 0 0 0 0 2015.8 2237.35 2460.57 2767.75 2953.43 2989.74 3059.91 3085.74 3184.97 3175.03 3216.42 3192.79 3215.06 3265.18 3267.15 3277.23 3382.07 3402.23 3368.69 3334.75 4267.51 3340.33 3145.92 3269.82 3251.57 3155.62 3034.4 3226 3392.26 3287.64 3499.31 3713.95 3626.45 3642.03 3473.16 3601.77 3517.57 3371 3520.3 3293.51 0 0 0 0 0 0 0 0 0 0 0 0 0 0 0 0 0 0 0 0 0 0 0 0 0 0 0 0 0 0 0 0 0 0 0 0 0 0 0 0 0 0 0 0 0 0 0 0 0 0 0 0 0 0 0 0 0 0 0 0 0 0 0 0 0 0 0 0 0 0 0 0 0 0 0 0 0 0 0 0 0 0 0 0 0 0 0 0 0 0 0 0 0 0 0 0 0 0 0 0 0 0 0 0 0 0 0 0 0 0 0 0 0 0 0 0 0 0 0 0 0 0 0 0 0 0 0 0 0 0 0 0 0 0 0 0 0 0 0 0 0 0 0 2032.48 2241.44 2542.56 2780.27 2909.99 2716.97 2825.26 2847.46 2930.57 2925.82 3101.49 2941.98 2842.78 2860.77 3179.96 3070.33 3163.53 3227.49 3345.72 3204.56 3384.46 3557.32 3366.33 0 2666.07 2457.57 2453.12 2223.12 0 0 0 0 0 0 0 0 0 0 0 0 0 0 0 0 0 0 0 0 0 0 0 0 0 0 0 0 0 0 0 0 0 0 0 0 0 0 0 0 0 0 0 0 0 0 0 0 0 0 0 0 0 0 0 0 0 0 0 0 0 0 0 0
0 0 0 2374.11 2666.49 2726.64 2847.95 3045.31 2861.89 2945.39 3009.26 2828.69 2815.5 2674.44 2725.44 2818.38 2717.37 2654.13 2583.87 2589.05 2608.33 2607.32 2518.82 2383.19 1977.22 1836.32 1994.87 2129.93 0 0 0 0 0 0 3927.65 4059.16 3284.35 3098.17 3046.58 3003.22 3041.06 3018.08 2961.66 3073.36 3022.21 3103.04 3119.13 2997.32 2998.61 3000.49 3100.11 3024.06 2963.81 2914.64 2935.7 2937.14 3141.5 3144.97 3226.25 3111.96 3225.38 3341.19 3581.24 3477.19 3530.3 3349.66 3221.05 3185.27 3012.72 3106.08 3016.72 2904.04 2657.2 2717.63 2329.32 2581.17 2367.92 2462.33 2239.44 0 0 0 0 0 0 0 0 0 0 0 0 0 0 0 0 0 0 0 2422.45 2510.68 2622.85 2796.86 2893.03 2823.36 2875.87 2992.89 3144.27 3161.8 3154.55 3211.12 3288.34 3358.71 3519.94 3550.02 3563.97 3554.61 3663.51 3718.64 0 0 0 0 0 0 0 0 0 0 0 0 0 0 0 0 0 0 0 0 0 0 0 0 0 0 0 0 0 0 0 0 0 0 0 0 0 0 0 0 0 0 0 0 0 0 0 0 0 0 0 0 0 0 0 0 0 0 0 0 0 0 0 0 0 0 2890.34 2828.79 2854.73 3007.85 2946.63 3063.49 3062.99 3020.2 3136.45 3234.96 3325.43 3179 3184.31 3430.76 3467.56 3489.34 3497.7 3406.79 3383.44 3312.23 3623.63 3574.68 3325.1 3044.09 2912.77 3017.86 3125.58 2549.28 0 0 0 0 0 0 0 0 0 0 0 0 0 0 0 0 0 0 0 0 0 0 0 0 0 0 2465.48 2635.91 2924.34 3087.96 3129.6 3084.21 3106.89 3205.78 3175.63 3206.7 3126.45 3159.19 3222.9 3270.78 3880.95 4046.63 4249.67 3620.34 4407.64 3677.08 4676.57 3287.51 3346.12 3300.64 3136.86 3056.07 3247.67 3344.85 3264.29 3484.84 3747.46 3625.27 3676.43 3521.63 3568.22 3333.09 3273.01 3350.06 2976.48 0 0 0 0 0 0 0 0 0 0 0 0 0 0 0 0 0 0 0 0 0 0 0 0 0 0 0 0 0 0 0 0 0 0 0 0 0 0 0 0 0 0 0 0 0 0 0 0 0 0 0 0 0 0 0 0 0 0 0 0 0 0 0 0 0 0 0 0 0 0 0 0 0 0 0 0 0 0 0 0 0 0 0 0 0 0 0 0 0 0 0 0 0 0 0 0 0 0 0 0 0 0 0 0 0 0 0 0 0 0 0 0 0 0 0 0 0 0 0 0 0 0 0 0 0 0 0 0 0 0 0 0 0 0 0 0 0 0 0 0 0 0 0 2218.42 2353.3 2706.63 2802.28 2897.97 2818.76 2943.74 3000.75 3072.91 3115.48 3279.41 3097.99 3066.23 3092.51 3293.7 3179.48 3193.88 3258.46 3321.48 3154.08 3385.28 3487.81 3242.71 2923.27 2656.11 2333.11 2230.42 1910.53 0 0 0 0 0 0 0 0 0 0 0 0 0 0 0 0 0 0 0 0 0 0 0 0 0 0 0 0 0 0 0 0 0 0 0 0 0 0 0 0 0 0 0 0 0 0 0 0 0 0 0 0 0 0 0 0 0 0 0 0 0 0 0 0
0 0 0 2892.13 3020.09 3022.21 2989.1 3229.11 3063.26 3067.91 3053.79 2921.85 2851.14 2754.62 2823.5 2876.95 2778.57 2759.88 2690.48 2704.05 2782.02 2832.56 2797.75 2601.1 2315.43 2194.85 2072.73 2237.5 2159.09 0 0 0 0 4842.18 4490.46 4350.5 3439.97 3159.07 3081.27 3124.47 3104.3 2987.24 2983.25 3000.81 2967.06 3038.85 3060.92 2998.66 2991.18 2997.75 3097.65 3007.53 3000 2956.55 2989.21 2957.49 3083.31 3085.74 3196.38 3105.51 3223.34 3332.56 3562.31 3474.45 3594.52 3536.41 3345.39 3119.13 2863.65 2838.36 2649.19 2512.86 2206.37 2396.19 1964.92 2223.06 0 0 0 0 0 0 0 0 0 0 0 0 0 0 0 0 0 0 0 0 0 2361.45 2525.99 2536.91 2635.79 2817.72 2875.82 2891.93 2924.19 3035.72 3177.67 3136.45 3141.5 3212.72 3267.53 3308.64 3402.17 3411.64 3394.32 3467.99 4006.81 3683.78 3429.64 2905.1 2162.43 2093.83 1648.92 0 0 0 0 0 0 0 0 0 0 0 0 0 0 0 0 0 0 0 0 0 0 0 0 0 0 0 0 0 0 0 0 0 0 0 0 0 0 0 0 0 0 0 0 0 0 0 0 0 0 0 0 0 0 0 0 0 0 0 0 2231.66 3001.72 2877.5 2832.47 3014.83 2971.47 3118.15 3173.11 3101.09 3154.73 3271.48 3386.37 3248.05 3263.34 3693.67 3460.55 3468.78 3450.37 3317.93 3290.73 3207.07 3413.73 3289.96 3053.62 2780.64 2568.37 2701.48 2906.86 0 0 0 0 0 0 0 0 0 0 0 0 0 0 0 0 0 0 0 0 0 0 0 0 0 0 0 2711.44 2876.56 2984.69 3135.69 3155.03 3063.04 3039.57 3153.43 3090.57 3134.69 3057.63 3128.73 3202.05 3270.27 3346.72 3455.35 4096.22 4412.51 4399.67 4615.09 4598.39 3203.7 3205.54 3191.45 3007.85 2936.73 3096.62 3088.02 3003.01 3329.98 3607.58 3454.71 3390.41 3244.97 3319.05 3081.78 3112.65 3177.97 2656.57 0 0 0 0 0 0 0 0 0 0 0 0 0 0 0 0 0 0 0 0 0 0 0 0 0 0 0 0 0 0 0 0 0 0 0 0 0 0 0 0 0 0 0 0 0 0 0 0 0 0 0 0 0 0 0 0 0 0 0 0 0 0 0 0 0 0 0 0 0 0 0 0 0 0 0 0 0 0 0 0 0 0 0 0 0 0 0 0 0 0 0 0 0 0 0 0 0 0 0 0 0 0 0 0 0 0 0 0 0 0 0 0 0 0 0 0 0 0 0 0 0 0 0 0 0 0 0 0 0 0 0 0 0 0 0 0 0 0 0 0 0 0 0 2442.58 2420.87 2682.48 2759.15 2797.89 2792.91 3008.88 3043.04 3138.85 3152.42 3255.11 3172.63 3179.48 3236.02 3341.79 3213.46 3234.4 3246.35 3243.9 3253.4 3289.5 3308.45 3128.26 2874.05 2771.91 2410.89 2306.01 0 0 0 0 0 0 0 0 0 0 0 0 0 0 0 0 0 0 0 0 0 0 0 0 0 0 0 0 0 0 0 0 0 0 0 0 0 0 0 0 0 0 0 0 0 0 0 0 0 0 0 0 0 0 0 0 0 0 0 0 0 0 0 0 0
0 0 2732.77 3122.85 3280.44 3276.72 3217.22 3484.12 3350.8 3338.66 3249.05 3174.67 3027.99 2944.41 3005.05 3020.69 2863.55 2839.42 2760.83 2836.39 2879.87 2977.32 2904.45 2708.37 2519.5 2604.08 2429.11 2660.4 2549.82 0 0 0 0 4916.24 5298.14 4956.03 4357.73 3786.53 3273.78 3395.14 3153.07 2915.4 3023.41 4010.74 2947.15 2970 2992.03 2973.21 2968.47 2991.6 3114.67 3020.58 3032.65 3009.2 3030.29 2955.35 3030.73 3037.42 3142.32 3041.61 3147.1 3164.85 3377.71 3298.95 3590.29 3691.07 3477.98 3351.13 3053.29 3156.45 3152.77 2972 0 2438.93 0 2571.71 0 0 0 0 0 0 0 0 0 0 0 0 0 0 0 0 0 0 0 0 0 2567.23 2729.92 2700.7 2662.26 2824.17 2825.22 2858.38 2873.8 2982.62 3090.75 3041.5 2983.57 3093.54 3166.04 3220.55 3278.38 3282.49 3245.28 3290.6 3885.54 3660.79 3492.6 2847.42 2192.16 2249.68 2085.01 0 0 0 0 0 0 0 0 0 0 0 0 0 0 0 0 0 0 0 0 0 0 0 0 0 0 0 0 0 0 0 0 0 0 0 0 0 0 0 0 0 0 0 0 0 0 0 0 0 0 0 0 0 0 0 0 0 0 0 0 2086.41 2769.35 2767.71 2597.11 2736.51 2754.53 2944.04 2918.08 2958.53 3095.19 3211.61 3362.89 3226.69 3260.1 3416.85 3396.86 3424.6 3397.27 3255.3 3225.32 3113.57 3296.81 3164.73 2943.58 2780.13 2620.92 2767.98 2941.05 2485.72 0 0 0 0 0 0 0 0 0 0 0 0 0 0 0 0 0 0 0 0 0 0 0 0 0 0 2750.51 2855.95 3496.9 3195.83 3181.65 3058.02 3087.62 3127.09 3020.09 3035.99 3012.44 3074.04 3113.86 3197.84 3264.35 3339.59 3357.97 4709.92 4454.22 4615.59 5211.58 3238.46 3215.68 3230.23 3058.57 2990.27 3210.08 3081.72 3016.67 3296.1 3652.9 3568.6 3522.37 3270.21 3246.92 2911.05 2906.96 2904.95 2297.43 0 0 0 0 0 0 0 0 0 0 0 0 0 0 0 0 0 0 0 0 0 0 0 0 0 0 0 0 0 0 0 0 0 0 0 0 0 0 0 0 0 0 0 0 0 0 0 0 0 0 0 0 0 0 0 0 0 0 0 0 0 0 0 0 0 0 0 0 0 0 0 0 0 0 0 0 0 0 0 0 0 0 0 0 0 0 0 0 0 0 0 0 0 0 0 0 0 0 0 0 0 0 0 0 0 0 0 0 0 0 0 0 0 0 0 0 0 0 0 0 0 0 0 0 0 0 0 0 0 0 0 0 0 0 0 0 0 0 0 0 0 0 0 2342.85 2392.94 2721.77 2757.7 2764.92 2774.89 3005.54 3020.74 3182.56 3209.96 3268.8 3194.13 3251.95 3326.75 3389.52 3287.64 3343.25 3275.76 3199.67 3200.04 3194.74 3086.65 2927.91 2764.51 2601.74 2272.87 2156.35 0 0 0 0 0 0 0 0 0 0 0 0 0 0 0 0 0 0 0 0 0 0 0 0 0 0 0 0 0 0 0 0 0 0 0 0 0 0 0 0 0 0 0 0 0 0 0 0 0 0 0 0 0 0 0 0 0 0 0 0 0 0 0 0 0
0 0 2678.28 3084.61 3176.71 3271.67 3308.31 3605.1 3474.67 3417.62 3360.93 3261.05 3074.49 3044.31 3028.59 2970 2837.93 2830.75 2680.38 2703.05 2703.27 2784.89 2618.47 2453.12 2482.81 2459.01 2146.14 2292.62 2162.01 2097.16 946.07 751.167 0 4221.23 5631.01 4483.5 3938.71 3373.77 2503.11 3052.73 3217.47 2852.4 2968 4277.08 2967.84 2994.49 3018.9 3089.95 3064.1 3064.66 3185.82 3076.97 3061.25 3032.37 3008.39 2964.96 3023.46 3090.86 3131.24 3092.06 3231.91 3344.19 3518.61 3613.56 3853.06 3922.6 3469.78 3294.09 2849.01 2948.13 3008.45 2890.58 0 0 0 0 0 0 0 0 0 0 0 0 0 0 0 0 0 0 0 0 0 0 2513.42 2911.86 2816.44 2662.52 2903.84 2822.6 2828.26 2993.95 3006.02 3035 3023.19 3109.59 3203.58 3148.81 3134.16 3571.18 3629.98 3639.43 3707.55 3739.94 3820.33 3796.99 4105.75 4168.27 3507.06 3071.4 2573.64 0 0 0 0 0 0 0 0 0 0 0 0 0 0 0 0 0 0 0 0 0 0 0 0 0 0 0 0 0 0 0 0 0 0 0 0 0 0 0 0 0 0 0 0 0 0 0 0 0 0 0 0 0 0 0 0 0 0 0 0 0 0 2156.32 3021.94 2822.89 2530.14 2761.46 2852.6 3044.42 3068.53 3078.38 3182.68 3224.33 3427.81 3332.89 3440.89 3836.23 3438.42 3439.48 3413.52 3312.82 3319.51 3206.52 3363.36 3114.44 2947.72 2815.5 2630.21 2808.05 2802.38 0 0 0 0 0 0 0 0 0 0 0 0 0 0 0 0 0 0 0 0 0 0 0 0 0 0 0 0 0 3415.67 3102.46 3095.14 2943.12 3007.1 3017.75 2909.48 2933.44 2878.34 2920.57 2970.42 3081.04 3121.45 3173.35 3210.94 3278.06 4250.1 4534.76 4614.83 3109.02 3071.23 3156.45 3048.68 2981.29 3216.42 3143.32 3092.74 3227.24 3628.72 3673.53 3607.5 3244.84 3308.64 2975.58 3031.5 2998.18 2443.51 0 0 0 0 0 0 0 0 0 0 0 0 0 0 0 0 0 0 0 0 0 0 0 0 0 0 0 0 0 0 0 0 0 0 0 0 0 0 0 0 0 0 0 0 0 0 0 0 0 0 0 0 0 0 0 0 0 0 0 0 0 0 0 0 0 0 0 0 0 0 0 0 0 0 0 0 0 0 0 0 0 0 0 0 0 0 0 0 0 0 0 0 0 0 0 0 0 0 0 0 0 0 0 0 0 0 0 0 0 0 0 0 0 0 0 0 0 0 0 0 0 0 0 0 0 0 0 0 0 0 0 0 0 0 0 0 0 0 0 0 0 0 2060.33 2451.54 2451.43 2749.43 2888.35 2899.18 2970.94 3126.16 3129.6 3247.11 3292.47 3288.41 3214.26 3227.43 3268.55 3283.39 3217.9 3228.3 3193.4 3088.13 3133.46 3107.52 3021.56 2923.88 2705.01 2548.51 2354 0 0 0 0 0 0 0 0 0 0 0 0 0 0 0 0 0 0 0 0 0 0 0 0 0 0 0 0 0 0 0 0 0 0 0 0 0 0 0 0 0 0 0 0 0 0 0 0 0 0 0 0 0 0 0 0 0 0 0 0 0 0 0 0 0 0
0 0 2875.97 3164.13 3117.39 3189.51 3259.91 3452.43 3365.79 3314.92 4211.06 3197.05 3066.74 3083.59 3067.35 2973.95 2878.44 2938.94 2813.47 2827.6 2843.8 2896.72 2763.83 2611.42 2719.44 2722.44 2264.53 2315.4 2099.94 1880.61 934.404 413.214 0 0 8083.55 0 2341.05 2921.44 1948.06 2685.61 2992.19 2691.99 2890.34 3800.6 4323.04 2953.53 4444.31 3105.16 3050.73 4263.5 3142.38 4286.15 2998.77 2986.97 2997.97 2933.8 3015.1 3153.48 3196.93 3210.82 3513.52 3562.16 3646.47 3737.94 4042.53 4017.17 3326.22 3159.01 2555.38 2694.54 3045.8 0 0 0 0 0 0 0 0 0 0 0 0 0 0 0 0 0 0 0 0 0 0 0 1828.89 2561.43 2779.17 2758.29 2997.38 2888.69 2890.49 3016.13 3004.3 3023.74 2996.68 3055.01 3155.44 3106.66 3110.11 3159.66 3187.51 3168.91 3561.93 3196.44 3893.38 3923.24 3722.76 5080.75 4058.18 5124.51 2918.69 2926.53 3197.23 0 0 0 0 0 0 0 0 0 0 0 0 0 0 0 0 0 0 0 0 0 0 0 0 0 0 0 0 0 0 0 0 0 0 0 0 0 0 0 0 0 0 0 0 0 0 0 0 0 0 0 0 0 0 0 0 0 0 0 0 2261.08 3089.66 2776.5 2446.11 2660.95 2847.8 2982.35 3043.21 3042.43 3175.63 3174.19 3472.29 3362.89 3459.55 3869.49 3410.05 3420.06 3386.71 3280.63 3308.25 3146.09 3299.53 3008.72 2778.25 2702.09 2502.7 2642.39 0 0 0 0 0 0 0 0 0 0 0 0 0 0 0 0 0 0 0 0 0 0 0 0 0 0 0 0 0 0 3155.5 3151.12 3136.92 2941.36 2981.34 3036.82 2808.47 2760.87 2741.88 2741.39 2848.19 3003.17 3063.26 3090.57 3085.52 3226.81 4058.47 4377.17 3483.18 3097.36 3032.21 3086.42 3079.8 3002.31 3205.36 3051.4 3090.8 3275.57 3601.77 3568.07 3532.76 3062.43 3290.21 3086.03 0 0 0 0 0 0 0 0 0 0 0 0 0 0 0 0 0 0 0 0 0 0 0 0 0 0 0 0 0 0 0 0 0 0 0 0 0 0 0 0 0 0 0 0 0 0 0 0 0 0 0 0 0 0 0 0 0 0 0 0 0 0 0 0 0 0 0 0 0 0 0 0 0 0 0 0 0 0 0 0 0 0 0 0 0 0 0 0 0 0 0 0 0 0 0 0 0 0 0 0 0 0 0 0 0 0 0 0 0 0 0 0 0 0 0 0 0 0 0 0 0 0 0 0 0 0 0 0 0 0 0 0 0 0 0 0 0 0 0 0 0 0 0 0 0 1553.3 1981.19 2098.76 2649.48 2787.76 2834.48 3001.4 3157.7 3149.28 3329.78 3422.92 3412.34 3308.51 3306.36 3335.01 3263.46 3240.77 3278.9 3214.51 3106.08 3154.08 3022.65 3009.69 2950.57 2815.07 2632.27 2345.67 0 0 0 0 0 0 0 0 0 0 0 0 0 0 0 0 0 0 0 0 0 0 0 0 0 0 0 0 0 0 0 0 0 0 0 0 0 0 0 0 0 0 0 0 0 0 0 0 0 0 0 0 0 0 0 0 0 0 0 0 0 0 0 0 0 0
2658.17 2849.59 2947.87 3295.97 3233.96 3275.57 3309.03 4052.59 4027.49 3944.64 4197.47 3651.47 3155.92 3187.27 3183.28 3149.52 3060.69 3089.72 3008.93 2995.66 3048.46 3085.86 3007.69 2859.21 2913.78 2946.53 2594.58 2652.29 2695.75 2404.57 1055.6 366.706 354.744 0 5046.06 0 0 0 1709.57 2298.18 2837.98 2648.77 3031.66 2960.46 4035.63 4153.42 3002.96 3122.9 3090.23 3064.44 3152.89 2977.69 2992.3 2940.23 2932.88 2933.85 2932.47 3016.45 3048.13 3058.46 3311.32 3289.57 3450.3 3543.28 3667.35 3882.66 3151.71 2742.96 2082.5 1908.36 0 0 0 0 0 0 0 0 0 0 0 0 0 0 0 0 0 0 0 0 0 0 0 0 1449.23 2025.85 2286.16 2426.47 2735.4 2735.13 2790.77 2955.77 3053.84 3077.93 3081.32 3215.37 3261.69 3184.19 3201.14 3515.8 3538.64 3488.03 3482.02 3214.51 3761.24 3783.72 4074.24 4172.83 3365.32 3233.84 3166.52 0 0 0 0 0 0 0 0 0 0 0 0 0 0 0 0 0 0 0 0 0 0 0 0 0 0 0 0 0 0 0 0 0 0 0 0 0 0 0 0 0 0 0 0 0 0 0 0 0 0 0 0 0 0 0 0 0 0 0 0 0 0 2007.84 2987.93 2797.28 2419.93 2488.85 2596.79 2720.14 2816.68 2790.21 3010.82 3014.29 3286.99 3165.74 3365.79 3447.82 3293.06 3304.6 3344.52 3226.75 3267.79 3097.99 3321.08 2957.69 2687.85 2803.13 2712.67 2878.09 0 0 0 0 0 0 0 0 0 0 0 0 0 0 0 0 0 0 0 0 0 0 0 0 0 0 0 0 0 0 3013.15 2967.32 2995.08 2821.94 2915.6 2965.9 2747.4 2696.06 2758.83 2751.14 2819.85 2942.65 2991.55 2947.67 2938.94 3094.34 3219.56 3222.59 3208.24 3008.56 2904.34 2915.4 2990.96 2898.88 3091.2 2784.15 2905.3 3134.22 3373.1 3293.38 3286.41 2758.2 2932.16 0 0 0 0 0 0 0 0 0 0 0 0 0 0 0 0 0 0 0 0 0 0 0 0 0 0 0 0 0 0 0 0 0 0 0 0 0 0 0 0 0 0 0 0 0 0 0 0 0 0 0 0 0 0 0 0 0 0 0 0 0 0 0 0 0 0 0 0 0 0 0 0 0 0 0 0 0 0 0 0 0 0 0 0 0 0 0 0 0 0 0 0 0 0 0 0 0 0 0 0 0 0 0 0 0 0 0 0 0 0 0 0 0 0 0 0 0 0 0 0 0 0 0 0 0 0 0 0 0 0 0 0 0 0 0 0 0 0 0 0 0 0 0 0 0 0 1329.58 1821.15 1990.33 2539.52 2686.95 2757.79 2903.34 3059.35 3043.15 3267.91 3382.14 3373.84 3325.36 3317.08 3330.64 3222.53 3142.68 3217.77 3130.71 3006.29 3024.61 2830.75 2771.09 2779.9 2808.62 2748.89 2415.92 2085.04 0 0 0 0 0 0 0 0 0 0 0 0 0 0 0 0 0 0 0 0 0 0 0 0 0 0 0 0 0 0 0 0 0 0 0 0 0 0 0 0 0 0 0 0 0 0 0 0 0 0 0 0 0 0 0 0 0 0 0 0 0 0 0 0 0
3123.49 3292.54 3089.27 3451.15 3287.06 3257.89 3224.7 3997.27 3994.89 3825.91 3845.9 3243.78 3138.27 3173.11 3170.35 3196.26 3112.65 3142.62 3051.9 3073.31 3078.72 3085.57 3068.08 3019.55 2957.43 2877 2431.86 2409.89 2442.9 2016.53 1064.57 425.629 0 0 0 0 0 1580.94 1434.36 2054.91 2553.94 2452.47 2902.34 2797.33 3061.14 3019.38 2982.78 3181.77 3087.33 3088.53 3199.55 3078.84 3106.37 3034.84 3027.83 3108.67 3122.32 3315.64 3357.57 3363.36 3581.78 3695.87 3851.91 4060.83 3936.5 3921.22 3041.33 2638.81 0 0 0 0 0 0 0 0 0 0 0 0 0 0 0 0 0 0 0 0 0 0 0 0 0 0 1446.67 2227.01 2621.01 2698.96 2914.49 2835.19 2899.13 2980.02 3065.06 3102.63 3112.59 3170.89 3233.59 3188.48 3217.16 3292.09 3310.27 3468.27 3266.7 3242.34 3721.77 3777.67 4075.03 4197.16 3854.91 3310.01 3300.7 0 0 0 0 0 0 0 0 0 0 0 0 0 0 0 0 0 0 0 0 0 0 0 0 0 0 0 0 0 0 0 0 0 0 0 0 0 0 0 0 0 0 0 0 0 0 0 0 0 0 0 0 0 0 0 0 0 0 0 0 0 0 1560.11 2591.33 2616.71 2123.7 2334.38 2661.25 2877.65 2936.16 2863.16 3102.12 3106.89 3307.4 3147.63 3368.02 3350.93 3125.35 3159.66 3180.08 3001.88 3005 2883.23 3128.38 2796.21 2707.37 2905.05 2778.25 2893.53 0 0 0 0 0 0 0 0 0 0 0 0 0 0 0 0 0 0 0 0 0 0 0 0 0 0 0 0 0 0 3010.44 3021.89 3140.56 2852.35 2958.63 3076.86 2860.23 2819.9 2886.66 2835.34 2884.62 2995.56 3085.74 3029.58 2934.62 3093.14 3227.31 3223.28 3248.68 3025.59 2831.8 2837.88 3014.07 3008.29 3299.6 2900.98 2865.55 3141.5 3650.67 3534.99 3217.03 2360.95 0 0 0 0 0 0 0 0 0 0 0 0 0 0 0 0 0 0 0 0 0 0 0 0 0 0 0 0 0 0 0 0 0 0 0 0 0 0 0 0 0 0 0 0 0 0 0 0 0 0 0 0 0 0 0 0 0 0 0 0 0 0 0 0 0 0 0 0 0 0 0 0 0 0 0 0 0 0 0 0 0 0 0 0 0 0 0 0 0 0 0 0 0 0 0 0 0 0 0 0 0 0 0 0 0 0 0 0 0 0 0 0 0 0 0 0 0 0 0 0 0 0 0 0 0 0 0 0 0 0 0 0 0 0 0 0 0 0 0 0 0 0 0 0 0 0 0 1208.41 1818.9 1970.18 2486.6 2660.11 2736.2 2903.19 3036.71 3038.25 3234.83 3345.99 3314.98 3259.91 3232.59 3227.86 3120.46 3037.48 3093.42 2988.62 2890.88 2887.1 2712.53 2636.86 2624.16 2676.57 2699.7 2362.91 2012.2 1966.84 1681.59 1462.5 0 0 0 0 0 0 0 0 0 0 0 0 0 0 0 0 0 0 0 0 0 0 0 0 0 0 0 0 0 0 0 0 0 0 0 0 0 0 0 0 0 0 0 0 0 0 0 0 0 0 0 0 0 0 0 0 0 0 0 0 0 0
2972.26 3310.34 3108.32 3431.6 3284.29 3270.21 3265.81 4203.26 4098.02 3957.11 3826.08 3676.35 3460.91 3157.76 3135.39 3098.74 3072.01 3125 3077.88 3119.65 3144.27 3192.97 3173.17 3171.97 3318.72 3221.23 2687.08 2513.46 2532.24 1757.25 785.376 458.684 0 0 0 0 0 0 0 1871.39 0 2255.09 2785.72 2535.91 2807.58 2821.6 2835.72 3039.9 2967.06 2960.51 3024.12 2889.94 3011.53 2983.73 2929.7 2930.78 2940.59 3156.09 3255.48 3333.69 3605.95 3607.81 3731.13 3829.49 3854.47 3882.75 2491.59 0 0 0 0 0 0 0 0 0 0 0 0 0 0 0 0 0 0 0 0 0 0 0 0 0 0 0 1243.12 1998.99 2745.38 2881.5 3093.65 2999.73 3117.04 3144.8 3229.36 3245.6 3200.71 3194.01 3211.86 3160.2 3199.85 3237.27 3264.1 3211.92 3186.67 3161.8 3655.13 3255.23 4603.18 4796.5 4938.67 3276.98 3405.76 3898.17 0 0 0 0 0 0 0 0 0 0 0 0 0 0 0 0 0 0 0 0 0 0 0 0 0 0 0 0 0 0 0 0 0 0 0 0 0 0 0 0 0 0 0 0 0 0 0 0 0 0 0 0 0 0 0 0 0 0 0 0 0 1348.04 2677.39 2743.54 2139.87 2316.65 2699.83 2933.54 3100.74 2985.48 3225.94 3196.56 3358.65 3284.48 3476.47 3419.85 3147.04 3189.45 3213.89 3036.21 2953.17 2867.27 2944.15 2654.47 2559.86 2848.96 2554.56 0 0 0 0 0 0 0 0 0 0 0 0 0 0 0 0 0 0 0 0 0 0 0 0 0 0 0 0 0 0 0 3049.01 3031.99 3265.31 2978.59 3074.83 3087.16 2832.47 2790.4 2855.46 2804.11 2851.96 2936.11 2963.86 2866.97 2784.93 2983.36 3088.02 3077.76 3144.97 2878.39 2593.14 2618.1 2737.09 2714.82 2785.16 2303.07 2424.72 2507.68 0 0 0 0 0 0 0 0 0 0 0 0 0 0 0 0 0 0 0 0 0 0 0 0 0 0 0 0 0 0 0 0 0 0 0 0 0 0 0 0 0 0 0 0 0 0 0 0 0 0 0 0 0 0 0 0 0 0 0 0 0 0 0 0 0 0 0 0 0 0 0 0 0 0 0 0 0 0 0 0 0 0 0 0 0 0 0 0 0 0 0 0 0 0 0 0 0 0 0 0 0 0 0 0 0 0 0 0 0 0 0 0 0 0 0 0 0 0 0 0 0 0 0 0 0 0 0 0 0 0 0 0 0 0 0 0 0 0 0 0 0 0 0 0 0 0 0 0 0 0 0 1245.31 1798.53 2006.3 2456.1 2635.87 2710.78 2933.85 3036.49 3067.02 3274.03 3381.12 3320.16 3264.1 3214.69 3199.79 3108.44 3057.24 3088.41 2967.21 2814.36 2835.53 2721.82 2647.35 2612.15 2685.66 2646.68 2228.26 1881.39 1655.59 1390.65 1095.21 0 0 0 0 0 0 0 0 0 0 0 0 0 0 0 0 0 0 0 0 0 0 0 0 0 0 0 0 0 0 0 0 0 0 0 0 0 0 0 0 0 0 0 0 0 0 0 0 0 0 0 0 0 0 0 0 0 0 0 0 0 0
0 3395.35 3184.55 3401.68 3193.4 3227 3928.66 4158.56 4075.43 3916.92 3689.93 3561.93 3045.08 3127.04 3125.76 3091.03 3096.22 3121.22 3143.85 3257.19 3275.57 3333.29 3308.77 3230.1 3333.36 3089.84 2587.06 2244.8 2284.97 1562.44 696.064 473.954 0 0 0 0 0 0 0 0 0 0 0 2172.03 2695.58 2661.42 2678.54 2896.52 2822.79 2733.08 2797.61 2724.47 2849.35 2824.84 2800.6 2879.32 2919.35 3167.77 3401.13 3562.46 3864.59 3938.9 3903.8 4124.93 0 0 0 0 0 0 0 0 0 0 0 0 0 0 0 0 0 0 0 0 0 0 0 0 0 0 0 1066.58 1067.15 1274.9 1396.42 2087.79 2639.98 2860.52 3069.71 3065.22 3156.33 3121.39 3189.33 3156.15 3111.03 3176.41 3156.45 3094.91 3119.3 3166.76 3195.41 3161.09 3150.94 3132.41 3569.89 3216.6 4592.22 4771.53 4883.05 3252.2 3332.36 3971.53 0 5071.07 0 0 0 0 0 0 0 0 0 0 0 0 0 0 0 0 0 0 0 0 0 0 0 0 0 0 0 0 0 0 0 0 0 0 0 0 0 0 0 0 0 0 0 0 0 0 0 0 0 0 0 0 0 0 0 0 0 0 0 0 0 0 0 0 2759.69 3152.54 3412.13 3236.77 3476.47 3301.28 3413.52 3346.65 3594.44 3429 3152.66 3180.32 3185.03 2936.68 2878.14 2773.06 2788.08 2496.74 2465.66 2843.65 2428.48 0 0 0 0 0 0 0 0 0 0 0 0 0 0 0 0 0 0 0 0 0 0 0 0 0 0 0 0 0 0 0 3326.55 0 3320.16 3021.83 3083.7 3029.85 2822.55 2708.29 2812.05 2706.89 2741.43 2832.99 2865.26 2732.95 2658.63 2842.4 2968.84 2864.43 2978.86 2866.83 2527.81 2580.93 2775.86 2775.63 2779.81 2279.69 2363.35 2392.46 0 0 0 0 0 0 0 0 0 0 0 0 0 0 0 0 0 0 0 0 0 0 0 0 0 0 0 0 0 0 0 0 0 0 0 0 0 0 0 0 0 0 0 0 0 0 0 0 0 0 0 0 0 0 0 0 0 0 0 0 0 0 0 0 0 0 0 0 0 0 0 0 0 0 0 0 0 0 0 0 0 0 0 0 0 0 0 0 0 0 0 0 0 0 0 0 0 0 0 0 0 0 0 0 0 0 0 0 0 0 0 0 0 0 0 0 0 0 0 0 0 0 0 0 0 0 0 0 0 0 0 0 0 0 0 0 0 0 0 0 0 0 0 0 0 0 0 0 0 0 0 1399.82 1720.42 1931.65 2275 2468.78 2525.99 2789.15 2877.74 3832.9 3733.45 3822.77 3220.68 3202.91 3159.19 3148.22 3068.98 3052.62 3052.73 2926.33 2809.56 2831.03 2684.67 2661.16 2613.74 2677.39 2649.15 2236.22 1840.71 1446.36 1343.67 1034.83 0 0 0 0 0 0 0 0 0 0 0 0 0 0 0 0 0 0 0 0 0 0 0 0 0 0 0 0 0 0 0 0 0 0 0 0 0 0 0 0 0 0 0 0 0 0 0 0 0 0 0 0 0 0 0 0 0 0 0 0 0 0
0 3530.97 3232.47 3364.84 3220.18 3301.02 3328.27 4032.14 3906.16 3880.5 3650.43 3566.1 3101.32 3166.82 3148.51 3118.09 3094.22 3149.87 3155.5 3260.99 3242.27 3271.93 3230.1 3141.73 3283.2 3171.61 2827.36 2635.62 2753.04 2479.07 1441.9 727.35 0 0 0 0 0 0 0 0 0 0 0 1914.08 2519.8 2536.72 2567.3 2844.33 2786.51 2732.46 2762.37 2714.2 2921.74 2966.06 2874.98 2946.73 2954.26 3191.21 3388.9 3649.08 3998.98 3785.17 0 3875.75 0 0 0 0 0 0 0 0 0 0 0 0 0 0 0 0 0 0 0 0 0 0 0 0 0 0 0 1021.05 1061.07 1227.36 1258.95 1793.28 2534.11 2979.33 3159.01 3092.45 3170.29 3177.67 3280.05 3213.03 3188.12 3263.97 3613.41 3131.65 3179.12 3554.08 3479.42 3126.86 3169.51 3116.75 3018.84 3111.73 3289.31 3279.67 3302.26 3303.62 3553.63 3901.07 0 5087.37 0 0 0 0 0 0 0 0 0 0 0 0 0 0 0 0 0 0 0 0 0 0 0 0 0 0 0 0 0 0 0 0 0 0 0 0 0 0 0 0 0 0 0 0 0 0 0 0 0 0 0 0 0 0 0 0 0 0 0 0 0 0 0 0 0 0 3222.22 3109.13 3335.74 3149.46 3232.78 3190.79 3440.04 3193.64 2960.41 2951.19 2985.16 2733.04 2714.77 2668.44 2642.01 2297.39 2366.25 2830.03 0 0 0 0 0 0 0 0 0 0 0 0 0 0 0 0 0 0 0 0 0 0 0 0 0 0 0 0 0 0 0 0 3203.21 0 0 2765.65 2796.17 2743.72 2585.34 2539.21 2619.74 2406.15 2511.62 2578.15 2572.74 2496.56 2436.73 2639.77 2679.82 2521.43 2710.26 2619 2297.74 2387.39 2406.6 2317.8 0 0 0 0 0 0 0 0 0 0 0 0 0 0 0 0 0 0 0 0 0 0 0 0 0 0 0 0 0 0 0 0 0 0 0 0 0 0 0 0 0 0 0 0 0 0 0 0 0 0 0 0 0 0 0 0 0 0 0 0 0 0 0 0 0 0 0 0 0 0 0 0 0 0 0 0 0 0 0 0 0 0 0 0 0 0 0 0 0 0 0 0 0 0 0 0 0 0 0 0 0 0 0 0 0 0 0 0 0 0 0 0 0 0 0 0 0 0 0 0 0 0 0 0 0 0 0 0 0 0 0 0 0 0 0 0 0 0 0 0 0 0 0 0 0 0 0 0 0 0 0 0 0 0 0 0 1715.74 1952.21 2295.82 2528.96 2512.56 2745.11 2817.44 2938.99 3832.72 3835.88 3628.49 3630.69 3608.74 3566.63 3526.96 3033.25 3072.69 2982.35 2877.6 3758.37 2741.48 2713.02 2644.26 2664.21 2637.86 2230.66 1937.11 1607.84 1517.27 1419.23 0 0 0 0 0 0 0 0 0 0 0 0 0 0 0 0 0 0 0 0 0 0 0 0 0 0 0 0 0 0 0 0 0 0 0 0 0 0 0 0 0 0 0 0 0 0 0 0 0 0 0 0 0 0 0 0 0 0 0 0 0 0
0 3165.14 2963.86 3084.44 3015.21 3206.89 3296.23 4066.24 3942.69 3937.23 3164.31 3175.27 3130.54 3199 3161.86 3151.89 3110 3165.92 3197.29 3250.44 3231.1 3313.87 3274.74 3247.48 3234.83 3044.04 2657.75 2354.46 2389.57 2111.94 1419.48 927.55 0 0 0 0 0 0 0 0 0 0 0 1734.69 2469.15 2639.02 2607.08 2863.35 2788.03 2751.5 2740.36 2784.66 2977.06 3037.31 2831.41 2886.16 2965.96 3209.03 3212.48 3408.94 3581.17 0 0 2486.57 0 0 0 0 0 0 0 0 0 0 0 0 0 0 0 0 0 0 0 0 0 0 0 0 0 0 0 1046.9 1059.33 1227.85 1243.02 1675.06 2289.46 3027.23 3198.94 3155.38 3209.03 3207.38 4002.23 3963.46 3292.86 3747.38 3716.83 3631.39 3669.52 3504.13 3221.98 3132.17 3150.76 3096.85 3014.88 3061.64 3209.16 3166.16 3214.45 3155.38 3282.62 0 0 3929.3 0 0 0 0 0 0 0 0 0 0 0 0 0 0 0 0 0 0 0 0 0 0 0 0 0 0 0 0 0 0 0 0 0 0 0 0 0 0 0 0 0 0 0 0 0 0 0 0 0 0 0 0 0 0 0 0 0 0 0 0 0 0 0 0 2380.99 2788.4 2620.39 2573.33 3085.12 2972.58 2994.75 2909.48 3253.53 2954.21 2674.44 2776.55 2832.66 2594.7 2516.29 2565.58 2718.33 2362.25 2476.84 0 0 0 0 0 0 0 0 0 0 0 0 0 0 0 0 0 0 0 0 0 0 0 0 0 0 0 0 0 0 0 0 0 0 0 0 2401.19 2479.66 2462.48 2419.55 2319.44 2474.98 2171.44 2216.63 2230.66 2351.95 2355.88 2292.03 2451.08 2491.7 2386.51 2815.26 2552.66 2333.24 2190.92 2081.03 2017.52 0 0 0 0 0 0 0 0 0 0 0 0 0 0 0 0 0 0 0 0 0 0 0 0 0 0 0 0 0 0 0 0 0 0 0 0 0 0 0 0 0 0 0 0 0 0 0 0 0 0 0 0 0 0 0 0 0 0 0 0 0 0 0 0 0 0 0 0 0 0 0 0 0 0 0 0 0 0 0 0 0 0 0 0 0 0 0 0 0 0 0 0 0 0 0 0 0 0 0 0 0 0 0 0 0 0 0 0 0 0 0 0 0 0 0 0 0 0 0 0 0 0 0 0 0 0 0 0 0 0 0 0 0 0 0 0 0 0 0 0 0 0 0 0 0 0 0 0 0 0 0 0 0 0 0 1267.62 1608.96 1837.37 2292.03 2559.94 2579.26 2796.21 2714.68 3908.62 3902.8 3927.37 3666.07 3694.89 3652.74 3562.69 3480.87 2996.15 3056.07 3001.45 2915.4 2882.19 2731.48 2724.78 2745.06 2759.69 2792.12 2425.14 2220.94 1816.91 1795.91 1718.75 0 0 0 0 0 0 0 0 0 0 0 0 0 0 0 0 0 0 0 0 0 0 0 0 0 0 0 0 0 0 0 0 0 0 0 0 0 0 0 0 0 0 0 0 0 0 0 0 0 0 0 0 0 0 0 0 0 0 0 0 0 0
0 3084.95 2915.25 2975.16 2902.18 3059.8 3124.71 3905.34 3787.64 3877.99 3070.22 3083.65 3585.91 3124.71 3088.92 3110.4 3104.64 3538.87 3726.73 3681.92 4232.09 3283.26 3317.54 3323.98 3305.51 2939.87 2620.02 2359.39 2301.93 1734.92 0 0 0 0 0 0 0 0 0 0 0 0 0 0 2132.88 2135.57 2319.69 2462.55 2323.51 2425.81 2424.97 2579.94 2864.33 2864.87 2755.12 2750.64 3032.32 3457.7 0 0 0 0 0 2430.09 0 0 0 0 0 0 0 0 0 0 0 0 0 0 0 0 0 0 0 0 0 0 0 0 0 0 0 1081.17 1065.79 1182.8 1155.79 1591.23 2223.83 2920.42 3071.23 3013.58 3153.9 3189.82 3436.24 3348.53 3326.48 3376.56 3289.63 3793.21 3825.56 3748.46 3189.82 3076.63 3096.74 3038.36 2941.98 2953.01 3122.03 2948.03 3043.26 3126.63 3361.34 0 0 3494.06 0 0 0 0 0 0 0 0 0 0 0 0 0 0 0 0 0 0 0 0 0 0 0 0 0 0 0 0 0 0 0 0 0 0 0 0 0 0 0 0 0 0 0 0 0 0 0 0 0 0 0 0 0 0 0 0 0 0 0 0 0 0 0 0 0 0 3635.17 3104.24 3440.04 3306.88 3110.34 2864.38 3394.8 3001.24 2590.13 2590.05 2657.29 2355.05 2241.44 2388.85 2582.56 2104.73 0 0 0 0 0 0 0 0 0 0 0 0 0 0 0 0 0 0 0 0 0 0 0 0 0 0 0 0 0 0 0 0 0 0 0 0 0 0 0 2391.24 2446.22 2393.25 2589.53 2333.73 2411.72 2479.55 2460.06 2458.15 2294.16 2467.84 2474.25 2397.83 2799.2 2607.48 2176.63 2333.27 0 0 0 0 0 0 0 0 0 0 0 0 0 0 0 0 0 0 0 0 0 0 0 0 0 0 0 0 0 0 0 0 0 0 0 0 0 0 0 0 0 0 0 0 0 0 0 0 0 0 0 0 0 0 0 0 0 0 0 0 0 0 0 0 0 0 0 0 0 0 0 0 0 0 0 0 0 0 0 0 0 0 0 0 0 0 0 0 0 0 0 0 0 0 0 0 0 0 0 0 0 0 0 0 0 0 0 0 0 0 0 0 0 0 0 0 0 0 0 0 0 0 0 0 0 0 0 0 0 0 0 0 0 0 0 0 0 0 0 0 0 0 0 0 0 0 0 0 0 0 0 0 0 0 0 0 0 0 1597.93 1720.53 2081.06 2287.22 2364.78 2594.38 2518.02 2735.67 2897.77 3615.98 3765.8 3808.54 3747.63 3671.44 3633.52 3513.52 3007.1 2988.73 2908.37 3730.21 2784.01 2814.79 2844.52 2830.41 2934.16 2600.01 2301.9 1896.84 1869.36 1807.15 0 0 0 0 0 0 0 0 0 0 0 0 0 0 0 0 0 0 0 0 0 0 0 0 0 0 0 0 0 0 0 0 0 0 0 0 0 0 0 0 0 0 0 0 0 0 0 0 0 0 0 0 0 0 0 0 0 0 0 0 0 0
0 0 3038.3 3055.68 2945.34 3049.46 3074.32 3969.09 3936.4 3102.23 3705.33 3658.47 3669.92 3089.55 3099.48 3161.45 3136.1 3194.68 3723.09 3708.53 3290.99 3305.9 3962.71 3277.87 3164.61 2941.41 2592.29 2395.91 2253.49 0 0 0 0 0 0 0 0 0 0 0 0 0 0 0 0 0 0 2458.65 2291.84 2352.81 2409.75 2384.47 2749.83 2676.45 2687.64 2613.53 2928.63 3286.8 0 0 0 0 0 0 0 0 0 0 0 0 0 0 0 0 0 0 0 0 0 0 0 0 0 0 0 0 0 0 0 0 0 0 0 1199.06 1153.96 1412.32 2025.61 2860.13 3027.5 2997.7 3141.85 3143.79 3387.4 3341.79 3334.09 3371.88 3265.69 3870.83 3887.88 3712.22 3164.31 3052.4 3031.28 2957.28 2839.18 2813.04 2964.8 2730.5 2778.71 2800.04 3040.73 0 0 0 0 0 0 0 0 0 0 0 0 0 0 0 0 0 0 0 0 0 0 0 0 0 0 0 0 0 0 0 0 0 0 0 0 0 0 0 0 0 0 0 0 0 0 0 0 0 0 0 0 0 0 0 0 0 0 0 0 0 0 0 0 0 0 0 0 0 0 0 0 2989.26 0 0 0 0 2013.16 2079.38 2195.74 2015.51 1779.45 1870.57 1930.78 0 0 0 0 0 0 0 0 0 0 0 0 0 0 0 0 0 0 0 0 0 0 0 0 0 0 0 0 0 0 0 0 0 0 0 0 0 0 0 0 0 0 2234.25 2507.3 2251.82 2374.95 2387.15 2252.4 2288.9 1919.08 2201.27 0 0 0 0 0 0 0 0 0 0 0 0 0 0 0 0 0 0 0 0 0 0 0 0 0 0 0 0 0 0 0 0 0 0 0 0 0 0 0 0 0 0 0 0 0 0 0 0 0 0 0 0 0 0 0 0 0 0 0 0 0 0 0 0 0 0 0 0 0 0 0 0 0 0 0 0 0 0 0 0 0 0 0 0 0 0 0 0 0 0 0 0 0 0 0 0 0 0 0 0 0 0 0 0 0 0 0 0 0 0 0 0 0 0 0 0 0 0 0 0 0 0 0 0 0 0 0 0 0 0 0 0 0 0 0 0 0 0 0 0 0 0 0 0 0 0 0 0 0 0 0 0 0 0 0 0 0 0 0 0 0 0 0 0 1491.88 1569.47 1859.29 1993.31 2104.26 2333.11 2352.81 2641.64 2874.88 4567.1 3934.83 3966.37 3902.62 3835.09 3799.14 3642.35 3078.78 3040.95 2978.86 2957.75 2809.84 2868.69 2797.14 2894.07 2839.8 2063.22 1635.45 1065.67 1249.43 823.144 0 0 0 0 0 0 0 0 0 0 0 0 0 0 0 0 0 0 0 0 0 0 0 0 0 0 0 0 0 0 0 0 0 0 0 0 0 0 0 0 0 0 0 0 0 0 0 0 0 0 0 0 0 0 0 0 0 0 0 0 0 0
0 0 2806.22 2741.16 2805.05 2983.62 3021.12 3933.17 3972.94 4044.58 3029.31 3761.66 3749.55 3635.8 3094.51 3179.42 3126.51 3158.71 3800.34 3845.99 3765.71 4544.58 4033.69 3284.67 3081.49 2864.63 2563.89 2385.46 0 0 0 0 0 0 0 0 0 0 0 0 0 0 0 0 0 1735.39 0 0 1871.32 0 2111.04 2313.97 2636.53 2580.69 2497.04 2304.75 2587.54 2778.25 0 0 0 0 0 0 0 0 0 0 0 0 0 0 0 0 0 0 0 0 0 0 0 0 0 0 0 0 0 0 0 0 0 0 0 0 0 1376.02 1878.99 2640.77 2868.59 2813.75 3067.86 3125.99 3412.2 3390.62 3417.62 4004.42 3886.98 3219.94 3464.76 3923.15 3162.64 3064.1 3025.54 2904.09 2800.97 2785.12 3007.05 2732.1 2761.65 2748.08 0 0 0 0 0 0 0 0 0 0 0 0 0 0 0 0 0 0 0 0 0 0 0 0 0 0 0 0 0 0 0 0 0 0 0 0 0 0 0 0 0 0 0 0 0 0 0 0 0 0 0 0 0 0 0 0 0 0 0 0 0 0 0 0 0 0 0 0 0 0 0 0 0 0 0 0 0 0 1608.82 1714.95 1843.16 1789.36 1610.88 0 0 0 0 0 0 0 0 0 0 0 0 0 0 0 0 0 0 0 0 0 0 0 0 0 0 0 0 0 0 0 0 0 0 0 0 0 0 0 0 0 0 0 0 2332.01 2683.98 2618.92 2531.13 0 0 0 0 0 0 0 0 0 0 0 0 0 0 0 0 0 0 0 0 0 0 0 0 0 0 0 0 0 0 0 0 0 0 0 0 0 0 0 0 0 0 0 0 0 0 0 0 0 0 0 0 0 0 0 0 0 0 0 0 0 0 0 0 0 0 0 0 0 0 0 0 0 0 0 0 0 0 0 0 0 0 0 0 0 0 0 0 0 0 0 0 0 0 0 0 0 0 0 0 0 0 0 0 0 0 0 0 0 0 0 0 0 0 0 0 0 0 0 0 0 0 0 0 0 0 0 0 0 0 0 0 0 0 0 0 0 0 0 0 0 0 0 0 0 0 0 0 0 0 0 0 0 0 0 0 0 0 0 0 0 0 0 0 0 0 0 0 0 1688.21 1690.66 1872.58 1905.89 1977.62 2173.64 2235.71 2587.66 2693.94 2889.54 2995.77 3926.18 3871.55 3823.03 3797.16 2996.57 2973.79 2994.17 2925.62 2857.26 2804.95 2802.24 2592.61 2643.35 2604.89 2082.42 1825.25 1412.34 1546.07 1048.28 0 0 0 0 0 0 0 0 0 0 0 0 0 0 0 0 0 0 0 0 0 0 0 0 0 0 0 0 0 0 0 0 0 0 0 0 0 0 0 0 0 0 0 0 0 0 0 0 0 0 0 0 0 0 0 0 0 0 0 0 0 0
0 0 2525.23 2443.44 2479.33 2712.27 2762.83 2976.21 2919.81 2968 2847.71 3000.06 3715.92 3006.4 2999.2 3085.01 3797.16 3768.5 3904.61 3929.49 3860.5 4617.5 3959.25 3192.85 3017.1 2768.53 2349.97 0 0 0 0 0 0 0 0 0 0 0 0 0 0 0 0 0 0 0 0 0 0 0 0 0 0 0 2093.65 1768.09 2101.54 2184.62 0 0 0 0 0 0 0 0 0 0 0 0 0 0 0 0 0 0 0 0 0 0 0 0 0 0 0 0 0 0 0 0 0 0 0 0 0 1760.74 2417.87 3043.37 3103.67 2972.42 3170.89 3198.82 3377.51 3356.16 3314.46 3285.9 3217.34 3747.13 3360.33 3990.9 3125.76 3003.28 2975.53 2913.73 2858.62 2802.56 2984.37 2708.55 2722.53 2548.9 2860.57 0 0 0 0 0 0 0 0 0 0 0 0 0 0 0 0 0 0 0 0 0 0 0 0 0 0 0 0 0 0 0 0 0 0 0 0 0 0 0 0 0 0 0 0 0 0 0 0 0 0 0 0 0 0 0 0 0 0 0 0 0 0 0 0 0 0 0 0 0 0 0 0 0 0 0 0 0 0 1720.92 0 0 0 0 0 0 0 0 0 0 0 0 0 0 0 0 0 0 0 0 0 0 0 0 0 0 0 0 0 0 0 0 0 0 0 0 0 0 0 0 0 0 0 0 0 0 0 0 0 0 2312.66 0 2487.01 2628.27 0 0 0 0 0 0 0 0 0 0 0 0 0 0 0 0 0 0 0 0 0 0 0 0 0 0 0 0 0 0 0 0 0 0 0 0 0 0 0 0 0 0 0 0 0 0 0 0 0 0 0 0 0 0 0 0 0 0 0 0 0 0 0 0 0 0 0 0 0 0 0 0 0 0 0 0 0 0 0 0 0 0 0 0 0 0 0 0 0 0 0 0 0 0 0 0 0 0 0 0 0 0 0 0 0 0 0 0 0 0 0 0 0 0 0 0 0 0 0 0 0 0 0 0 0 0 0 0 0 0 0 0 0 0 0 0 0 0 0 0 0 0 0 0 0 0 0 0 0 0 0 0 0 0 0 0 0 0 0 0 0 0 0 0 0 0 0 0 1862.39 1946.62 2013.62 2224.86 2342.33 2726.29 2756.11 4739.86 3084.72 3026.85 2962.39 2959.73 2998.23 3017.05 2932.11 2961.92 2857.21 2684.84 2662.09 2724.6 2335.45 2089.82 1893.65 0 0 0 0 0 0 0 0 0 0 0 0 0 0 0 0 0 0 0 0 0 0 0 0 0 0 0 0 0 0 0 0 0 0 0 0 0 0 0 0 0 0 0 0 0 0 0 0 0 0 0 0 0 0 0 0 0 0 0 0 0 0 0 0 0 0 0
0 0 2214.08 2046.91 2089.17 2453.94 2645.39 2878.04 2842.64 4643.31 2853.08 2979.33 2964.75 3757.19 3670.88 3708.86 3863.17 3886.26 3946.03 3936.4 3788.24 4716.67 3419.22 3223.52 3026.14 2862.82 2340.47 2155.1 0 0 0 0 0 0 0 0 0 0 0 0 0 0 0 0 0 0 0 0 0 0 0 0 0 1541.71 1614.69 1300.82 1518.17 1520.5 0 0 0 0 0 0 0 0 0 0 0 0 0 0 0 0 0 0 0 0 0 0 0 0 0 0 0 0 0 0 0 0 0 0 0 0 0 0 0 2760.42 3003.6 2848.62 3056.23 3132.23 3449.59 3426.34 3388.36 3397.07 3282.1 3182.5 4204.1 4012.08 3094.28 2916.16 2883.03 2817.53 2739.28 2656.32 2881.75 2532.05 2640.68 2432.53 2783.5 0 0 0 0 0 0 0 0 0 0 0 0 0 0 0 0 0 0 0 0 0 0 0 0 0 0 0 0 0 0 0 0 0 0 0 0 0 0 0 0 0 0 0 0 0 0 0 0 0 0 0 0 0 0 0 0 0 0 0 0 0 0 0 0 0 0 0 0 0 0 0 0 0 0 0 0 0 0 0 0 0 0 0 0 0 0 0 0 0 0 0 0 0 0 0 0 0 0 0 0 0 0 0 0 0 0 0 0 0 0 0 0 0 0 0 0 0 0 0 0 0 0 0 0 0 0 0 0 0 0 0 0 0 0 0 0 0 0 0 0 0 0 0 0 0 0 0 0 0 0 0 0 0 0 0 0 0 0 0 0 0 0 0 0 0 0 0 0 0 0 0 0 0 0 0 0 0 0 0 0 0 0 0 0 0 0 0 0 0 0 0 0 0 0 0 0 0 0 0 0 0 0 0 0 0 0 0 0 0 0 0 0 0 0 0 0 0 0 0 0 0 0 0 0 0 0 0 0 0 0 0 0 0 0 0 0 0 0 0 0 0 0 0 0 0 0 0 0 0 0 0 0 0 0 0 0 0 0 0 0 0 0 0 0 0 0 0 0 0 0 0 0 0 0 0 0 0 0 0 0 0 0 0 0 0 0 0 0 0 0 0 0 0 0 0 0 0 0 0 1574.48 1633.08 1903.68 2004.29 2089.17 2181.24 2302.06 2635.54 2757.56 4904.17 4899.02 3025.86 2976.69 3009.64 3112.01 3156.75 3053.84 3113.11 2958.79 2803.45 2832.42 2959.62 2495.96 0 0 0 0 0 0 0 0 0 0 0 0 0 0 0 0 0 0 0 0 0 0 0 0 0 0 0 0 0 0 0 0 0 0 0 0 0 0 0 0 0 0 0 0 0 0 0 0 0 0 0 0 0 0 0 0 0 0 0 0 0 0 0 0 0 0 0 0 0
0 0 2370.36 2180.13 2302.94 2581.84 2662.09 2846.84 2758.2 4689.51 2757.61 2906.76 2865.21 2852.74 2861.55 2989.69 3817.46 3769.86 3737.86 3767.4 2993.69 4687.03 3257.13 3034.9 2698.4 2586.86 2087.32 2034.82 0 0 0 0 0 0 0 0 0 0 0 0 0 0 0 0 0 0 0 0 0 0 0 0 0 0 1381.12 0 0 0 0 0 0 0 0 0 0 0 0 0 0 0 0 0 0 0 0 0 0 0 0 0 0 0 0 0 0 0 0 0 0 0 0 0 0 0 0 1982.9 0 2825.26 3088.98 2814.98 2901.48 2924.24 3328.86 3311.19 3300.7 3325.17 3231.78 3097.02 3895.73 3123.89 3039.46 2837.21 2794.95 2758.51 2677.73 2564.71 2785.44 2552 2773.7 2530.25 0 0 0 0 0 0 0 0 0 0 0 0 0 0 0 0 0 0 0 0 0 0 0 0 0 0 0 0 0 0 0 0 0 0 0 0 0 0 0 0 0 0 0 0 0 0 0 0 0 0 0 0 0 0 0 0 0 0 0 0 0 0 0 0 0 0 0 0 0 0 0 0 0 0 0 0 0 0 0 0 0 0 0 0 0 0 0 0 0 0 0 0 0 0 0 0 0 0 0 0 0 0 0 0 0 0 0 0 0 0 0 0 0 0 0 0 0 0 0 0 0 0 0 0 0 0 0 0 0 0 0 0 0 0 0 0 0 0 0 0 0 0 0 0 0 0 0 0 0 0 0 0 0 0 0 0 0 0 0 0 0 0 0 0 0 0 0 0 0 0 0 0 0 0 0 0 0 0 0 0 0 0 0 0 0 0 0 0 0 0 0 0 0 0 0 0 0 0 0 0 0 0 0 0 0 0 0 0 0 0 0 0 0 0 0 0 0 0 0 0 0 0 0 0 0 0 0 0 0 0 0 0 0 0 0 0 0 0 0 0 0 0 0 0 0 0 0 0 0 0 0 0 0 0 0 0 0 0 0 0 0 0 0 0 0 0 0 0 0 0 0 0 0 0 0 0 0 0 0 0 0 0 0 0 0 0 0 0 0 0 0 0 0 0 0 0 0 0 0 0 0 0 0 1624.13 1736.2 1810.91 2077.73 2352.18 2466.75 2736.83 2920.62 2861.06 2809.18 2865.85 2960.46 2975.48 2891.48 2937.19 2829.5 2634.92 2533.35 2755.43 0 0 0 0 0 0 0 0 0 0 0 0 0 0 0 0 0 0 0 0 0 0 0 0 0 0 0 0 0 0 0 0 0 0 0 0 0 0 0 0 0 0 0 0 0 0 0 0 0 0 0 0 0 0 0 0 0 0 0 0 0 0 0 0 0 0 0 0 0 0
0 0 0 2143.34 2206.95 2392.53 2544.26 2843.07 2791.7 2891.28 2843.99 3038.3 2973.1 2946.73 3842.64 3810.35 4063.49 4070.19 4093.33 3820.59 2913.78 4717.73 3188.42 2881.2 2583.39 2638.69 2104.68 2031.47 0 0 0 0 0 0 0 0 0 0 0 0 0 0 0 0 0 0 0 0 0 0 0 0 0 0 0 0 0 0 0 0 0 0 0 0 0 0 0 0 0 0 0 0 0 0 0 0 0 0 0 0 0 0 0 0 0 0 0 0 0 0 0 0 0 0 0 1745.3 0 2526.06 2935.08 2608.01 2778.02 2821.46 3339.46 3405.9 3363.36 3318.33 3313.67 3161.98 4040 3168.43 3094.62 2821.75 2727.57 2717.72 2684.67 2458.87 2628.81 2187.78 2554.29 0 0 0 0 0 0 0 0 0 0 0 0 0 0 0 0 0 0 0 0 0 0 0 0 0 0 0 0 0 0 0 0 0 0 0 0 0 0 0 0 0 0 0 0 0 0 0 0 0 0 0 0 0 0 0 0 0 0 0 0 0 0 0 0 0 0 0 0 0 0 0 0 0 0 0 0 0 0 0 0 0 0 0 0 0 0 0 0 0 0 0 0 0 0 0 0 0 0 0 0 0 0 0 0 0 0 0 0 0 0 0 0 0 0 0 0 0 0 0 0 0 0 0 0 0 0 0 0 0 0 0 0 0 0 0 0 0 0 0 0 0 0 0 0 0 0 0 0 0 0 0 0 0 0 0 0 0 0 0 0 0 0 0 0 0 0 0 0 0 0 0 0 0 0 0 0 0 0 0 0 0 0 0 0 0 0 0 0 0 0 0 0 0 0 0 0 0 0 0 0 0 0 0 0 0 0 0 0 0 0 0 0 0 0 0 0 0 0 0 0 0 0 0 0 0 0 0 0 0 0 0 0 0 0 0 0 0 0 0 0 0 0 0 0 0 0 0 0 0 0 0 0 0 0 0 0 0 0 0 0 0 0 0 0 0 0 0 0 0 0 0 0 0 0 0 0 0 0 0 0 0 0 0 0 0 0 0 0 0 0 0 0 0 0 0 0 0 0 0 0 0 0 0 0 0 0 1927.23 2235.32 2470.6 2519.42 2787.89 2983.47 2843.75 2825.07 2889.29 2957.64 2931.29 2797.98 2902.34 2800.32 2525.68 0 0 0 0 0 0 0 0 0 0 0 0 0 0 0 0 0 0 0 0 0 0 0 0 0 0 0 0 0 0 0 0 0 0 0 0 0 0 0 0 0 0 0 0 0 0 0 0 0 0 0 0 0 0 0 0 0 0 0 0 0 0 0 0 0 0 0 0 0 0 0 0
0 0 0 0 2280.16 2478.63 2512.11 2764.47 2828.69 2825.6 2786.64 2966.85 2837.78 2824.22 2924.6 3049.18 3861.92 3813.47 3860.15 3002.42 2826.12 3141.68 3235.27 2882.39 2496.07 2537.06 1736.45 0 0 0 0 0 0 0 0 0 0 0 0 0 0 0 0 0 0 0 0 0 0 0 0 0 0 0 0 0 0 0 0 0 0 0 0 0 0 0 0 0 0 0 0 0 0 0 0 0 0 0 0 0 0 0 0 0 0 0 0 0 0 0 0 0 0 0 0 0 0 0 2961.56 2658.89 2867.12 2902.18 3333.09 3397.76 3394.73 3392.12 3288.41 3163.12 4072.56 3225.32 3103.72 2892.68 2720.76 2696.45 2666.83 2545.65 2662.01 2114.15 2141.07 0 0 0 0 0 0 0 0 0 0 0 0 0 0 0 0 0 0 0 0 0 0 0 0 0 0 0 0 0 0 0 0 0 0 0 0 0 0 0 0 0 0 0 0 0 0 0 0 0 0 0 0 0 0 0 0 0 0 0 0 0 0 0 0 0 0 0 0 0 0 0 0 0 0 0 0 0 0 0 0 0 0 0 0 0 0 0 0 0 0 0 0 0 0 0 0 0 0 0 0 0 0 0 0 0 0 0 0 0 0 0 0 0 0 0 0 0 0 0 0 0 0 0 0 0 0 0 0 0 0 0 0 0 0 0 0 0 0 0 0 0 0 0 0 0 0 0 0 0 0 0 0 0 0 0 0 0 0 0 0 0 0 0 0 0 0 0 0 0 0 0 0 0 0 0 0 0 0 0 0 0 0 0 0 0 0 0 0 0 0 0 0 0 0 0 0 0 0 0 0 0 0 0 0 0 0 0 0 0 0 0 0 0 0 0 0 0 0 0 0 0 0 0 0 0 0 0 0 0 0 0 0 0 0 0 0 0 0 0 0 0 0 0 0 0 0 0 0 0 0 0 0 0 0 0 0 0 0 0 0 0 0 0 0 0 0 0 0 0 0 0 0 0 0 0 0 0 0 0 0 0 0 0 0 0 0 0 0 0 0 0 0 0 0 0 0 0 0 0 0 0 0 0 0 0 0 0 1898 2028.86 2219.68 2547.19 2745.65 2633.35 2535.45 2571.36 2703.75 2620.06 2507.71 2573.49 2438.08 0 0 0 0 0 0 0 0 0 0 0 0 0 0 0 0 0 0 0 0 0 0 0 0 0 0 0 0 0 0 0 0 0 0 0 0 0 0 0 0 0 0 0 0 0 0 0 0 0 0 0 0 0 0 0 0 0 0 0 0 0 0 0 0 0 0 1430.03 1658.95 2370.59 0 0 0 0
0 0 0 0 0 2373.48 2325.25 2552.19 2620.15 2709.73 2613.49 2848.53 2754.08 2756.75 3771.55 3767.83 4074.24 4007.2 3742.78 3643.77 2773.33 3093.37 3231.53 2673.55 2493.29 2670.1 1751.06 0 0 0 0 0 0 0 0 0 0 0 0 0 0 0 0 0 0 0 0 0 0 0 0 0 0 0 0 0 0 0 0 0 0 0 0 0 0 0 0 0 0 0 0 0 0 0 0 0 0 0 0 0 0 0 0 0 0 0 0 0 0 0 0 0 0 0 0 0 0 0 2830.12 2578.11 2831.03 2797.38 3069.65 3204.99 3198.88 3251.13 3261.81 3153.84 4050.24 3200.46 3066.68 2904.04 2755.03 2719.52 2704.71 2533.23 2560.92 1940.49 0 0 0 0 0 0 0 0 0 0 0 0 0 0 0 0 0 0 0 0 0 0 0 0 0 0 0 0 0 0 0 0 0 0 0 0 0 0 0 0 0 0 0 0 0 0 0 0 0 0 0 0 0 0 0 0 0 0 0 0 0 0 0 0 0 0 0 0 0 0 0 0 0 0 0 0 0 0 0 0 0 0 0 0 0 0 0 0 0 0 0 0 0 0 0 0 0 0 0 0 0 0 0 0 0 0 0 0 0 0 0 0 0 0 0 0 0 0 0 0 0 0 0 0 0 0 0 0 0 0 0 0 0 0 0 0 0 0 0 0 0 0 0 0 0 0 0 0 0 0 0 0 0 0 0 0 0 0 0 0 0 0 0 0 0 0 0 0 0 0 0 0 0 0 0 0 0 0 0 0 0 0 0 0 0 0 0 0 0 0 0 0 0 0 0 0 0 0 0 0 0 0 0 0 0 0 0 0 0 0 0 0 0 0 0 0 0 0 0 0 0 0 0 0 0 0 0 0 0 0 0 0 0 0 0 0 0 0 0 0 0 0 0 0 0 0 0 0 0 0 0 0 0 0 0 0 0 0 0 0 0 0 0 0 0 0 0 0 0 0 0 0 0 0 0 0 0 0 0 0 0 0 0 0 0 0 0 0 0 0 0 0 0 0 0 0 0 0 0 0 0 0 0 0 0 0 0 0 0 0 0 0 2846.74 2704.92 2671.59 2692.42 2794.07 2621.95 2384.64 2476.8 2266.64 0 0 0 0 0 0 0 0 0 0 0 0 0 0 0 0 0 0 0 0 0 0 0 0 0 0 0 0 0 0 0 0 0 0 0 0 0 0 0 0 0 0 0 0 0 0 0 0 0 0 0 0 0 0 0 0 0 0 0 0 0 0 0 0 0 0 1541.86 1724.21 2435.67 2605.66 0 0 0
0 0 0 0 0 0 2096.69 2288.84 2403.71 2521.66 2434.4 2656.4 2568.84 2642.26 2733.66 2878.34 2801.63 2901.08 2860.38 2866.73 2523.4 2854.49 2822.55 2331.72 2074.55 2272.84 1248.26 0 0 0 0 0 0 0 0 0 0 0 0 0 0 0 0 0 0 0 0 0 0 0 0 0 0 0 0 0 0 0 0 0 0 0 0 0 0 0 0 0 0 0 0 0 0 0 0 0 0 0 0 0 0 0 0 0 0 0 0 0 0 0 0 0 0 0 0 0 0 0 2731.35 2717.67 3021.12 2711.31 3132.82 3315.57 3203.83 3346.59 3335.21 3243.65 3439.69 3317.54 3321.08 3165.8 2920.47 3011.63 2955.82 2837.54 0 0 0 0 0 0 0 0 0 0 0 0 0 0 0 0 0 0 0 0 0 0 0 0 0 0 0 0 0 0 0 0 0 0 0 0 0 0 0 0 0 0 0 0 0 0 0 0 0 0 0 0 0 0 0 0 0 0 0 0 0 0 0 0 0 0 0 0 0 0 0 0 0 0 0 0 0 0 0 0 0 0 0 0 0 0 0 0 0 0 0 0 0 0 0 0 0 0 0 0 0 0 0 0 0 0 0 0 0 0 0 0 0 0 0 0 0 0 0 0 0 0 0 0 0 0 0 0 0 0 0 0 0 0 0 0 0 0 0 0 0 0 0 0 0 0 0 0 0 0 0 0 0 0 0 0 0 0 0 0 0 0 0 0 0 0 0 0 0 0 0 0 0 0 0 0 0 0 0 0 0 0 0 0 0 0 0 0 0 0 0 0 0 0 0 0 0 0 0 0 0 0 0 0 0 0 0 0 0 0 0 0 0 0 0 0 0 0 0 0 0 0 0 0 0 0 0 0 0 0 0 0 0 0 0 0 0 0 0 0 0 0 0 0 0 0 0 0 0 0 0 0 0 0 0 0 0 0 0 0 0 0 0 0 0 0 0 0 0 0 0 0 0 0 0 0 0 0 0 0 0 0 0 0 0 0 0 0 0 0 0 0 0 0 0 0 0 0 0 0 0 0 0 0 0 0 0 0 0 0 0 0 0 0 0 2550.29 0 0 0 0 0 0 0 0 0 0 0 0 0 0 0 0 0 0 0 0 0 0 0 0 0 0 0 0 0 0 0 0 0 0 0 0 0 0 0 0 0 0 0 0 0 0 0 0 0 0 0 0 0 0 0 0 0 0 0 0 0 0 0 0 0 0 0 0 0 0 0 0 0 0 0 0 0 0 0 0
0 0 0 0 0 0 1766.75 2037.04 2087.04 2292.87 2377.41 2615.08 2548.04 2541.52 2660.07 2836.87 2852.3 2986.81 2927.5 2784.56 2442.12 2748.21 2917.83 2234.31 0 0 0 0 0 0 0 0 0 0 0 0 0 0 0 0 0 0 0 0 0 0 0 0 0 0 0 0 0 0 0 0 0 0 0 0 0 0 0 0 0 0 0 0 0 0 0 0 0 0 0 0 0 0 0 0 0 0 0 0 0 0 0 0 0 0 0 0 0 0 0 0 0 0 2486.79 2502.4 2719.83 2334.02 2831.27 3082.17 2882.59 3104.93 3201.2 3072.58 3281.46 3118.72 3271.67 3039.02 2756.11 2952.59 2987.77 2702.18 0 0 0 0 0 0 0 0 0 0 0 0 0 0 0 0 0 0 0 0 0 0 0 0 0 0 0 0 0 0 0 0 0 0 0 0 0 0 0 0 0 0 0 0 0 0 0 0 0 0 0 0 0 0 0 0 0 0 0 0 0 0 0 0 0 0 0 0 0 0 0 0 0 0 0 0 0 0 0 0 0 0 0 0 0 0 0 0 0 0 0 0 0 0 0 0 0 0 0 0 0 0 0 0 0 0 0 0 0 0 0 0 0 0 0 0 0 0 0 0 0 0 0 0 0 0 0 0 0 0 0 0 0 0 0 0 0 0 0 0 0 0 0 0 0 0 0 0 0 0 0 0 0 0 0 0 0 0 0 0 0 0 0 0 0 0 0 0 0 0 0 0 0 0 0 0 0 0 0 0 0 0 0 0 0 0 0 0 0 0 0 0 0 0 0 0 0 0 0 0 0 0 0 0 0 0 0 0 0 0 0 0 0 0 0 0 0 0 0 0 0 0 0 0 0 0 0 0 0 0 0 0 0 0 0 0 0 0 0 0 0 0 0 0 0 0 0 0 0 0 0 0 0 0 0 0 0 0 0 0 0 0 0 0 0 0 0 0 0 0 0 0 0 0 0 0 0 0 0 0 0 0 0 0 0 0 0 0 0 0 0 0 0 0 0 0 0 0 0 0 0 0 0 0 0 0 0 0 0 0 0 0 0 0 0 0 0 0 0 0 0 0 0 0 0 0 0 0 0 0 0 0 0 0 0 0 0 0 0 0 0 0 0 0 0 0 0 0 0 0 0 0 0 0 0 0 0 0 0 0 0 0 0 0 0 0 0 0 0 0 0 0 0 0 0 0 0 0 0 0 0 0 0 0 0 0 0 0 0 0 0 0 0 0 0 0
0 0 0 0 0 0 0 1706.55 1541.17 1744.39 1922.37 2199.02 2269.58 2281.99 2549.48 2816.63 2932.77 3066.51 0 2981.93 2491.29 0 0 0 0 0 0 0 0 0 0 0 0 0 0 0 0 0 0 0 0 0 0 0 0 0 0 0 0 0 0 0 0 0 0 0 0 0 0 0 0 0 0 0 0 0 0 0 0 0 0 0 0 0 0 0 0 0 0 0 0 0 0 0 0 0 0 0 0 0 0 0 0 0 0 0 0 0 0 2883.98 2701.22 2210.41 2622.4 2817.72 2488.23 2824.6 2748.89 2648.85 2762.51 2617.86 0 2737.45 0 0 0 0 0 0 0 0 0 0 0 0 0 0 0 0 0 0 0 0 0 0 0 0 0 0 0 0 0 0 0 0 0 0 0 0 0 0 0 0 0 0 0 0 0 0 0 0 0 0 0 0 0 0 0 0 0 0 0 0 0 0 0 0 0 0 0 0 0 0 0 0 0 0 0 0 0 0 0 0 0 0 0 0 0 0 0 0 0 0 0 0 0 0 0 0 0 0 0 0 0 0 0 0 0 0 0 0 0 0 0 0 0 0 0 0 0 0 0 0 0 0 0 0 0 0 0 0 0 0 0 0 0 0 0 0 0 0 0 0 0 0 0 0 0 0 0 0 0 0 0 0 0 0 0 0 0 0 0 0 0 0 0 0 0 0 0 0 0 0 0 0 0 0 0 0 0 0 0 0 0 0 0 0 0 0 0 0 0 0 0 0 0 0 0 0 0 0 0 0 0 0 0 0 0 0 0 0 0 0 0 0 0 0 0 0 0 0 0 0 0 0 0 0 0 0 0 0 0 0 0 0 0 0 0 0 0 0 0 0 0 0 0 0 0 0 0 0 0 0 0 0 0 0 0 0 0 0 0 0 0 0 0 0 0 0 0 0 0 0 0 0 0 0 0 0 0 0 0 0 0 0 0 0 0 0 0 0 0 0 0 0 0 0 0 0 0 0 0 0 0 0 0 0 0 0 0 0 0 0 0 0 0 0 0 0 0 0 0 0 0 0 0 0 0 0 0 0 0 0 0 0 0 0 0 0 0 0 0 0 0 0 0 0 0 0 0 0 0 0 0 0 0 0 0 0 0 0 0 0 0 0 0 0 0 0 0 0 0 0 0 0 0 0 0 0 0 0 0 0 0 0 0 0 0 0 0 0 0 0 0 0 0 0 0 0 0 0 0 0
0 0 0 0 0 0 0 0 0 0 2045.88 2205.12 0 2252.76 2453.05 2664.97 2517.99 2805.47 0 2655.18 0 0 0 0 0 0 0 0 0 0 0 0 0 0 0 0 0 0 0 0 0 0 0 0 0 0 0 0 0 0 0 0 0 0 0 0 0 0 0 0 0 0 0 0 0 0 0 0 0 0 0 0 0 0 0 0 0 0 0 0 0 0 0 0 0 0 0 0 0 0 0 0 0 0 0 0 0 0 0 2597.15 2207.67 1798.29 2283.76 2630.17 2482.56 2857.36 2636.7 2370.26 0 0 0 0 0 0 0 0 0 0 0 0 0 0 0 0 0 0 0 0 0 0 0 0 0 0 0 0 0 0 0 0 0 0 0 0 0 0 0 0 0 0 0 0 0 0 0 0 0 0 0 0 0 0 0 0 0 0 0 0 0 0 0 0 0 0 0 0 0 0 0 0 0 0 0 0 0 0 0 0 0 0 0 0 0 0 0 0 0 0 0 0 0 0 0 0 0 0 0 0 0 0 0 0 0 0 0 0 0 0 0 0 0 0 0 0 0 0 0 0 0 0 0 0 0 0 0 0 0 0 0 0 0 0 0 0 0 0 0 0 0 0 0 0 0 0 0 0 0 0 0 0 0 0 0 0 0 0 0 0 0 0 0 0 0 0 0 0 0 0 0 0 0 0 0 0 0 0 0 0 0 0 0 0 0 0 0 0 0 0 0 0 0 0 0 0 0 0 0 0 0 0 0 0 0 0 0 0 0 0 0 0 0 0 0 0 0 0 0 0 0 0 0 0 0 0 0 0 0 0 0 0 0 0 0 0 0 0 0 0 0 0 0 0 0 0 0 0 0 0 0 0 0 0 0 0 0 0 0 0 0 0 0 0 0 0 0 0 0 0 0 0 0 0 0 0 0 0 0 0 0 0 0 0 0 0 0 0 0 0 0 0 0 0 0 0 0 0 0 0 0 0 0 0 0 0 0 0 0 0 0 0 0 0 0 0 0 0 0 0 0 0 0 0 0 0 0 0 0 0 0 0 0 0 0 0 0 0 0 0 0 0 0 0 0 0 0 0 0 0 0 0 0 0 0 0 0 0 0 0 0 0 0 0 0 0 0 0 0 0 0 0 0 0 0 0 0 0 0 0 0 0 0 0 0 0 0 0 0 0 0 0 0 0 0 0 0 0 0 0 0 0 0 0
0 0 0 0 0 0 0 0 0 0 0 0 0 0 0 0 0 0 0 0 0 0 0 0 0 0 0 0 0 0 0 0 0 0 0 0 0 0 0 0 0 0 0 0 0 0 0 0 0 0 0 0 0 0 0 0 0 0 0 0 0 0 0 0 0 0 0 0 0 0 0 0 0 0 0 0 0 0 0 0 0 0 0 0 0 0 0 0 0 0 0 0 0 0 0 0 0 0 0 0 0 0 0 0 0 0 0 0 0 0 0 0 0 0 0 0 0 0 0 0 0 0 0 0 0 0 0 0 0 0 0 0 0 0 0 0 0 0 0 0 0 0 0 0 0 0 0 0 0 0 0 0 0 0 0 0 0 0 0 0 0 0 0 0 0 0 0 0 0 0 0 0 0 0 0 0 0 0 0 0 0 0 0 0 0 0 0 0 0 0 0 0 0 0 0 0 0 0 0 0 0 0 0 0 0 0 0 0 0 0 0 0 0 0 0 0 0 0 0 0 0 0 0 0 0 0 0 0 0 0 0 0 0 0 0 0 0 0 0 0 0 0 0 0 0 0 0 0 0 0 0 0 0 0 0 0 0 0 0 0 0 0 0 0 0 0 0 0 0 0 0 0 0 0 0 0 0 0 0 0 0 0 0 0 0 0 0 0 0 0 0 0 0 0 0 0 0 0 0 0 0 0 0 0 0 0 0 0 0 0 0 0 0 0 0 0 0 0 0 0 0 0 0 0 0 0 0 0 0 0 0 0 0 0 0 0 0 0 0 0 0 0 0 0 0 0 0 0 0 0 0 0 0 0 0 0 0 0 0 0 0 0 0 0 0 0 0 0 0 0 0 0 0 0 0 0 0 0 0 0 0 0 0 0 0 0 0 0 0 0 0 0 0 0 0 0 0 0 0 0 0 0 0 0 0 0 0 0 0 0 0 0 0 0 0 0 0 0 0 0 0 0 0 0 0 0 0 0 0 0 0 0 0 0 0 0 0 0 0 0 0 0 0 0 0 0 0 0 0 0 0 0 0 0 0 0 0 0 0 0 0 0 0 0 0 0 0 0 0 0 0 0 0 0 0 0 0 0 0 0 0 0 0 0 0 0 0 0 0 0 0 0 0 0 0 0 0 0 0 0 0 0 0 0 0 0 0 0 0 0 0 0
0 0 0 0 0 0 0 0 0 0 0 0 0 0 0 0 0 0 0 0 0 0 0 0 0 0 0 0 0 0 0 0 0 0 0 0 0 0 0 0 0 0 0 0 0 0 0 0 0 0 0 0 0 0 0 0 0 0 0 0 0 0 0 0 0 0 0 0 0 0 0 0 0 0 0 0 0 0 0 0 0 0 0 0 0 0 0 0 0 0 0 0 0 0 0 0 0 0 0 0 0 0 0 0 0 0 0 0 0 0 0 0 0 0 0 0 0 0 0 0 0 0 0 0 0 0 0 0 0 0 0 0 0 0 0 0 0 0 0 0 0 0 0 0 0 0 0 0 0 0 0 0 0 0 0 0 0 0 0 0 0 0 0 0 0 0 0 0 0 0 0 0 0 0 0 0 0 0 0 0 0 0 0 0 0 0 0 0 0 0 0 0 0 0 0 0 0 0 0 0 0 0 0 0 0 0 0 0 0 0 0 0 0 0 0 0 0 0 0 0 0 0 0 0 0 0 0 0 0 0 0 0 0 0 0 0 0 0 0 0 0 0 0 0 0 0 0 0 0 0 0 0 0 0 0 0 0 0 0 0 0 0 0 0 0 0 0 0 0 0 0 0 0 0 0 0 0 0 0 0 0 0 0 0 0 0 0 0 0 0 0 0 0 0 0 0 0 0 0 0 0 0 0 0 0 0 0 0 0 0 0 0 0 0 0 0 0 0 0 0 0 0 0 0 0 0 0 0 0 0 0 0 0 0 0 0 0 0 0 0 0 0 0 0 0 0 0 0 0 0 0 0 0 0 0 0 0 0 0 0 0 0 0 0 0 0 0 0 0 0 0 0 0 0 0 0 0 0 0 0 0 0 0 0 0 0 0 0 0 0 0 0 0 0 0 0 0 0 0 0 0 0 0 0 0 0 0 0 0 0 0 0 0 0 0 0 0 0 0 0 0 0 0 0 0 0 0 0 0 0 0 0 0 0 0 0 0 0 0 0 0 0 0 0 0 0 0 0 0 0 0 0 0 0 0 0 0 0 0 0 0 0 0 0 0 0 0 0 0 0 0 0 0 0 0 0 0 0 0 0 0 0 0 0 0 0 0 0 0 0 0 0 0 0 0 0 0 0 0 0 0 0 0 0 0 0 0 0 0 0 0 0
0 0 0 0 0 0 0 0 0 0 0 0 0 0 0 0 0 0 0 0 0 0 0 0 0 0 0 0 0 0 0 0 0 0 0 0 0 0 0 0 0 0 0 0 0 0 0 0 0 0 0 0 0 0 0 0 0 0 0 0 0 0 0 0 0 0 0 0 0 0 0 0 0 0 0 0 0 0 0 0 0 0 0 0 0 0 0 0 0 0 0 0 0 0 0 0 0 0 0 0 0 0 0 0 0 0 0 0 0 0 0 0 0 0 0 0 0 0 0 0 0 0 0 0 0 0 0 0 0 0 0 0 0 0 0 0 0 0 0 0 0 0 0 0 0 0 0 0 0 0 0 0 0 0 0 0 0 0 0 0 0 0 0 0 0 0 0 0 0 0 0 0 0 0 0 0 0 0 0 0 0 0 0 0 0 0 0 0 0 0 0 0 0 0 0 0 0 0 0 0 0 0 0 0 0 0 0 0 0 0 0 0 0 0 0 0 0 0 0 0 0 0 0 0 0 0 0 0 0 0 0 0 0 0 0 0 0 0 0 0 0 0 0 0 0 0 0 0 0 0 0 0 0 0 0 0 0 0 0 0 0 0 0 0 0 0 0 0 0 0 0 0 0 0 0 0 0 0 0 0 0 0 0 0 0 0 0 0 0 0 0 0 0 0 0 0 0 0 0 0 0 0 0 0 0 0 0 0 0 0 0 0 0 0 0 0 0 0 0 0 0 0 0 0 0 0 0 0 0 0 0 0 0 0 0 0 0 0 0 0 0 0 0 0 0 0 0 0 0 0 0 0 0 0 0 0 0 0 0 0 0 0 0 0 0 0 0 0 0 0 0 0 0 0 0 0 0 0 0 0 0 0 0 0 0 0 0 0 0 0 0 0 0 0 0 0 0 0 0 0 0 0 0 0 0 0 0 0 0 0 0 0 0 0 0 0 0 0 0 0 0 0 0 0 0 0 0 0 0 0 0 0 0 0 0 0 0 0 0 0 0 0 0 0 0 0 0 0 0 0 0 0 0 0 0 0 0 0 0 0 0 0 0 0 0 0 0 0 0 0 0 0 0 0 0 0 0 0 0 0 0 0 0 0 0 0 0 0 0 0 0 0 0 0 0 0 0 0 0 0 0 0 0 0 0 0 0 0 0 0 0 0
0 0 0 0 0 0 0 0 0 0 0 0 0 0 0 0 0 0 0 0 0 0 0 0 0 0 0 0 0 0 0 0 0 0 0 0 0 0 0 0 0 0 0 0 0 0 0 0 0 0 0 0 0 0 0 0 0 0 0 0 0 0 0 0 0 0 0 0 0 0 0 0 0 0 0 0 0 0 0 0 0 0 0 0 0 0 0 0 0 0 0 0 0 0 0 0 0 0 0 0 0 0 0 0 0 0 0 0 0 0 0 0 0 0 0 0 0 0 0 0 0 0 0 0 0 0 0 0 0 0 0 0 0 0 0 0 0 0 0 0 0 0 0 0 0 0 0 0 0 0 0 0 0 0 0 0 0 0 0 0 0 0 0 0 0 0 0 0 0 0 0 0 0 0 0 0 0 0 0 0 0 0 0 0 0 0 0 0 0 0 0 0 0 0 0 0 0 0 0 0 0 0 0 0 0 0 0 0 0 0 0 0 0 0 0 0 0 0 0 0 0 0 0 0 0 0 0 0 0 0 0 2204.4 0 0 0 0 0 0 0 0 0 0 0 0 0 0 0 0 0 0 0 0 0 0 0 0 0 0 0 0 0 0 0 0 0 0 0 0 0 0 0 0 0 0 0 0 0 0 0 0 0 0 0 0 0 0 0 0 0 0 0 0 0 0 0 0 0 0 0 0 0 0 0 0 0 0 0 0 0 0 0 0 0 0 0 0 0 0 0 0 0 0 0 0 0 0 0 0 0 0 0 0 0 0 0 0 0 0 0 0 0 0 0 0 0 0 0 0 0 0 0 0 0 0 0 0 0 0 0 0 0 0 0 0 0 0 0 0 0 0 0 0 0 0 0 0 0 0 0 0 0 0 0 0 0 0 0 0 0 0 0 0 0 0 0 0 0 0 0 0 0 0 0 0 0 0 0 0 0 0 0 0 0 0 0 0 0 0 0 0 0 0 0 0 0 0 0 0 0 0 0 0 0 0 0 0 0 0 0 0 0 0 0 0 0 0 0 0 0 0 0 0 0 0 0 0 0 0 0 0 0 0 0 0 0 0 0 0 0 0 0 0 0 0 0 0 0 0 0 0 0 0 0 0 0 0 0 0 0 0 0 0 0 0 0 0 0 0 0 0 0 0 0 0 0 0 0 0 0 0 0 0
0 0 0 0 0 0 0 0 0 0 0 0 0 0 0 0 0 0 0 0 0 0 0 0 0 0 0 0 0 0 0 0 0 0 0 0 0 0 0 0 0 0 0 0 0 0 0 0 0 0 0 0 0 0 0 0 0 0 0 0 0 0 0 0 0 0 0 0 0 0 0 0 0 0 0 0 0 0 0 0 0 0 0 0 0 0 0 0 2247.18 0 0 0 0 0 0 0 0 0 0 0 0 0 0 0 0 0 0 0 0 0 0 0 0 0 0 0 0 0 0 0 0 0 0 0 0 0 0 0 0 0 0 0 0 0 0 0 0 0 0 0 0 0 0 0 0 0 0 0 0 0 0 0 0 0 0 0 0 0 0 0 0 0 0 0 3004.89 0 0 0 0 0 0 3171.55 0 0 0 0 0 0 0 0 0 0 0 0 0 0 0 0 0 0 0 0 0 0 0 0 0 0 0 0 0 0 0 0 0 0 0 0 0 0 0 0 0 0 0 0 0 0 0 0 0 0 0 0 0 0 0 0 0 0 0 0 0 0 0 0 0 0 0 0 0 0 0 0 0 0 0 0 0 0 0 0 0 0 0 0 0 0 0 0 0 0 0 0 0 0 0 0 0 0 0 0 0 0 0 0 0 0 0 0 0 0 0 0 0 0 0 0 0 0 0 0 0 0 0 0 0 0 0 0 0 0 0 0 0 0 0 0 0 0 0 0 0 0 0 0 0 0 0 0 0 0 0 0 0 0 0 0 0 0 0 0 0 0 0 0 0 0 0 0 0 0 0 0 0 0 0 0 0 0 0 0 0 0 0 0 0 0 0 0 0 0 0 0 0 0 0 0 0 0 0 0 0 0 0 0 0 0 0 0 0 0 0 0 0 0 0 0 0 0 0 0 0 0 0 0 0 0 0 0 0 0 0 0 0 0 0 0 0 0 0 0 0 0 0 0 0 0 0 0 0 0 0 0 0 0 0 0 0 0 0 0 0 0 0 0 0 0 0 0 0 0 0 0 0 0 0 0 0 0 0 0 0 0 0 0 0 0 0 0 0 0 0 0 0 0 0 0 0 0 0 0 0 0 0 0 0 0 0 0 0 0 0 0 0 0 0 0 0 0 0 0 0 0 0 0 0 0 0 0 0 0 0 0 0 0 0 0 0 0 0 0
0 0 0 0 0 0 0 0 0 0 0 0 0 0 0 0 0 0 0 0 0 0 0 0 0 0 0 0 0 0 0 0 0 0 0 0 0 0 0 0 0 0 0 0 0 0 0 0 0 0 0 0 0 0 0 0 0 0 0 0 0 0 0 0 0 0 0 0 0 0 0 0 0 0 0 0 0 0 0 0 0 0 0 0 0 2599.12 0 2474.46 2441.09 2538.52 2837.88 2794.95 0 2596.18 2463.42 2431.93 2283.08 0 0 0 0 0 0 0 0 0 0 0 0 0 0 0 0 0 0 0 0 0 0 0 0 0 0 0 0 0 0 0 0 0 0 0 0 0 0 0 0 0 0 0 0 0 0 0 0 0 0 0 0 0 0 0 0 0 0 0 0 0 0 0 0 0 3593.67 3715.51 3463.62 3725.24 3490.21 3450.23 3488.25 3716.66 3426.69 3224.51 3278.96 3385.69 0 0 0 0 0 0 0 0 1646.12 0 0 0 0 0 0 0 0 0 0 0 0 0 0 0 0 0 0 0 0 0 0 0 0 0 0 0 0 0 0 0 0 0 0 0 0 0 0 0 2690.96 2774.53 3131.65 0 0 0 3157.7 3230.79 2805.8 0 0 0 0 0 0 0 0 0 0 0 0 0 0 0 0 0 0 0 0 0 0 0 0 0 0 0 0 0 0 0 0 0 0 0 0 0 0 0 0 0 0 0 0 0 0 0 0 0 0 0 0 0 0 0 0 0 0 0 0 0 0 0 0 0 0 0 0 0 0 0 0 0 0 0 0 0 0 0 0 0 0 0 0 0 0 0 0 0 0 0 0 0 0 0 0 0 0 0 0 0 0 0 0 0 0 0 0 0 0 0 0 0 0 0 0 0 0 0 0 0 0 0 0 0 0 0 0 0 0 0 0 0 0 0 0 0 0 0 0 0 0 0 0 0 0 0 0 0 0 0 0 0 0 0 0 0 0 0 0 0 0 0 0 0 0 0 0 0 0 0 0 0 0 0 0 0 0 0 0 0 0 0 0 0 0 0 0 0 0 0 0 0 0 0 0 0 0 0 0 0 0 0 0 0 0 0 0 0 0 0 0 0 0 0 0 0 0 0 0 0 0 0 0 0 0 0 0 0 0 0 0 0 0 0 0 0 0 0 0 0 0 0 0 0 0 0 0 0 0 0 0 0 0 0 0 0 0 0 0 0 0 0 0 0 0 0 0 0 0 0 0 0 0 0 0 0 0 0 0 0
0 0 0 0 0 0 0 0 0 0 0 0 0 0 0 0 0 0 0 0 0 0 0 0 0 0 0 0 0 0 0 0 0 0 0 0 0 0 0 0 0 0 0 0 0 0 0 0 0 0 0 0 0 0 0 0 0 0 0 0 0 0 0 0 0 0 0 0 0 0 0 0 0 0 0 0 0 0 0 0 0 0 0 0 0 2825.22 0 2523.02 2485.5 2419.79 2671.08 2786.55 2821.65 2679.48 2573.09 2417.91 2396.56 0 0 0 0 0 0 0 0 0 0 0 0 0 0 0 0 0 0 0 0 0 0 0 0 0 0 0 0 0 0 0 0 0 0 0 0 0 0 0 0 0 0 0 0 0 0 0 0 0 0 0 0 0 0 0 0 0 0 0 0 0 0 0 2580.77 3320.76 3668.63 3733.62 3621.2 3850.76 3790.38 3849.7 3763.85 3972.47 3700.11 3671.84 3679.98 3664.55 3420.76 3284.29 0 2860.91 2394.65 0 1842.77 0 1666.77 0 0 0 0 0 0 0 0 0 0 0 0 0 0 0 0 0 0 0 0 0 0 0 0 0 0 0 0 0 0 0 0 0 1658.14 1724.58 1656.57 1851.89 1864.56 2614.39 2823.46 2964.17 3240.9 3043.81 3011.15 3040.84 3037.86 3140.38 2825.6 0 2739.69 0 0 0 0 0 0 0 0 0 0 0 0 0 0 0 0 0 0 0 0 0 0 0 0 0 0 0 0 0 0 0 0 0 0 0 0 0 0 0 0 0 0 0 0 0 0 0 0 0 0 0 0 0 0 0 0 0 0 0 0 0 0 0 0 0 0 0 0 0 0 0 0 0 0 0 0 0 0 0 0 0 0 0 0 0 0 0 0 0 0 0 0 0 0 0 0 0 0 0 0 0 0 0 0 0 0 0 0 0 0 0 0 0 0 0 0 0 0 0 0 0 0 0 0 0 0 0 0 0 0 0 0 0 0 0 0 0 0 0 0 0 0 0 0 0 0 0 0 0 0 0 0 0 0 0 0 0 0 0 0 0 0 0 0 0 0 0 0 0 0 0 0 0 0 0 0 0 0 0 0 0 0 0 0 0 0 0 0 0 0 0 0 0 0 0 0 0 0 0 0 0 0 0 0 0 0 0 0 0 0 0 0 0 0 0 0 0 0 0 0 0 0 0 0 0 0 0 0 0 0 0 0 0 0 0 0 0 0 0 0 0 0 0 0 0 0 0 0 0 0 0 0 0 0 0 0 0 0 0 0 0 0 0 0 0 0 0 0 0 0 0 0 0 0 0 0 0 0 0
0 0 0 0 0 0 0 0 0 0 0 0 0 0 0 0 0 0 0 0 0 0 0 0 0 0 0 0 0 0 0 0 0 0 0 0 0 0 0 0 0 0 0 0 0 0 0 0 0 0 0 0 0 0 0 0 0 0 0 0 0 0 0 0 0 0 0 0 0 0 0 0 0 0 0 0 0 0 0 0 0 0 3344.12 3136.33 3208.61 3262.89 2978.59 2729.43 2777.79 2650.95 2816.49 2977.32 2949.43 2782.53 2652.71 2570.73 2505.5 2297.33 2137.94 0 0 0 0 0 0 0 0 0 0 0 0 0 0 0 0 0 0 0 0 0 0 0 0 0 0 0 0 0 0 0 0 0 0 0 0 0 0 0 0 0 0 0 0 0 0 0 0 0 0 0 0 0 0 0 0 0 0 0 2213.15 2259.62 2346.78 3065.95 3319.31 3478.63 3415.81 3606.26 3643.54 3750.73 3752.57 3931.24 3706.32 3687.01 3681.35 3653.69 3537.08 3469.78 3398.38 3086.94 2812.62 0 2279.63 2062.23 2137.15 0 0 0 0 0 0 0 0 0 0 0 0 0 0 0 0 0 0 0 0 0 0 0 0 0 0 0 0 0 0 0 0 1354.91 1641.82 1847.64 1863.92 1920.37 1982.99 2640.06 2762.87 2923.42 3127.15 3046.41 3054.23 3068.92 3031.99 3123.08 2856.77 2772.32 2808.1 2597.39 2438.61 2252.34 2282.61 0 0 0 0 0 0 0 0 0 0 0 0 0 0 0 0 0 0 0 0 0 0 0 0 0 0 0 0 0 0 0 0 0 0 0 0 0 0 0 0 0 0 0 0 0 0 0 0 0 0 0 0 0 0 0 0 0 0 0 0 0 0 0 0 0 0 0 0 0 0 0 0 0 0 0 0 0 0 0 0 0 0 0 0 0 0 0 0 0 0 0 0 0 0 0 0 0 0 0 0 0 0 0 0 0 0 0 0 0 0 0 0 0 0 0 0 0 0 0 0 0 0 0 0 0 0 0 0 0 0 0 0 0 0 0 0 0 0 0 0 0 0 0 0 0 0 0 0 0 0 0 0 0 0 0 0 0 0 0 0 0 0 0 0 0 0 0 0 0 0 0 0 0 0 0 0 0 0 0 0 0 0 0 0 0 0 0 0 0 0 0 0 0 0 0 0 0 0 0 0 0 0 0 0 0 0 0 0 0 0 0 0 0 0 0 0 0 0 0 0 0 0 0 0 0 0 0 0 0 0 0 0 0 0 0 0 0 0 0 0 0 0 0 0 0 0 0 0 0 0 0 0 0 0 0 0 0 0 0 0 0 0 0 0 0 0 0 0 0 0 0 0 0 0 0
0 0 0 0 0 0 0 0 0 0 0 0 0 0 0 0 0 0 0 0 0 0 0 0 0 0 0 0 0 0 0 0 0 0 0 0 0 0 0 0 0 0 0 0 0 0 0 0 0 0 0 0 0 0 0 0 0 0 0 0 0 0 0 0 0 0 0 0 0 0 0 0 0 0 0 0 0 0 0 0 0 3888.87 3505.81 3336.47 3279.03 3391.85 3172.39 2955.92 2967.37 2920.22 3071.62 3282.55 3204.74 3138.91 3020.8 3024.77 3142.2 3041.61 2898.63 2590.89 2207.94 0 0 0 0 0 0 0 0 0 0 0 0 0 0 0 0 0 0 0 0 0 0 0 0 0 0 0 0 0 0 0 0 0 0 0 0 0 0 0 0 0 0 0 0 0 0 0 0 0 0 0 0 0 0 0 0 2249.59 2191.67 2248.29 2395.84 3024.77 3185.46 3248.3 3234.02 3454.71 3541.03 3639.82 3638.17 3745.12 3576.28 3864.95 4118.55 4053.28 3374.25 3282.88 3308.71 3148.51 2887.65 2810.97 2327.71 0 2297.17 0 0 0 0 0 0 0 0 0 0 0 0 0 0 0 0 0 0 0 0 0 0 0 0 0 0 0 0 0 0 0 0 2158.34 2233.98 2780.78 2602.91 2448.21 2515.23 2842.21 2890.49 3012.88 3102.46 3053.34 3042.16 3096.96 3137.21 3248.68 3108.73 3077.88 3124.82 3018.57 2947.15 2702.27 2682.65 0 1858.72 1807.09 1544.72 1183.05 947.603 0 0 0 0 0 0 0 0 0 0 0 0 0 0 0 0 0 0 0 0 0 0 0 0 0 0 0 0 0 0 0 0 0 0 0 0 0 0 0 0 0 0 0 0 0 0 0 0 0 0 0 0 0 0 0 0 0 0 0 0 0 0 0 0 0 0 0 0 0 0 0 0 0 0 0 0 0 0 0 0 0 0 0 0 0 0 0 0 0 0 0 0 0 0 0 0 0 0 0 0 0 0 0 0 0 0 0 0 0 0 0 0 0 0 0 0 0 0 0 0 0 0 0 0 0 0 0 0 0 0 0 0 0 0 0 0 0 0 0 0 0 0 0 0 0 0 0 0 0 0 0 0 0 0 0 0 0 0 0 0 0 0 0 0 0 0 0 0 0 0 0 0 0 0 0 0 0 0 0 0 0 0 0 0 0 0 0 0 0 0 0 0 0 0 0 0 0 0 0 0 0 0 0 0 0 0 0 0 0 0 0 0 0 0 0 0 0 0 0 0 0 0 0 0 0 0 0 0 0 0 0 0 0 0 0 0 0 0 0 0 0 0 0 0 0 0 0 0 0 0 0 0 0 0 0 0 0 0 0 0 0 0 0 0 0 0 0 0 0
0 0 0 0 0 0 0 0 0 0 0 0 0 0 0 0 0 0 0 0 0 0 0 0 0 0 0 0 0 0 0 0 0 0 0 0 0 0 0 0 0 0 0 0 0 0 0 0 0 0 0 0 0 0 0 0 0 0 0 0 0 0 0 0 0 0 0 0 0 0 0 0 0 0 0 0 0 0 0 0 0 4342.51 4287.14 3647.66 3591.44 3581.01 3370.39 3106.43 3037.97 2964.28 3028.87 3170.59 3190.36 3144.09 3076.18 3037.86 3157.76 3079.29 3012.44 2789.52 2493.33 0 0 0 0 0 0 0 0 0 0 0 0 0 0 0 0 0 0 0 0 0 0 0 0 0 0 0 0 0 0 0 0 0 0 0 0 0 0 0 0 0 0 0 0 0 0 0 0 0 0 0 0 0 0 0 0 2484.47 2457.32 2563.03 2614.72 3096.79 3182.68 3298.17 3228.3 4040.2 3924.62 4030.01 3907.52 3990.52 3552.58 3893.65 4112.69 4103.44 4040 3915.92 3323.52 3435.25 3131.59 3006.78 2638.44 2455.24 2561.5 2064.64 1620.88 0 0 0 0 0 0 0 0 0 0 0 0 0 0 0 0 0 0 0 0 0 0 0 0 0 0 0 0 0 0 0 2673.21 2834.48 2799.9 2904.45 2995.72 3115.31 3092.97 3220.49 3265.62 3277.49 3255.67 3259.53 3190.06 3340.66 3315.51 3346.25 3340.92 3313.21 3268.93 3205.97 3263.97 3196.01 2476.18 2299.85 1979.34 1475.26 1179.48 0 0 0 0 0 0 0 0 0 0 0 0 0 0 0 0 0 0 0 0 0 0 0 0 0 0 0 0 0 0 0 0 0 0 0 0 0 0 0 0 0 0 0 0 0 0 0 0 0 0 0 0 0 0 0 0 0 0 0 0 0 0 0 0 0 0 0 0 0 0 0 0 0 0 0 0 0 0 0 0 0 0 0 0 0 0 0 0 0 0 0 0 0 0 0 0 0 0 0 0 0 0 0 0 0 0 0 0 0 0 0 0 0 0 0 0 0 0 0 0 0 0 0 0 0 0 0 0 0 0 0 0 0 0 0 0 0 0 0 0 0 0 0 0 0 0 0 0 0 0 0 0 0 0 0 0 0 0 0 0 0 0 0 0 0 0 0 0 0 0 0 0 0 0 0 0 0 0 0 0 0 0 0 0 0 0 0 0 0 0 0 0 0 0 0 0 0 0 0 0 0 0 0 0 0 0 0 0 0 0 0 0 0 0 0 0 0 0 0 0 0 0 0 0 0 0 0 0 0 0 0 0 0 0 0 0 0 0 0 0 0 0 0 0 0 0 0 0 0 0 0 0 0 0 0 0 0 0 0 0 0 0 0 0 0 0 0 0 0
0 0 0 0 0 0 0 0 0 0 0 0 0 0 0 0 0 0 0 0 0 0 0 0 0 0 0 0 0 0 0 0 0 0 0 0 0 0 0 0 0 0 0 0 0 0 0 0 0 0 0 0 0 0 0 0 0 0 0 0 0 0 0 0 0 0 0 0 0 0 0 0 0 0 0 0 0 0 0 4613.44 4672.41 4600.28 4632.93 4242.26 4147.15 4132.95 3539.09 3263.91 3201.01 3139.21 3238.27 3379.35 3345.52 3355.15 3325.03 3330.11 3460.55 3415.19 3499.6 3144.32 2862.47 2889.09 0 0 0 0 0 0 0 0 0 0 0 0 0 0 0 0 0 0 0 0 0 0 0 0 0 0 0 0 0 0 0 0 0 0 0 0 0 0 0 0 0 0 0 0 0 0 0 0 0 0 0 0 0 0 0 2387.29 2449.04 2480.06 2594.54 2953.94 2967.37 3022.43 3015.15 3202.6 3321.22 4026.72 3897.18 3892.66 3326.09 3411.99 4024.79 3975.95 4014 4053.96 3841.67 4007.01 3373.16 3128.9 2801.16 2507.56 2405.84 1632.81 308.572 0 0 0 0 0 0 0 0 0 0 0 0 0 0 0 0 0 0 0 0 0 0 0 0 0 0 0 0 0 0 0 3132.64 3291.96 3292.34 3277.49 3222.04 3264.92 3186.36 3175.99 3262.13 3249.68 3217.28 3163.65 3120 3229.04 3169.51 3218.08 3250.63 3241.33 3268.8 3194.19 3382.55 3371.67 2972.37 3041 2785.03 2166.59 1492.25 1161.6 1238.02 0 0 0 0 0 0 0 0 0 0 0 0 0 0 0 0 0 0 0 0 0 0 0 0 0 0 0 0 0 0 0 0 0 0 0 0 0 0 0 0 0 0 0 0 0 0 0 0 0 0 0 0 0 0 0 0 0 0 0 0 0 0 0 0 0 0 0 0 0 0 0 0 0 0 0 0 0 0 0 0 0 0 0 0 0 0 0 0 0 0 0 0 0 0 0 0 0 0 0 0 0 0 0 0 0 0 0 0 0 0 0 0 0 0 0 0 0 0 0 0 0 0 0 0 0 0 0 0 0 0 0 0 0 0 0 0 0 0 0 0 0 0 0 0 0 0 0 0 0 0 0 0 0 0 0 0 0 0 0 0 0 0 0 0 0 0 0 0 0 0 0 0 0 0 0 0 0 0 0 0 0 0 0 0 0 0 0 0 0 0 0 0 0 0 0 0 0 0 0 0 0 0 0 0 0 0 0 0 0 0 0 0 0 0 0 0 0 0 0 0 0 0 0 0 0 0 0 0 0 0 0 0 0 0 0 0 0 0 0 0 0 0 0 0 0 0 0 0 0 0 0 0 0 0 0 0 0 0 0 0 0 0 0 0 0 0 0
0 0 0 0 0 0 0 0 0 0 0 0 0 0 0 0 0 0 0 0 0 0 0 0 0 0 0 0 0 0 0 0 0 0 0 0 0 0 0 0 0 0 0 0 0 0 0 0 0 0 0 0 0 0 0 0 0 0 0 0 0 0 0 0 0 0 0 0 0 0 0 0 0 0 0 0 0 0 0 4789.92 4738.25 4224.1 4388.05 3799.22 3724.83 3603.01 3578.95 3372.55 3258.52 3188.73 3310.47 3470.64 3505.81 3535.06 3467.2 3457.05 3523.78 3524.45 3679.09 3422.01 3191.03 3134.57 0 0 0 0 0 0 0 0 0 0 0 0 0 0 0 0 0 0 0 0 0 0 0 0 0 0 0 0 0 0 0 0 0 0 0 0 0 0 0 0 0 0 0 0 0 0 0 0 0 0 0 0 0 0 2009.98 2330.36 2476.14 2571.75 2648.39 3061.98 3027.01 3066.9 3148.1 3230.29 3297.13 3359.59 3254.66 3348.26 3235.83 3311.38 3323.39 3238.64 3318.33 3301.41 3329.06 3663.59 3466.27 3316.55 3158 2795.56 2541.52 1686.41 374.302 0 0 0 0 0 0 0 0 0 0 0 0 0 0 0 0 0 0 0 0 0 0 0 0 0 0 0 0 0 0 0 3188.85 3160.79 3268.1 3144.15 3108.32 3214.81 3205.54 3236.77 3282.17 3237.46 3249.18 3223.96 3271.16 3297.07 3216.85 3255.17 3207.26 3832.46 3962.53 5216.93 5301.99 3071.28 2944.61 2878.39 2559.86 2162.1 0 0 0 0 0 0 0 0 0 0 0 0 0 0 0 0 0 0 0 0 0 0 0 0 0 0 0 0 0 0 0 0 0 0 0 0 0 0 0 0 0 0 0 0 0 0 0 0 0 0 0 0 0 0 0 0 0 0 0 0 0 0 0 0 0 0 0 0 0 0 0 0 0 0 0 0 0 0 0 0 0 0 0 0 0 0 0 0 0 0 0 0 0 0 0 0 0 0 0 0 0 0 0 0 0 0 0 0 0 0 0 0 0 0 0 0 0 0 0 0 0 0 0 0 0 0 0 0 0 0 0 0 0 0 0 0 0 0 0 0 0 0 0 0 0 0 0 0 0 0 0 0 0 0 0 0 0 0 0 0 0 0 0 0 0 0 0 0 0 0 0 0 0 0 0 0 0 0 0 0 0 0 0 0 0 0 0 0 0 0 0 0 0 0 0 0 0 0 0 0 0 0 0 0 0 0 0 0 0 0 0 0 0 0 0 0 0 0 0 0 0 0 0 0 0 0 0 0 0 0 0 0 0 0 0 0 0 0 0 0 0 0 0 0 0 0 0 0 0 0 0 0 0 0 0 0 0 0 0 0 0 0 0 0 0 0 0 0 0 0
0 0 0 0 0 0 0 0 0 0 0 0 0 0 0 0 0 0 0 0 0 0 0 0 0 0 0 0 0 0 0 0 0 0 0 0 0 0 0 0 0 0 0 0 0 0 0 0 0 0 0 0 0 0 0 0 0 0 0 0 0 0 0 0 0 0 0 0 0 0 0 0 0 0 0 0 0 0 0 4610.52 4572.2 4001.65 4347.01 4360.56 4319.36 4294.93 4188.25 3970.12 3319.11 3261.69 3304.21 3430.06 3405.48 3462.91 3441.67 3456.34 3511.9 3568.14 3673.85 3534.84 3372.76 3336.27 3152.42 3063.77 0 0 0 0 0 0 0 0 0 0 0 0 0 0 0 0 0 0 0 0 0 0 0 0 0 0 0 0 0 0 0 0 0 0 0 0 0 0 0 0 0 0 0 0 0 0 0 0 1944.14 1865.75 2177.11 2342.46 2402.53 2589.13 2770.95 2792.86 2839.51 3082.91 3035.94 3098.85 3188.97 3242.77 3306.55 3326.35 3224.58 3318 3267.34 3341.99 3743.86 3175.15 3243.03 3233.03 3228.3 3519.27 3451.22 3277.36 3169.45 0 2675.98 1543.29 0 0 0 0 0 0 0 0 0 0 0 0 0 0 0 0 0 0 0 0 0 0 0 0 0 0 0 0 0 0 0 3274.87 3148.45 3045.75 3251.83 3273.84 3287.51 4030.69 3280.69 3340.33 3367.61 3324.97 3376.02 3284.61 3274.16 3321.15 3271.29 3858.55 3979.44 3801.98 4063.19 4079.79 3919.03 3246.1 3044.64 2878.68 0 1993.81 1439.04 984.149 0 0 0 0 0 0 0 0 0 0 0 0 0 0 0 0 0 0 0 0 0 0 0 0 0 0 0 0 0 0 0 0 0 0 0 0 0 0 0 0 0 0 0 0 0 0 0 0 0 0 0 0 0 0 0 0 0 0 0 0 0 0 0 0 0 0 0 0 0 0 0 0 0 0 0 0 0 0 0 0 0 0 0 0 0 0 0 0 0 0 0 0 0 0 0 0 0 0 0 0 0 0 0 0 0 0 0 0 0 0 0 0 0 0 0 0 0 0 0 0 0 0 0 0 0 0 0 0 0 0 0 0 0 0 0 0 0 0 0 0 0 0 0 0 0 0 0 0 0 0 0 0 0 0 0 0 0 0 0 0 0 0 0 0 0 0 0 0 0 0 0 0 0 0 0 0 0 0 0 0 0 0 0 0 0 0 0 0 0 0 0 0 0 0 0 0 0 0 0 0 0 0 0 0 0 0 0 0 0 0 0 0 0 0 0 0 0 0 0 0 0 0 0 0 0 0 0 0 0 0 0 0 0 0 0 0 0 0 0 0 0 0 0 0 0 0 0 0 0 0 0 0 0 0 0 0 0 0 0 0 0 0 0 0 0 0 0 0
0 0 0 0 0 0 0 0 0 0 0 0 0 0 0 0 0 0 0 0 0 0 0 0 0 0 0 0 0 0 0 0 0 0 0 0 0 0 0 0 0 0 0 0 0 0 0 0 0 0 0 0 0 0 0 0 0 0 0 0 0 0 0 0 0 0 0 0 0 0 0 0 0 0 0 0 0 0 0 4084.86 3934.19 3664.87 3754.84 3846.87 3830.1 4230.71 4205.15 3570.73 3459.55 3378.67 3421.03 3897 3793.73 3421.24 3449.66 3434.69 3438.56 3431.04 3541.41 3408.32 3214.01 3209.96 2967.69 0 2572.15 2646.64 3041.66 1403.85 0 0 0 0 0 0 0 0 0 0 0 0 0 0 0 0 0 0 0 0 0 0 0 0 0 0 0 0 0 0 0 0 0 0 0 0 0 0 0 0 0 0 0 0 0 0 2095.06 2331.68 2392.74 2537.83 2716.27 2749.07 2825.22 2999.95 2991.18 3056.57 3144.09 3221.48 3298.23 3329.85 3243.53 3326.42 3314.98 3367.07 3329.85 3231.03 3301.28 3252.08 3262.51 4183.76 3843.35 3370.32 3249.56 0 0 1698.17 0 0 0 0 0 0 0 0 0 0 0 0 0 0 0 0 0 0 0 0 0 0 0 0 0 0 0 0 0 0 0 3330.38 3199.37 3031.88 3284.8 3246.29 3246.35 4155.16 3319.97 3386.71 3380.44 3332.96 3436.8 3330.51 3343.79 3418.66 3319.7 3882.66 4002.13 3987.48 4200.1 4286.37 4273.05 4146.64 3175.09 3204.99 2955.4 2395.09 1759.98 909.321 639.016 819.298 651.801 0 0 0 0 0 0 0 0 0 0 0 0 0 0 0 0 0 0 0 0 0 0 0 0 0 0 0 0 0 0 0 0 0 0 0 0 0 0 0 0 0 0 0 0 0 0 0 0 0 0 0 0 0 0 0 0 0 0 0 0 0 0 0 0 0 0 0 0 0 0 0 0 0 0 0 0 0 0 0 0 0 0 0 0 0 0 0 0 0 0 0 0 0 0 0 0 0 0 0 0 0 0 0 0 0 0 0 0 0 0 0 0 0 0 0 0 0 0 0 0 0 0 0 0 0 0 0 0 0 0 0 0 0 0 0 0 0 0 0 0 0 0 0 0 0 0 0 0 0 0 0 0 0 0 0 0 0 0 0 0 0 0 0 0 0 0 0 0 0 0 0 0 0 0 0 0 0 0 0 0 0 0 0 0 0 0 0 0 0 0 0 0 0 0 0 0 0 0 0 0 0 0 0 0 0 0 0 0 0 0 0 0 0 0 0 0 0 0 0 0 0 0 0 0 0 0 0 0 0 0 0 0 0 0 0 0 0 0 0 0 0 0 0 0 0 0 0 0 0 0 0 0 0 0 0 0 0 0 0 0 0 0 0 0 0
0 0 0 0 0 0 0 0 0 0 0 0 0 0 0 0 0 0 0 0 0 0 0 0 0 0 0 0 0 0 0 0 0 0 0 0 0 0 0 0 0 0 0 0 0 0 0 0 0 0 0 0 0 0 0 0 0 0 0 0 0 0 0 0 0 0 0 0 0 0 0 0 0 0 0 0 0 0 3498.72 3856.42 3560.04 3456.41 3609.36 3686.61 3743.61 4848.76 4156.91 3608.98 3552.35 3503.91 3500.33 3923.88 3787.47 3525.33 3543.65 3535.59 3507.21 3422.29 3485.42 3399.55 3226.62 3238.08 2835.1 2652.12 2437.19 2642.18 2976.16 2116.42 0 0 0 0 0 0 0 0 0 0 0 0 0 0 0 0 0 0 0 0 0 0 0 0 0 0 0 0 0 0 0 0 0 0 0 0 0 0 0 0 0 0 0 0 0 0 2394.58 2624.33 2747.27 2791.79 2938.01 2929.8 2993.37 3080.59 3032.32 3069.43 3135.04 3152.42 3210.14 3241.9 3174.07 3255.36 3295 3394.94 3385.89 3299.27 3381.59 3340.99 3361 4114.61 3965.06 3552.88 3394.53 2830.12 2795.84 1811.93 0 0 0 0 0 0 0 0 0 0 0 0 0 0 0 0 0 0 0 0 0 0 0 0 0 0 0 0 0 0 3452.22 3475.75 3300.7 3179.36 3388.97 3342.52 3843.96 4193.59 3343.12 3409.01 3364.24 3284.74 3411.3 3337.14 3335.68 3405.69 3351.4 3805.51 3941.4 3992.13 4251.5 4336 4372.15 4260.03 3805.25 3341.99 3231.91 2706.02 2027.22 897.156 647.977 0 0 0 0 0 0 0 0 0 0 0 0 0 0 0 0 0 0 0 0 0 0 0 0 0 0 0 0 0 0 0 0 0 0 0 0 0 0 0 0 0 0 0 0 0 0 0 0 0 0 0 0 0 0 0 0 0 0 0 0 0 0 0 0 0 0 0 0 0 0 0 0 0 0 0 0 0 0 0 0 0 0 0 0 0 0 0 0 0 0 0 0 0 0 0 0 0 0 0 0 0 0 0 0 0 0 0 0 0 0 0 0 0 0 0 0 0 0 0 0 0 0 0 0 0 0 0 0 0 0 0 0 0 0 0 0 0 0 0 0 0 0 0 0 0 0 0 0 0 0 0 0 0 0 0 0 0 0 0 0 0 0 0 0 0 0 0 0 0 0 0 0 0 0 0 0 0 0 0 0 0 0 0 0 0 0 0 0 0 0 0 0 0 0 0 0 0 0 0 0 0 0 0 0 0 0 0 0 0 0 0 0 0 0 0 0 0 0 0 0 0 0 0 0 0 0 0 0 0 0 0 0 0 0 0 0 0 0 0 0 0 0 0 0 0 0 0 0 0 0 0 0 0 0 0 0 0 0 0 0 0 0 0 0 0 0 0
0 0 0 0 0 0 0 0 0 0 0 0 0 0 0 0 0 0 0 0 0 0 0 0 0 0 0 0 0 0 0 0 0 0 0 0 0 0 0 0 0 0 0 0 0 0 0 0 0 0 0 0 0 0 0 0 0 0 0 0 0 0 0 0 0 0 0 0 0 0 0 0 0 0 0 0 0 0 3305.51 3514.04 3384.66 3401.68 3641.4 3790.64 3806.72 3855.45 3779.79 3727.56 4101.63 4059.16 4041.66 4074.24 4007.01 3975.95 3903.16 3964.59 3530.45 3456.91 3435.96 3383.71 3271.16 3268.49 2985.22 2809.18 2615 2735.58 3004.35 2037.93 0 0 0 0 0 0 0 0 0 0 0 0 0 0 0 0 0 0 0 0 0 0 0 0 0 0 0 0 0 0 0 0 0 0 0 0 0 0 0 0 0 0 0 2159.54 2135.32 2295.35 2534.65 2693.2 2791.84 2785.12 2942.6 2903.99 2937.91 2983.2 2970.63 3021.5 3097.36 3072.63 3166.16 3168.19 3080.53 3178.82 3240.27 3300.12 3311.51 3237.83 3381.19 3326.55 3359.86 4365.44 4209.9 3720.78 3696.52 3158.77 3034.68 1584.92 598.212 557.832 0 0 0 0 0 0 0 0 0 0 0 0 0 0 0 0 0 0 0 0 0 0 0 0 0 0 0 0 3225.38 3274.93 3256.56 3169.75 3432.3 3374.59 3479.28 4155.78 3372.62 3432.37 3400.92 3315.9 3481.73 3405.13 3426.62 3485.28 3415.19 3806.9 3921.32 3973.88 4206.42 4265.34 4304.07 4199.78 3976.14 3265.81 3118.96 2754.03 2383.12 1039.28 670.225 0 0 0 0 0 0 0 0 0 0 0 0 0 0 0 0 0 0 0 0 0 0 0 0 0 0 0 0 0 0 0 0 0 0 0 0 0 0 0 0 0 0 0 0 0 0 0 0 0 0 0 0 0 0 0 0 0 0 0 0 0 0 0 0 0 0 0 0 0 0 0 0 0 0 0 0 0 0 0 0 0 0 0 0 0 0 0 0 0 0 0 0 0 0 0 0 0 0 0 0 0 0 0 0 0 0 0 0 0 0 0 0 0 0 0 0 0 0 0 0 0 0 0 0 0 0 0 0 0 0 0 0 0 0 0 0 0 0 0 0 0 0 0 0 0 0 0 0 0 0 0 0 0 0 0 0 0 0 0 0 0 0 0 0 0 0 0 0 0 0 0 0 0 0 0 0 0 0 0 0 0 0 0 0 0 0 0 0 0 0 0 0 0 0 0 0 0 0 0 0 0 0 0 0 0 0 0 0 0 0 0 0 0 0 0 0 0 0 0 0 0 0 0 0 0 0 0 0 0 0 0 0 0 0 0 0 0 0 0 0 0 0 0 0 0 0 0 0 0 0 0 0 0 0 0 0 0 0 0 0 0 0 0 0 0 0 0
0 0 0 0 0 0 0 0 0 0 0 0 0 0 0 0 0 0 0 0 0 0 0 0 0 0 0 0 0 0 0 0 0 0 0 0 0 0 0 0 0 0 0 0 0 0 0 0 0 0 0 0 0 0 0 0 0 0 0 0 0 0 0 0 0 0 0 0 0 0 0 0 0 0 0 0 2545.76 2892.98 3014.12 3328.79 3281.59 3290.34 3578.95 3785.51 3728.72 3829.14 3764.95 4305.18 4549.63 4095.52 4303.63 4054.26 3954.31 3927.93 3909.16 3932.71 3928.38 3467.2 4620.3 4786.51 3410.26 3473.66 3400.86 3191.39 0 0 0 0 0 0 0 0 0 0 0 0 0 0 0 0 0 0 0 0 0 0 0 0 0 0 0 0 0 0 0 0 0 0 0 0 0 0 0 0 0 0 0 0 0 0 0 0 0 0 2434.86 2600.13 2748.12 2819.57 3043.26 3048.79 3049.12 3039.84 3063.32 3139.62 3232.34 3185.82 3271.29 3224.76 3113.63 3199.37 3305.38 3351.94 3270.72 3172.03 3263.15 3141.44 3215.49 3613.87 3627.78 3584.92 3473.01 3063.6 0 0 0 0 0 0 0 0 0 0 0 0 0 0 0 0 0 0 0 0 0 0 0 0 0 0 0 0 0 0 0 0 3087.45 3153.54 3215.25 3179.48 3416.72 3426.34 4212.54 4124.01 3484.84 3507.35 3461.19 3388.01 3532.39 3446.33 3444 3481.44 3684.02 3809.57 3928.38 3946.22 4166.51 4251.94 4234.87 3949.93 3682.24 2917.22 2600.77 2222.35 1820.05 0 0 0 0 0 0 0 0 0 0 0 0 0 0 0 0 0 0 0 0 0 0 0 0 0 0 0 0 0 0 0 0 0 0 0 0 0 0 0 0 0 0 0 0 0 0 0 0 0 0 0 0 0 0 0 0 0 0 0 0 0 0 0 0 0 0 0 0 0 0 0 0 0 0 0 0 0 0 0 0 0 0 0 0 0 0 0 0 0 0 0 0 0 0 0 0 0 0 0 0 0 0 0 0 0 0 0 0 0 0 0 0 0 0 0 0 0 0 0 0 0 0 0 0 0 0 0 0 0 0 0 0 0 0 0 0 0 0 0 0 0 0 0 0 0 0 0 0 0 0 0 0 0 0 0 0 0 0 0 0 0 0 0 0 0 0 0 0 0 0 0 0 0 0 0 0 0 0 0 0 0 0 0 0 0 0 0 0 0 0 0 0 0 0 0 0 0 0 0 0 0 0 0 0 0 0 0 0 0 0 0 0 0 0 0 0 0 0 0 0 0 0 0 0 0 0 0 0 0 0 0 0 0 0 0 0 0 0 0 0 0 0 0 0 0 0 0 0 0 0 0 0 0 0 0 0 0 0 0 0 0 0 0 0 0 0 0 0 0
0 0 0 0 0 0 0 0 0 0 0 0 0 0 0 0 0 0 0 0 0 0 0 0 0 0 0 0 0 0 0 0 0 0 0 0 0 0 0 0 0 0 0 0 0 0 0 0 0 0 0 0 0 0 0 0 0 0 0 0 0 0 0 0 0 0 0 0 0 0 0 0 0 1863.59 0 2883.53 2522.64 2764.51 2986.7 3160.67 3167.53 3126.75 3380.71 3599.07 3644.17 3748.8 3723.84 4317.59 4604.83 4168.58 4368.97 4092.43 3992.99 3981.05 4009.59 3992.8 4039.71 3971.72 4636.9 4810.66 3497.85 3528.82 3379.82 3181.11 2996.15 3041.44 3227 0 0 0 0 0 0 0 0 0 0 0 0 0 0 0 0 0 0 0 0 0 0 0 0 0 0 0 0 0 0 0 0 0 0 0 0 0 0 0 0 0 0 0 0 0 0 0 2475.56 2558.46 2751.68 2929.04 3125 3126.92 3029.03 3031.22 3082.29 3162.7 3241.27 3199.55 3252.52 3217.71 3137.03 3260.04 3351.27 3403.41 3343.05 3270.21 3348.26 3280.89 3348.06 3723.09 3718.72 3692.53 3642.35 3274.74 0 0 0 0 0 0 0 0 0 0 0 0 0 0 0 0 0 0 0 0 0 0 0 0 0 0 0 0 0 0 0 3245.22 3152.89 3115.48 3186.36 3085.12 3955.8 4003.28 4334.76 4231.45 4106.75 4039.13 3921.22 3424.32 3563.07 3516.69 3467.84 3477.76 3761.83 3730.55 3859.7 3800.77 4041.95 4167.03 3983.22 3051.95 3051.45 2900.93 2607.68 2301.46 1814.99 729.243 0 0 0 0 0 0 0 0 0 0 0 0 0 0 0 0 0 0 0 0 0 0 0 0 0 0 0 0 0 0 0 0 0 0 0 0 0 0 0 0 0 0 0 0 0 0 0 0 0 0 0 0 0 0 0 0 0 0 0 0 0 0 0 0 0 0 0 0 0 0 0 0 0 0 0 0 0 0 0 0 0 0 0 0 0 0 0 0 0 0 0 0 0 0 0 0 0 0 0 0 0 0 0 0 0 0 0 0 0 0 0 0 0 0 0 0 0 0 0 0 0 0 0 0 0 0 0 0 0 0 0 0 0 0 0 0 0 0 0 0 0 0 0 0 0 0 0 0 0 0 0 0 0 0 0 0 0 0 0 0 0 0 0 0 0 0 0 0 0 0 0 0 0 0 0 0 0 0 0 0 0 0 0 0 0 0 0 0 0 0 0 0 0 0 0 0 0 0 0 0 0 0 0 0 0 0 0 0 0 0 0 0 0 0 0 0 0 0 0 0 0 0 0 0 0 0 0 0 0 0 0 0 0 0 0 0 0 0 0 0 0 0 0 0 0 0 0 0 0 0 0 0 0 0 0 0 0 0 0 0 0 0 0 0 0 0 0 0
0 0 0 0 0 0 0 0 0 0 0 0 0 0 0 0 0 0 0 0 0 0 0 0 0 0 0 0 0 0 0 0 0 0 0 0 0 0 0 0 0 0 0 0 0 0 0 0 0 0 0 0 0 0 0 0 0 0 0 0 0 0 0 0 0 0 0 0 0 0 0 0 0 2186.87 2562.21 2739.95 2346.62 2522.07 2769.67 2948.7 2949.43 2880.12 3136.27 3423.55 3486.87 3680.3 3651.47 3719.55 3705.01 3705.5 3659.59 4079.29 3990.33 3974.73 4019.39 4025.56 4057.79 4018.81 3288.73 3414.56 3299.14 3334.02 3212.72 2978.7 0 0 0 0 0 0 0 0 0 0 0 0 0 0 0 0 0 0 0 0 0 0 0 0 0 0 0 0 0 0 0 0 0 0 0 0 0 0 0 0 0 0 0 0 0 0 0 0 0 1874.23 2476.18 2438.32 2700.61 2898.42 3147.75 3098.11 3019.44 3029.69 3083.99 3146.68 3252.77 3187.7 3218.27 3187.27 3146.98 3252.83 3347.46 3402.79 3334.02 3248.43 3346.85 3335.34 3376.76 3652.66 3670.4 3590.29 3453.85 3165.14 0 0 0 0 0 0 0 0 0 0 0 0 0 0 0 0 0 0 0 0 0 0 0 0 0 0 0 0 0 0 0 3191.45 3080.47 3168.79 3267.85 3257.44 3995.55 3466.98 4137.95 4056.9 4127.16 4019 3932.44 3416.02 3512.79 3772.57 3804.48 3874.86 3855.18 3732.79 3859.61 3857.31 4037.96 4162.79 3853.85 2928.99 2927.4 2731.17 2411.03 2024.19 1452.18 811.374 0 0 0 0 0 0 0 0 0 0 0 0 0 0 0 0 0 0 0 0 0 0 0 0 0 0 0 0 0 0 0 0 0 0 0 0 0 0 0 0 0 0 0 0 0 0 0 0 0 0 0 0 0 0 0 0 0 0 0 0 0 0 0 0 0 0 0 0 0 0 0 0 0 0 0 0 0 0 0 0 0 0 0 0 0 0 0 0 0 0 0 0 0 0 0 0 0 0 0 0 0 0 0 0 0 0 0 0 0 0 0 0 0 0 0 0 0 0 0 0 0 0 0 0 0 0 0 0 0 0 0 0 0 0 0 0 0 0 0 0 0 0 0 0 0 0 0 0 0 0 0 0 0 0 0 0 0 0 0 0 0 0 0 0 0 0 0 0 0 0 0 0 0 0 0 0 0 0 0 0 0 0 0 0 0 0 0 0 0 0 0 0 0 0 0 0 0 0 0 0 0 0 0 0 0 0 0 0 0 0 0 0 0 0 0 0 0 0 0 0 0 0 0 0 0 0 0 0 0 0 0 0 0 0 0 0 0 0 0 0 0 0 0 0 0 0 0 0 0 0 0 0 0 0 0 0 0 0 0 0 0 0 0 0 0 0 0 0
0 0 0 0 0 0 0 0 0 0 0 0 0 0 0 0 0 0 0 0 0 0 0 0 0 0 0 0 0 0 0 0 0 0 0 0 0 0 0 0 0 0 0 0 0 0 0 0 0 0 0 0 0 0 0 0 0 0 0 0 0 0 0 0 0 0 0 0 0 0 0 0 0 2092.37 2361.62 2495.33 2008.73 2304.43 2623.79 2940.9 2894.82 2795.89 3029.52 3263.46 3380.64 3602.62 3589.75 3671.2 3628.49 3665.11 3621.67 3479.42 4265.56 4270.12 4373.41 4419.14 4427.18 3233.46 3134.34 3312.3 3211.37 3261.31 3231.47 2970.63 0 0 0 0 0 0 0 0 0 0 0 0 0 0 0 0 0 0 0 0 0 0 0 0 0 0 0 0 0 0 0 0 0 0 0 0 0 0 0 0 0 0 0 0 0 0 0 0 0 2010.63 2382.88 2354.79 2695.71 2976.27 3105.91 3107.81 3021.18 3075.56 3154.49 3266.2 3374.18 3289.96 3317.54 3282.49 3260.48 3364.44 3419.64 3436.8 3346.65 3220.06 3280.05 3224.95 3300.57 3448.88 3440.33 3561.33 3394.11 3170.29 0 0 0 0 0 0 0 0 0 0 0 0 0 0 0 0 0 0 0 0 0 0 0 0 0 0 0 0 0 0 0 0 2865.02 3146.27 3243.4 3224.89 3391.44 4729.7 3478.2 3492.82 3586.45 3617.22 3497.19 3418.73 3511.1 3482.96 3428.09 3842.47 3835.18 3669.52 3827.04 3741.53 3946.4 4066.74 3854.21 2926.13 2853.91 2515.12 2034.4 1625.45 1229.74 0 0 0 0 0 0 0 0 0 0 0 0 0 0 0 0 0 0 0 0 0 0 0 0 0 0 0 0 0 0 0 0 0 0 0 0 0 0 0 0 0 0 0 0 0 0 0 0 0 0 0 0 0 0 0 0 0 0 0 0 0 0 0 0 0 0 0 0 0 0 0 0 0 0 0 0 0 0 0 0 0 0 0 0 0 0 0 0 0 0 0 0 0 0 0 0 0 0 0 0 0 0 0 0 0 0 0 0 0 0 0 0 0 0 0 0 0 0 0 0 0 0 0 0 0 0 0 0 0 0 0 0 0 0 0 0 0 0 0 0 0 0 0 0 0 0 0 0 0 0 0 0 0 0 0 0 0 0 0 0 0 0 0 0 0 0 0 0 0 0 0 0 0 0 0 0 0 0 0 0 0 0 0 0 0 0 0 0 0 0 0 0 0 0 0 0 0 0 0 0 0 0 0 0 0 0 0 0 0 0 0 0 0 0 0 0 0 0 0 0 0 0 0 0 0 0 0 0 0 0 0 0 0 0 0 0 0 0 0 0 0 0 0 0 0 0 0 0 0 0 0 0 0 0 0 0 0 0 0 0 0 0 0 0 0 0 0 0 0
0 0 0 0 0 0 0 0 0 0 0 0 0 0 0 0 0 0 0 0 0 0 0 0 0 0 0 0 0 0 0 0 0 0 0 0 0 0 0 0 0 0 0 0 0 0 0 0 0 0 0 0 0 0 0 0 0 0 0 0 0 0 0 0 0 0 0 0 0 0 0 0 0 2009.35 2071.22 2184.28 1886.83 2167.15 2406.12 2660.83 2686.43 2691 2819.76 3119.42 3252.9 3513.08 3516.91 3589.75 3575.52 3645.83 3568.75 3468.85 4310.93 4313.48 4439.95 3345.12 3264.86 3207.07 3030.24 3203.34 2979.33 3033.91 2966.43 2528.57 0 0 0 0 0 0 0 0 0 0 0 0 0 0 0 0 0 0 0 0 0 0 0 0 0 0 0 0 0 0 0 0 0 0 0 0 0 0 0 0 0 0 0 0 0 0 0 0 0 0 2455.02 2500.09 2830.03 2981.45 3053.95 3053.56 3000.59 2960.67 3045.97 3178.52 3221.6 3201.69 3264.61 3232.72 3240.9 3326.95 3481.73 3498.58 3403.89 3372.01 3374.73 3298.49 4215.61 3494.28 3512.12 3540.29 3218.89 3003.28 0 2734.1 0 0 0 0 0 0 0 0 0 0 0 0 0 0 0 0 0 0 0 0 0 0 0 0 0 0 0 0 0 0 2755.57 3044.09 3202.79 4763.14 3326.22 4755.44 3990.71 3479.28 4009.49 3567.23 3452.79 3399.41 3473.08 3437.79 3783.72 3894.37 3896.09 3783.89 3897.45 3814.51 4006.62 4120.97 3969.09 3120.12 3037.64 2727.3 2241.92 1704.43 1218.89 638.226 0 0 0 0 0 0 0 0 0 0 0 0 0 0 0 0 0 0 0 0 0 0 0 0 0 0 0 0 0 0 0 0 0 0 2037.49 2137.72 2261.05 2539.9 2622.6 2648.9 2094.07 2174.4 2102.97 2309.82 0 2141.51 0 0 0 0 0 0 0 0 0 0 0 0 0 0 0 0 0 0 0 0 0 0 0 0 0 0 0 0 0 0 0 0 0 0 0 0 0 0 0 0 0 0 0 0 0 0 0 0 0 0 0 0 0 0 0 0 0 0 0 0 0 0 0 0 0 0 0 0 0 0 0 0 0 0 0 0 0 0 0 0 0 0 0 0 0 0 0 0 0 0 0 0 0 0 0 0 0 0 0 0 0 0 0 0 0 0 0 0 0 0 0 0 0 0 0 0 0 0 0 0 0 0 0 0 0 0 0 0 0 0 0 0 0 0 0 0 0 0 0 0 0 0 0 0 0 0 0 0 0 0 0 0 0 0 0 0 0 0 0 0 0 0 0 0 0 0 0 0 0 0 0 0 0 0 0 0 0 0 0 0 0 0 0 0 0 0 0 0 0 0 0 0 0 0 0 0 0 0 0 0 0 0 0 0 0 0 0 0 0 0 0 0 0 0 0 0 0 0 0 0 0 0
0 0 0 0 0 0 0 0 0 0 0 0 0 0 0 0 0 0 0 0 0 0 0 0 0 0 0 0 0 0 0 0 0 0 0 0 0 0 0 0 0 0 0 0 0 0 0 0 0 0 0 0 0 0 0 0 0 0 0 0 0 0 0 0 0 0 0 0 0 0 0 0 0 1635.32 1971.46 2113.4 2000.63 2119.09 2306.39 2560.1 2659.73 2732.99 2883.33 3147.45 3289.63 3542.98 3552.58 3619.56 3597.37 3639.66 3554.16 3466.2 3340.39 3315.24 3289.57 3293.31 3211.98 3137.5 2988.67 3121.51 2856.68 2810.07 2757.24 2400.75 2328.38 0 0 0 0 0 0 0 0 0 0 0 0 0 0 0 0 0 0 0 0 0 0 0 0 0 0 0 0 0 0 0 0 0 0 0 0 0 0 0 0 0 0 0 0 0 0 0 0 0 0 0 2742.51 2969.16 3025.86 3136.33 3093.25 3024.28 3081.44 3195.22 3216.97 3187.76 3261.12 3237.46 3228.05 3284.74 3455.2 3485.06 3448.1 3472.87 3512.86 3417.9 4225.7 3605.49 3574.76 3491.08 3101.2 2880.56 2893.03 2576.29 0 0 0 0 0 0 0 0 0 0 0 0 0 0 0 0 0 0 0 0 0 0 0 0 0 0 0 0 0 0 0 2979.44 3152.3 4927.5 3292.54 4851.14 3290.67 3349.13 3401.34 3413.52 3332.5 3268.36 3339.99 3906.07 3898.26 3773.25 4007.29 3888.96 4002.61 4109.47 4226.34 4223.57 3923.88 3049.57 3033.41 2829.46 2364.11 1805.42 1183.95 652.63 0 0 0 0 0 0 0 0 0 0 0 0 0 0 0 0 0 0 0 0 0 0 0 0 0 0 0 0 0 0 0 0 0 0 2506.81 2523.9 2551.38 2783.69 2779.12 2817.77 2462.15 2535.53 2444.22 2753.26 2808.05 2977.64 0 0 0 0 0 0 0 0 0 0 0 0 0 0 0 0 0 0 0 0 0 0 0 0 0 0 0 0 0 0 0 0 0 0 0 0 0 0 0 0 0 0 0 0 0 0 0 0 0 0 0 0 0 0 0 0 0 0 0 0 0 0 0 0 0 0 0 0 0 0 0 0 0 0 0 0 0 0 0 0 0 0 0 0 0 0 0 0 0 0 0 0 0 0 0 0 0 0 0 0 0 0 0 0 0 0 0 0 0 0 0 0 0 0 0 0 0 0 0 0 0 0 0 0 0 0 0 0 0 0 0 0 0 0 0 0 0 0 0 0 0 0 0 0 0 0 0 0 0 0 0 0 0 0 0 0 0 0 0 0 0 0 0 0 0 0 0 0 0 0 0 0 0 0 0 0 0 0 0 0 0 0 0 0 0 0 0 0 0 0 0 0 0 0 0 0 0 0 0 0 0 0 0 0 0 0 0 0 0 0 0 0 0 0 0 0 0 0 0 0 0 0
0 0 0 0 0 0 0 0 0 0 0 0 0 0 0 0 0 0 0 0 0 0 0 0 0 0 0 0 0 0 0 0 0 0 0 0 0 0 0 0 0 0 0 0 0 0 0 0 0 0 0 0 0 0 0 0 0 0 0 0 0 0 0 0 0 0 0 0 0 0 0 0 0 1870.4 0 2448.18 2414.05 2507.6 2664.63 2884.62 2890.54 2892.93 3039.68 3097.08 3163.06 3388.15 3414.56 3442.23 3415.19 3479.28 3428.23 3402.44 3346.65 3301.02 3287.83 3304.99 3244.15 3234.9 3109.59 3272.06 3046.08 2958.89 2987.13 2568.56 0 0 0 0 0 0 0 0 0 0 0 0 0 0 0 0 0 0 0 0 0 0 0 0 0 0 0 0 0 0 0 0 0 0 0 0 0 0 0 0 0 0 0 0 0 0 0 0 0 0 2427.11 2655.1 2923.02 3112.77 3166.64 3229.48 3143.91 3046.8 3087.5 3244.28 4310.71 3203.95 3307.27 3259.47 3261.31 3335.54 3512.93 3572.63 3504.06 3505.37 4100.63 3372.55 4146.85 3486.8 3469.13 3331.77 3060.97 3021.78 2837.21 2381.53 0 0 0 0 0 0 0 0 0 0 0 0 0 0 0 0 0 0 0 0 0 0 0 0 0 0 0 0 0 0 0 2883.58 3155.62 3351.6 3316.29 3271.99 3413.66 3442.87 3458.98 3435.53 3327.28 3294.48 3298.36 3796.82 3825.64 3925.99 3978.31 3809.49 3265.88 4052.1 4174.29 4030.98 3245.72 3095.31 3078.16 2465.84 1737.65 1458.34 0 0 0 0 0 0 0 0 0 0 0 0 0 0 0 0 0 0 0 0 0 0 0 0 0 0 0 0 0 0 0 0 0 0 0 2807.58 2537.45 2320.98 2384.17 2668.06 2768.16 2866.34 2573.41 2644.8 2638.94 2988.19 3163.95 3210.82 3079.97 2751.1 0 0 0 0 0 0 0 0 0 0 0 0 0 0 0 0 0 0 0 0 0 0 0 0 0 0 0 0 0 0 0 0 0 0 0 0 0 0 0 0 0 0 0 0 0 0 0 0 0 0 0 0 0 0 0 0 0 0 0 0 0 0 0 0 0 0 0 0 0 0 0 0 0 0 0 0 0 0 0 0 0 0 0 0 0 0 0 0 0 0 0 0 0 0 0 0 0 0 0 0 0 0 0 0 0 0 0 0 0 0 0 0 0 0 0 0 0 0 0 0 0 0 0 0 0 0 0 0 0 0 0 0 0 0 0 0 0 0 0 0 0 0 0 0 0 0 0 0 0 0 0 0 0 0 0 0 0 0 0 0 0 0 0 0 0 0 0 0 0 0 0 0 0 0 0 0 0 0 0 0 0 0 0 0 0 0 0 0 0 0 0 0 0 0 0 0 0 0 0 0 0 0 0 0 0 0 0 0 0 0 0 0 0 0 0 0 0 0 0 0
0 0 0 0 0 0 0 0 0 0 0 0 0 0 0 0 0 0 0 0 0 0 0 0 0 0 0 0 0 0 0 0 0 0 0 0 0 0 0 0 0 0 0 0 0 0 0 0 0 0 0 0 0 0 0 0 0 0 0 0 0 0 0 0 0 0 0 0 0 0 0 0 0 0 2572.54 2813.89 2783.82 2807.72 3012.77 3168.37 3345.19 3236.96 3263.91 3233.9 3241.65 3403.48 3402.72 3407.42 3350.8 3329.98 3311.71 3359.52 3306.55 3248.93 3262.89 4782.01 3235.02 3264.16 3212.91 3364.98 3124.77 3010.77 3214.38 0 0 0 0 0 0 0 0 0 0 0 0 0 0 0 0 0 0 0 0 0 0 0 0 0 0 0 0 0 0 0 0 0 0 0 0 0 0 0 0 0 0 0 0 0 0 0 0 0 0 0 0 2368.28 2684.24 2857.84 2962.81 3097.36 3009.74 2951.35 3030.4 3270.27 3278.58 3262.19 3400.72 3349.59 3367.21 3436.1 3616.21 3639.03 3513.23 3492.68 3517.65 3339.93 3455.35 3461.4 3377.51 3229.85 3081.38 3093.02 0 0 0 0 0 0 0 0 0 0 0 0 0 0 0 0 0 0 0 0 0 0 0 0 0 0 0 0 0 0 0 0 2247.57 2720.36 3126.86 3310.21 3318.39 3223.71 3386.51 3462.69 3461.98 3424.18 3341.46 3335.21 3280.31 3791.92 3864.24 3951.98 3995.65 3819.2 3182.98 3940.84 4038.45 3192.67 3092.45 2889.79 2746.37 2378.62 1703.27 1283.42 878.222 585.837 0 0 0 0 0 0 0 0 0 0 0 0 0 0 0 0 0 0 0 0 0 0 0 0 0 0 0 0 0 0 0 0 2653.42 2546.92 2399.82 2159.04 2362.91 2684.28 2746.37 2899.13 2724.38 2748.89 2730.63 3035.77 3218.76 3211.92 3228.42 3009.8 2567.38 2803.36 0 0 0 1448.93 1074.75 0 0 0 0 0 0 0 0 0 0 0 0 0 0 0 0 0 0 0 0 0 0 0 0 0 0 0 0 0 0 0 0 0 0 0 0 0 0 0 0 0 0 0 0 0 0 0 0 0 0 0 0 0 0 0 0 0 0 0 0 0 0 0 0 0 0 0 0 0 0 0 0 0 0 0 0 0 0 0 0 0 0 0 0 0 0 0 0 0 0 0 0 0 0 0 0 0 0 0 0 0 0 0 0 0 0 0 0 0 0 0 0 0 0 0 0 0 0 0 0 0 0 0 0 0 0 0 0 0 0 0 0 0 0 0 0 0 0 0 0 0 0 0 0 0 0 0 0 0 0 0 0 0 0 0 0 0 0 0 0 0 0 0 0 0 0 0 0 0 0 0 0 0 0 0 0 0 0 0 0 0 0 0 0 0 0 0 0 0 0 0 0 0 0 0 0 0 0 0 0 0 0 0 0 0 0 0 0 0 0 0 0 0
0 0 0 0 0 0 0 0 0 0 0 0 0 0 0 0 0 0 0 0 0 0 0 0 0 0 0 0 0 0 0 0 0 0 0 0 0 0 0 0 0 0 0 0 0 0 0 0 0 0 0 0 0 0 0 0 0 0 0 0 0 0 0 0 0 0 0 0 0 0 0 0 0 0 2523.59 2721.55 2836.2 2877.35 3081.89 3255.86 3364.17 3284.93 3256.62 3198.09 3247.8 3368.15 3345.19 3312.43 3208.73 3203.7 3227.12 3288.15 3260.55 3166.94 3148.16 4958.08 3172.27 3219.75 3122.21 3214.14 2953.17 2817.53 2872.18 0 0 0 0 0 0 0 0 0 0 0 0 0 0 0 0 0 0 0 0 0 0 0 0 0 0 0 0 0 0 0 0 0 0 0 0 0 0 0 0 0 0 0 0 0 0 0 0 0 0 0 0 2186.19 2598.32 2870.16 2977.17 3093.99 3140.62 3077.76 3127.68 3323.91 3312.1 3352.67 3392.05 3345.39 3401.82 3423.76 3618.47 3627.23 3499.53 3481.73 3358.18 3302.26 3906.98 3288.47 3222.41 2994.7 2921.85 2772.32 0 0 0 0 0 0 0 0 0 0 0 0 0 0 0 0 0 0 0 0 0 0 0 0 0 0 0 0 0 0 0 0 0 2854.29 3204.13 3444.99 3330.84 3252.52 3468.2 3500.77 3498.65 3429.57 3303.36 3300.51 3194.07 3916.83 3899.9 4017.27 4004.23 3011.96 3076.46 3147.98 3102.75 3211.61 3078.38 2857.31 2383.76 1845.19 1341.77 0 638.469 531.051 0 0 0 0 0 0 0 0 0 0 0 0 0 0 0 0 0 0 0 0 0 0 0 0 0 0 0 0 0 0 0 2737.58 2879.77 2874.29 2708.94 2462.55 2621.09 2867.32 2835.67 3001.24 2841.2 2875.38 2853.86 3118.96 3928.57 4106.45 3916.1 4825.19 2892.58 3132.7 2758.56 0 0 1452.7 962.73 0 0 0 0 0 0 0 0 0 0 0 0 0 0 0 0 0 0 0 0 0 0 0 0 0 0 0 0 0 0 0 0 0 0 0 0 0 0 0 0 0 0 0 0 0 0 0 0 0 0 0 0 0 0 0 0 0 0 0 0 0 0 0 0 0 0 0 0 0 0 0 0 0 0 0 0 0 0 0 0 0 0 0 0 0 0 0 0 0 0 0 0 0 0 0 0 0 0 0 0 0 0 0 0 0 0 0 0 0 0 0 0 0 0 0 0 0 0 0 0 0 0 0 0 0 0 0 0 0 0 0 0 0 0 0 0 0 0 0 0 0 0 0 0 0 0 0 0 0 0 0 0 0 0 0 0 0 0 0 0 0 0 0 0 0 0 0 0 0 0 0 0 0 0 0 0 0 0 0 0 0 0 0 0 0 0 0 0 0 0 0 0 0 0 0 0 0 0 0 0 0 0 0 0 0 0 0 0 0 0 0 0 0
0 0 0 0 0 0 0 0 0 0 0 0 0 0 0 0 0 0 0 0 0 0 0 0 0 0 0 0 0 0 0 0 0 0 0 0 0 0 0 0 0 0 0 0 0 0 0 0 0 0 0 0 0 0 0 0 0 0 0 0 0 0 0 0 0 0 0 0 0 0 0 0 2135.79 2479 2601.3 2746.23 2920.68 3055.9 3161.92 3259.34 3305.77 3254.66 3202.6 3133.4 3185.21 3286.67 3229.85 3175.45 3149.87 3160.02 3160.2 3256.18 3312.82 3276.91 3160.14 3213.71 3199.49 3159.54 3039.51 4195.79 2900.93 2654.6 2276.94 1986.96 0 0 0 0 0 0 0 0 0 0 0 0 0 0 0 0 0 0 0 0 0 0 0 0 0 0 0 0 0 0 0 0 0 0 0 0 0 0 0 0 0 0 0 0 0 0 0 0 0 0 0 2675.34 2949.17 3133.69 2966.85 3089.04 3131.88 3047.57 2989.69 3124.77 3119.25 3214.14 3248.55 3264.73 3345.32 3393.22 3533.65 3522.89 3529.71 3573.16 3453.28 3449.02 3534.25 3303.43 3127.62 2847.17 3097.88 2638.52 0 0 0 0 0 0 0 0 0 0 0 0 0 0 0 0 0 0 0 0 0 0 0 0 0 0 0 0 0 0 0 0 0 0 3031.93 3367.41 3201.5 3049.68 3291.76 3344.85 3333.82 3289.76 3196.32 3190.06 3083.08 3132.58 3953.1 4089.63 3302.19 3029.52 3067.18 3107.52 3140.03 3156.45 3026.52 2851.09 2298.31 1812.44 0 0 0 0 0 0 0 0 0 0 0 0 0 0 0 0 0 0 0 0 0 0 0 0 0 0 0 0 0 0 0 0 0 0 2669.08 2855.95 2874.44 2902.03 2786.74 2614.39 2648.94 2827.41 2868.54 3062.03 2994.97 3073.87 2992.24 3236.08 3928.48 4730.64 4120.77 4898.87 3097.54 3262.26 2944.2 0 2654.76 1879.14 1258.4 0 0 0 0 0 0 0 0 0 0 0 0 0 0 0 0 0 0 0 0 0 0 0 0 0 0 0 0 0 0 0 0 0 0 0 0 0 0 0 0 0 0 0 0 0 0 0 0 0 0 0 0 0 0 0 0 0 0 0 0 0 0 0 0 0 0 0 0 0 0 0 0 0 0 0 0 0 0 0 0 0 0 0 0 0 0 0 0 0 0 0 0 0 0 0 0 0 0 0 0 0 0 0 0 0 0 0 0 0 0 0 0 0 0 0 0 0 0 0 0 0 0 0 0 0 0 0 0 0 0 0 0 0 0 0 0 0 0 0 0 0 0 0 0 0 0 0 0 0 0 0 0 0 0 0 0 0 0 0 0 0 0 0 0 0 0 0 0 0 0 0 0 0 0 0 0 0 0 0 0 0 0 0 0 0 0 0 0 0 0 0 0 0 0 0 0 0 0 0 0 0 0 0 0 0 0 0 0 0 0 0 0 0
0 0 0 0 0 0 0 0 0 0 0 0 0 0 0 0 0 0 0 0 0 0 0 0 0 0 0 0 0 0 0 0 0 0 0 0 0 0 0 0 0 0 0 0 0 0 0 0 0 0 0 0 0 0 0 0 0 0 0 0 0 0 0 0 0 0 0 0 0 0 0 0 2171.11 2513.42 2735.22 2906.81 3117.04 3131.65 3264.1 3344.99 3354.01 3354.48 3307.27 3186.97 3209.03 3301.28 3216.23 3155.62 3105.1 3193.82 3120.06 3181.95 3212.29 3128.55 2970.1 3130.65 3085.86 3081.95 2791.75 2901.28 5784.18 2207.67 2070.86 1753.89 0 0 0 0 0 0 0 0 0 0 0 0 0 0 0 0 0 0 0 0 0 0 0 0 0 0 0 0 0 0 0 0 0 0 0 0 0 0 0 0 0 0 0 0 0 0 0 0 0 0 0 0 3064.94 3155.09 3048.46 3058.02 3254.66 3042.71 2944.15 3104.59 3130.13 3214.94 3311.91 3224.33 3331.83 3302.06 3481.73 3424.32 3456.2 3399.34 3328.6 3130.65 3310.86 3040.61 0 0 0 1858.64 0 0 0 0 0 0 0 0 0 0 0 0 0 0 0 0 0 0 0 0 0 0 0 0 0 0 0 0 0 0 0 0 0 0 2957.33 3519.05 3387.81 3115.89 3282.75 3429 3460.48 3434.83 3252.83 3232.16 3095.88 3085.29 3719.96 4028.17 3893.65 2932.77 2991.76 3027.06 4758.95 2906.81 2817.39 2607.36 1989.25 0 0 0 0 0 0 0 0 0 0 0 0 0 0 0 0 0 0 0 0 0 0 0 0 0 0 0 0 0 0 0 0 0 0 0 2698.31 2838.98 2883.03 2928.42 2877.69 2703.4 2744.03 2983.68 3081.49 3211.74 3174.13 3187.45 3140.38 3276.27 3383.03 4052.49 3432.65 3395.9 3139.26 4012.28 3066.74 3182.8 2785.16 2171.87 1706.72 1239.93 0 0 0 0 0 0 0 0 0 0 0 0 0 0 0 0 0 0 0 0 0 0 0 0 0 0 0 0 0 0 0 0 0 0 0 0 0 0 0 0 0 0 0 0 0 0 0 0 0 0 0 0 0 0 0 0 0 0 0 0 0 0 0 0 0 0 0 0 0 0 0 0 0 0 0 0 0 0 0 0 0 0 0 0 0 0 0 0 0 0 0 0 0 0 0 0 0 0 0 0 0 0 0 0 0 0 0 0 0 0 0 0 0 0 0 0 0 0 0 0 0 0 0 0 0 0 0 0 0 0 0 0 0 0 0 0 0 0 0 0 0 0 0 0 0 0 0 0 0 0 0 0 0 0 0 0 0 0 0 0 0 0 0 0 0 0 0 0 0 0 0 0 0 0 0 0 0 0 0 0 0 0 0 0 0 0 0 0 0 0 0 0 0 0 0 0 0 0 0 0 0 0 0 0 0 0 0 0 0 0 0 0
0 0 0 0 0 0 0 0 0 0 0 0 0 0 0 0 0 0 0 0 0 0 0 0 0 0 0 0 0 0 0 0 0 0 0 0 0 0 0 0 0 0 0 0 0 0 0 0 0 0 0 0 0 0 0 0 0 0 0 0 0 0 0 0 0 0 0 0 0 0 2129.98 2068.66 2069.07 2424.13 2692.12 2910.34 3206.89 3269.5 3329.26 3460.83 3468.06 3504.93 3371.13 3251.64 3280.44 3294.93 3190.91 3111.67 3051.56 3131.06 3071.06 3191.45 3225.75 3126.92 2989.42 3190.54 3225.82 3253.4 2868.49 2886.06 2657.12 2107.48 1936.86 1691.73 0 0 0 0 0 0 0 0 0 0 0 0 0 0 0 0 0 0 0 0 0 0 0 0 0 0 0 0 0 0 0 0 0 0 0 0 0 0 0 0 0 0 0 0 0 0 0 0 0 0 0 0 0 0 2802.84 2945.85 3145.98 2908.17 2865.16 3007.1 3016.13 3133.23 3304.99 3190.42 3242.27 3193.82 3382.82 3338.2 3456.48 3424.25 3316.82 3052.73 3275.63 3004.78 0 0 0 0 0 0 0 0 0 0 0 0 0 0 0 0 0 0 0 0 0 0 0 0 0 0 0 0 0 0 0 0 0 0 0 0 0 0 2792.77 3410.74 3242.65 2974.21 3077.71 3338.46 4732.64 4891.45 3153.13 4508.31 4626.41 4561.76 3807.5 4017.17 3736.44 2896.92 2978.22 3007.15 4436.9 2620.76 2550.33 2303.29 1722.08 0 0 0 0 0 0 0 0 0 0 0 0 0 0 0 0 0 0 0 0 0 0 0 0 0 0 0 0 0 0 0 0 0 0 2843.94 2940.85 2937.14 3037.2 3126.45 3112.82 2955.97 2988.46 3162.88 3236.15 3311.25 3353.34 3314.65 3239.77 3345.72 3436.1 3479.57 4068.81 4178.97 3148.93 3185.46 3011.8 3106.31 2678.88 2407.33 1861.58 0 0 0 0 0 0 0 0 0 0 0 0 0 0 0 0 0 0 0 0 0 0 0 0 0 0 0 0 0 0 0 0 0 0 0 0 0 0 0 0 0 0 0 0 0 0 0 0 0 0 0 0 0 0 0 0 0 0 0 0 0 0 0 0 0 0 0 0 0 0 0 0 0 0 0 0 0 0 0 0 0 0 0 0 0 0 0 0 0 0 0 0 0 0 0 0 0 0 0 0 0 0 0 0 0 0 0 0 0 0 0 0 0 0 0 0 0 0 0 0 0 0 0 0 0 0 0 0 0 0 0 0 0 0 0 0 0 0 0 0 0 0 0 0 0 0 0 0 0 0 0 0 0 0 0 0 0 0 0 0 0 0 0 0 0 0 0 0 0 0 0 0 0 0 0 0 0 0 0 0 0 0 0 0 0 0 0 0 0 0 0 0 0 0 0 0 0 0 0 0 0 0 0 0 0 0 0 0 0 0 0 0 0
0 0 0 0 0 0 0 0 0 0 0 0 0 0 0 0 0 0 0 0 0 0 0 0 0 0 0 0 0 0 0 0 0 0 0 0 0 0 0 0 0 0 0 0 0 0 0 0 0 0 0 0 0 0 0 0 0 0 0 0 0 0 0 0 0 0 0 0 0 0 2544.33 2392.22 2384.64 2522.07 2745.11 2904.7 3109.02 3226 3217.9 3221.23 3287.76 3335.48 3227.8 3177.31 3212.04 3245.6 3176.47 3115.54 3170.35 3224.39 3191.82 3368.76 3373.23 3286.15 3114.9 3298.04 3430.2 3348.12 2934.52 2768.66 2438.68 1788.02 1652.02 1565.56 0 0 0 0 0 0 0 0 0 0 0 0 0 0 0 0 0 0 0 0 0 0 0 0 0 0 0 0 0 0 0 0 0 0 0 0 0 0 0 0 0 0 0 0 0 0 0 0 0 0 0 0 0 0 0 3427.95 3542.23 3166.76 3118.72 3033.85 3004.51 3204.32 3366.87 3222.04 3200.16 3183.4 3458.34 3360.13 3646.63 3685.48 3547.77 3222.29 3252.39 0 0 0 0 0 0 0 0 0 0 0 0 0 0 0 0 0 0 0 0 0 0 0 0 0 0 0 0 0 0 0 0 0 0 0 0 0 0 0 2396.67 3007.8 2754.17 2654.26 2903.79 3139.91 3203.52 3170.59 3061.03 3120.64 3054.51 3108.27 3240.33 3816.51 3012.72 2928.27 3062.09 3104.7 2946.94 2672.4 2461.21 2189.01 1671.76 0 0 0 0 0 0 0 0 0 0 0 0 0 0 0 0 0 0 0 0 0 0 0 0 0 0 0 0 0 0 0 0 0 2864.97 2866.78 3060.97 3014.5 3161.98 3224.14 3234.09 3129.72 3128.67 3245.1 3294.93 3298.82 3389.59 3302.58 3246.92 3268.8 3314.2 3347.79 3967.59 4098.23 3093.31 3026.68 2954.1 3126.98 3006.29 2620.43 1990.78 0 0 0 0 0 0 0 0 0 0 0 0 0 0 0 0 0 0 0 0 0 0 0 0 0 0 0 0 0 0 0 0 0 0 0 0 0 0 0 0 0 0 0 0 0 0 0 0 0 0 0 0 0 0 0 0 0 0 0 0 0 0 0 0 0 0 0 0 0 0 0 0 0 0 0 0 0 0 0 0 0 0 0 0 0 0 0 0 0 0 0 0 0 0 0 0 0 0 0 0 0 0 0 0 0 0 0 0 0 0 0 0 0 0 0 0 0 0 0 0 0 0 0 0 0 0 0 0 0 0 0 0 0 0 0 0 0 0 0 0 0 0 0 0 0 0 0 0 0 0 0 0 0 0 0 0 0 0 0 0 0 0 0 0 0 0 0 0 0 0 0 0 0 0 0 0 0 0 0 0 0 0 0 0 0 0 0 0 0 0 0 0 0 0 0 0 0 0 0 0 0 0 0 0 0 0 0 0 0 0 0 0 0
0 0 0 0 0 0 0 0 0 0 0 0 0 0 0 0 0 0 0 0 0 0 0 0 0 0 0 0 0 0 0 0 0 0 0 0 0 0 0 0 0 0 0 0 0 0 0 0 0 0 0 0 0 0 0 0 0 0 0 0 0 0 0 0 0 0 0 0 0 0 0 2579.78 2635.91 2746.19 2909.99 3059.13 3224.33 3302.06 3299.53 3274.55 3391.09 3408.46 3292.86 3249.18 3300.76 3309.23 3211.49 3134.75 3198.76 3208.61 3175.99 3328.79 3313.35 3177.61 3009.26 3218.82 3350.2 4911.35 2813.04 2596.06 2351.32 1830.35 1688.04 1832.47 0 0 0 0 0 0 0 0 0 0 0 0 0 0 0 0 0 0 0 0 0 0 0 0 0 0 0 0 0 0 0 0 0 0 0 0 0 0 0 0 0 0 0 0 0 0 0 0 0 0 0 0 0 0 0 0 0 0 3288.99 3083.59 3151.47 3377.03 3491.59 3154.43 3076.07 2931.03 3069.04 2984.95 3356.7 3308.84 3091.94 2657.16 0 0 0 0 0 0 0 0 0 0 0 0 0 0 0 0 0 0 0 0 0 0 0 0 0 0 0 0 0 0 0 0 0 0 0 0 0 0 0 0 2265.72 3042.54 2860.04 2825.12 3042.16 3184.01 3314.26 3232.9 3121.92 3215.8 3144.38 3153.96 3291.12 3239.83 3072.07 2923.12 3128.09 3045.14 2853.91 0 0 0 0 0 0 0 0 0 0 0 0 0 0 0 0 0 0 0 0 0 0 0 0 0 0 0 0 0 0 0 0 0 0 0 2955.56 3054.68 2921.79 2855.7 2950.88 2875.77 3000.22 3093.37 3127.27 3026.14 3018.79 3156.09 3238.77 3282.62 3328 3291.76 3237.58 3234.4 3294.09 3753.92 3958.79 4041.85 3033.08 3063.21 2953.94 3139.44 3034.79 2615.9 2080.31 1586.49 753.089 0 0 0 0 0 0 0 0 0 0 0 0 0 0 0 0 0 0 0 0 0 0 0 0 0 0 0 0 0 0 0 0 0 0 0 0 0 0 0 0 0 0 0 0 0 0 0 0 0 0 0 0 0 0 0 0 0 0 0 0 0 0 0 0 0 0 0 0 0 0 0 0 0 0 0 0 0 0 0 0 0 0 0 0 0 0 0 0 0 0 0 0 0 0 0 0 0 0 0 0 0 0 0 0 0 0 0 0 0 0 0 0 0 0 0 0 0 0 0 0 0 0 0 0 0 0 0 0 0 0 0 0 0 0 0 0 0 0 0 0 0 0 0 0 0 0 0 0 0 0 0 0 0 0 0 0 0 0 0 0 0 0 0 0 0 0 0 0 0 0 0 0 0 0 0 0 0 0 0 0 0 0 0 0 0 0 0 0 0 0 0 0 0 0 0 0 0 0 0 0 0 0 0 0 0 0 0 0 0 0 0
0 0 0 0 0 0 0 0 0 0 0 0 0 0 0 0 0 0 0 0 0 0 0 0 0 0 0 0 0 0 0 0 0 0 0 0 0 0 0 0 0 0 0 0 0 0 0 0 0 0 0 0 0 0 0 0 0 0 0 0 0 0 0 0 0 0 0 0 0 0 2990.59 2806.64 2901.08 3002.85 3108.9 3270.46 3398.17 3533.43 3521.19 3470.93 3468.42 3464.69 3342.06 3290.28 3325.63 3301.22 3182.37 3105.28 3155.62 3220.86 3186.55 3341.39 3359.32 3099.88 2911.35 3122.9 3124.42 2940.69 2407.36 2147.18 1974.01 1473.66 1384.5 1602.2 1244 0 0 0 0 0 0 0 0 0 0 0 0 0 0 0 0 0 0 0 0 0 0 0 0 0 0 0 0 0 0 0 0 0 0 0 0 0 0 0 0 0 0 0 0 0 0 0 0 0 0 0 0 0 0 0 0 0 0 0 3023.14 3374.86 3525.11 3086.25 3046.14 2842.64 2932.06 2715.56 3046.74 2909.03 2552.39 0 0 0 0 0 0 0 0 0 0 0 0 0 0 0 0 0 0 0 0 0 0 0 0 0 0 0 0 0 0 0 0 0 0 0 0 0 0 0 0 0 0 0 0 0 0 3402.79 3689.04 3612.08 3305.58 3358.98 3292.67 3214.69 3236.83 3229.42 3095.59 2881.75 2991.55 2980.81 0 0 0 0 0 0 0 0 0 0 0 0 0 0 0 0 0 0 0 0 0 0 0 0 0 0 0 0 0 0 0 0 0 0 0 0 2892.03 3193.76 3057.18 2990.22 3051.18 2858.77 2947.41 3017.1 3054.45 2978.33 3028.59 3119.83 3186.12 3241.52 3301.74 3293.12 3277.87 3260.48 3302.45 3304.34 3847.31 3234.4 2971.73 3058.52 2810.64 2966.85 2908.93 0 0 0 990.354 0 0 0 0 0 0 0 0 0 0 0 0 0 0 0 0 0 0 0 0 0 0 0 0 0 0 0 0 0 0 0 0 0 0 0 0 0 0 0 0 0 0 0 0 0 0 0 0 0 0 0 0 0 0 0 0 0 0 0 0 0 0 0 0 0 0 0 0 0 0 0 0 0 0 0 0 0 0 0 0 0 0 0 0 0 0 0 0 0 0 0 0 0 0 0 0 0 0 0 0 0 0 0 0 0 0 0 0 0 0 0 0 0 0 0 0 0 0 0 0 0 0 0 0 0 0 0 0 0 0 0 0 0 0 0 0 0 0 0 0 0 0 0 0 0 0 0 0 0 0 0 0 0 0 0 0 0 0 0 0 0 0 0 0 0 0 0 0 0 0 0 0 0 0 0 0 0 0 0 0 0 0 0 0 0 0 0 0 0 0 0 0 0 0 0 0 0 0 0 0 0 0 0 0 0 0 0 0 0 0 0
0 0 0 0 0 0 0 0 0 0 0 0 0 0 0 0 0 0 0 0 0 0 0 0 0 0 0 0 0 0 0 0 0 0 0 0 0 0 0 0 0 0 0 0 0 0 0 0 0 0 0 0 0 0 0 0 0 0 0 0 0 0 0 0 0 0 0 0 0 0 2960.93 2836.39 2946.27 3014.29 3133.99 3286.35 3370.86 3431.46 3393.15 3316.95 3349.8 3310.6 3202.3 3164.31 3185.46 3176.77 3087.62 3020.42 3093.71 3104.82 3077.14 3231.03 3215.68 2975.21 2676.02 2904.9 2917.22 2708.64 2175.02 2040.96 1966.37 1391.17 1321.41 1796.18 1078.53 0 0 0 0 0 0 0 0 0 0 0 0 0 0 0 0 0 0 0 0 0 0 0 0 0 0 0 0 0 0 0 0 0 0 0 0 0 0 0 0 0 0 0 0 0 0 0 0 0 0 0 0 0 0 0 0 0 0 0 0 0 0 0 0 2700.35 2636.45 2486.34 0 0 0 0 0 0 0 0 0 0 0 0 0 0 0 0 0 0 0 0 0 0 0 0 0 0 0 0 0 0 0 0 0 0 0 0 0 0 0 0 0 0 0 0 0 0 0 0 0 2884.67 3290.34 3291.96 3147.81 3160.49 3172.33 3105.97 3174.31 3211.31 3003.71 2689.66 2868.3 0 0 0 0 0 0 0 0 0 0 0 0 0 0 0 0 0 0 0 0 0 0 0 0 0 0 0 0 0 0 0 0 0 0 0 0 0 2908.52 3078.21 3014.29 3010.44 2991.5 2728.46 2858.77 2986.81 3042.49 3086.31 3141.38 3185.58 3240.71 3299.86 3333.56 3307.27 3256.75 3267.09 3257.25 3265.94 3247.61 3160.49 2927.71 3039.57 2841.44 3115.54 2921.39 2644.8 2190.55 2022.21 1160.37 0 0 0 0 0 0 0 0 0 0 0 0 0 0 0 0 0 0 0 0 0 0 0 0 0 0 0 0 0 0 0 0 0 0 0 0 0 0 0 0 0 0 0 0 0 0 0 0 0 0 0 0 0 0 0 0 0 0 0 0 0 0 0 0 0 0 0 0 0 0 0 0 0 0 0 0 0 0 0 0 0 0 0 0 0 0 0 0 0 0 0 0 0 0 0 0 0 0 0 0 0 0 0 0 0 0 0 0 0 0 0 0 0 0 0 0 0 0 0 0 0 0 0 0 0 0 0 0 0 0 0 0 0 0 0 0 0 0 0 0 0 0 0 0 0 0 0 0 0 0 0 0 0 0 0 0 0 0 0 0 0 0 0 0 0 0 0 0 0 0 0 0 0 0 0 0 0 0 0 0 0 0 0 0 0 0 0 0 0 0 0 0 0 0 0 0 0 0 0 0 0 0 0 0 0 0 0 0 0 0 0
0 0 0 0 0 0 0 0 0 0 0 0 0 0 0 0 0 0 0 0 0 0 0 0 0 0 0 0 0 0 0 0 0 0 0 0 0 0 0 0 0 0 0 0 0 0 0 0 0 0 0 0 0 0 0 0 0 0 0 0 0 0 0 0 0 0 0 0 0 2903.09 2961.82 2855.27 2883.93 2939.04 3025.15 3211.25 3262.64 3293.51 3301.09 3267.28 3260.55 3239.52 3166.28 3135.98 3116.87 3117.45 3040.78 2944.15 2960.04 3006.94 2925.11 3010.93 2960.04 2792.95 2502.18 2580.02 2497.15 2371.4 1786.82 1820.91 1793.95 1175.08 954.216 780.568 0 0 0 0 0 0 0 0 0 0 0 0 0 0 0 0 0 0 0 0 0 0 0 0 0 0 0 0 0 0 0 0 0 0 0 0 0 0 0 0 0 0 0 0 0 0 0 0 0 0 0 0 0 0 0 0 0 0 0 0 0 0 0 0 0 0 0 0 0 0 0 0 0 0 0 0 0 0 0 0 0 0 0 0 0 0 0 0 0 0 0 0 0 0 0 0 0 0 0 0 0 0 0 0 0 0 0 0 0 0 0 0 0 0 0 0 0 0 0 0 3042.43 3008.66 3042.1 3036.82 3076.07 3117.39 2932.47 0 0 0 0 0 0 0 0 0 0 0 0 0 0 0 0 0 0 0 0 0 0 0 0 0 0 0 0 0 0 0 0 0 0 0 0 0 0 0 3177.61 3315.7 3522.15 3453.85 3373.03 3013.53 3054.4 3166.88 3206.21 3256.75 3257.44 3244.34 3278.83 3326.48 3364.44 3361.54 3319.51 3313.61 3271.1 3302.84 3261.94 3171.85 2915.4 3021.94 2795.75 2980.07 2769.94 2559.47 2220.26 0 1396.5 0 0 0 0 0 0 0 0 0 0 0 0 0 0 0 0 0 0 0 0 0 0 0 0 0 0 0 0 0 0 0 0 0 0 0 0 0 0 0 0 0 0 0 0 0 0 0 0 0 0 0 0 0 0 0 0 0 0 0 0 0 0 0 0 0 0 0 0 0 0 0 0 0 0 0 0 0 0 0 0 0 0 0 0 0 0 0 0 0 0 0 0 0 0 0 0 0 0 0 0 0 0 0 0 0 0 0 0 0 0 0 0 0 0 0 0 0 0 0 0 0 0 0 0 0 0 0 0 0 0 0 0 0 0 0 0 0 0 0 0 0 0 0 0 0 0 0 0 0 0 0 0 0 0 0 0 0 0 0 0 0 0 0 0 0 0 0 0 0 0 0 0 0 0 0 0 0 0 0 0 0 0 0 0 0 0 0 0 0 0 0 0 0 0 0 0 0 0 0 0 0 0 0 0 0 0 0 0 0 0 0
0 0 0 0 0 0 0 0 0 0 0 0 0 0 0 0 0 0 0 0 0 0 0 0 0 0 0 0 0 0 0 0 0 0 0 0 0 0 0 0 0 0 0 0 0 0 0 0 0 0 0 0 0 0 0 0 0 0 0 0 0 0 0 0 0 0 0 0 0 0 2847.08 2895.57 2936.62 2909.99 3006.18 3221.79 3262.64 3259.41 3231.53 3205.66 3173.59 3173.65 3143.21 3113.69 3091.83 3084.27 3040.5 2969.52 2982.93 3058.41 2974.37 3044.97 3002.9 2829.6 2608.13 2648.85 2582.76 2545.07 1820.5 1689.79 1602.4 857.525 771.572 0 0 0 0 0 0 0 0 0 0 0 0 0 0 0 0 0 0 0 0 0 0 0 0 0 0 0 0 0 0 0 0 0 0 0 0 0 0 0 0 0 0 0 0 0 0 0 0 0 0 0 0 0 0 0 0 0 0 0 0 0 0 0 0 0 0 0 0 0 0 0 0 0 0 0 0 0 0 0 0 0 0 0 0 0 0 0 0 0 0 0 0 0 0 0 0 0 0 0 0 0 0 0 0 0 0 0 0 0 0 0 0 0 0 0 0 0 0 0 0 0 0 0 0 0 0 0 0 0 0 0 0 0 0 0 0 0 0 0 0 0 0 0 0 0 0 0 0 0 0 0 0 0 0 0 0 0 0 0 0 0 0 0 0 0 0 0 0 0 3587.91 3500.18 3398.86 3063.94 3122.44 3167.12 3217.84 3297 3284.55 3263.59 3296.87 3322.53 3360.13 3352.87 3330.45 3289.7 3212.78 3232.16 3181.23 3081.38 2932.47 2973.31 2832.94 2904.04 2853.71 2740 0 0 0 0 0 0 0 0 0 0 0 0 0 0 0 0 0 0 0 0 0 0 0 0 0 0 0 0 0 0 0 0 0 0 0 0 0 0 0 0 0 0 0 0 0 0 0 0 0 0 0 0 0 0 0 0 0 0 0 0 0 0 0 0 0 0 0 0 0 0 0 0 0 0 0 0 0 0 0 0 0 0 0 0 0 0 0 0 0 0 0 0 0 0 0 0 0 0 0 0 0 0 0 0 0 0 0 0 0 0 0 0 0 0 0 0 0 0 0 0 0 0 0 0 0 0 0 0 0 0 0 0 0 0 0 0 0 0 0 0 0 0 0 0 0 0 0 0 0 0 0 0 0 0 0 0 0 0 0 0 0 0 0 0 0 0 0 0 0 0 0 0 0 0 0 0 0 0 0 0 0 0 0 0 0 0 0 0 0 0 0 0 0 0 0 0 0 0 0 0 0 0 0 0 0 0 0 0 0 0 0 0 0 0
0 0 0 0 0 0 0 0 0 0 0 0 0 0 0 0 0 0 0 0 0 0 0 0 0 0 0 0 0 0 0 0 0 0 0 0 0 0 0 0 0 0 0 0 0 0 0 0 0 0 0 0 0 0 0 0 0 0 0 0 0 0 0 0 0 0 0 0 0 0 2727.75 2809.46 2911.15 2852.26 3007.42 3202.54 3249.81 4295.15 3212.78 3201.69 3187.39 3180.99 3154.49 3117.33 3137.97 3103.55 3090.12 2992.46 2957.75 3032.1 2948.13 3036.76 2979.33 2717.98 2580.85 2597.03 2584.19 2634.55 1877.98 1823.53 1717.61 975.623 865.001 0 0 0 0 0 0 0 0 0 0 0 0 0 0 0 0 0 0 0 0 0 0 0 0 0 0 0 0 0 0 0 0 0 0 0 0 0 0 0 0 0 0 0 0 0 0 0 0 0 0 0 0 0 0 0 0 0 0 0 0 0 0 0 0 0 0 0 0 0 0 0 0 0 0 0 0 0 0 0 0 0 0 0 0 0 0 0 0 0 0 0 0 0 0 0 0 0 0 0 0 0 0 0 0 0 0 0 0 0 0 0 0 0 0 0 0 0 0 0 0 0 0 0 0 0 0 0 0 0 0 0 0 0 0 0 0 0 0 0 0 0 0 0 0 0 0 0 0 0 0 0 0 0 0 0 0 0 0 0 0 0 0 0 0 0 0 0 0 0 3156.69 3221.73 3344.45 3021.89 3093.02 3129.84 3195.89 3278.9 3350.87 3325.69 3343.85 3331.24 3328.4 3332.63 3318.13 3271.54 3198.02 3115.02 3073.36 2983.41 2896.37 2946.89 2809.93 2753.08 2725.58 0 0 0 0 0 0 0 0 0 0 0 0 0 0 0 0 0 0 0 0 0 0 0 0 0 0 0 0 0 0 0 0 0 0 0 0 0 0 0 0 0 0 0 0 0 0 0 0 0 0 0 0 0 0 0 0 0 0 0 0 0 0 0 0 0 0 0 0 0 0 0 0 0 0 0 0 0 0 0 0 0 0 0 0 0 0 0 0 0 0 0 0 0 0 0 0 0 0 0 0 0 0 0 0 0 0 0 0 0 0 0 0 0 0 0 0 0 0 0 0 0 0 0 0 0 0 0 0 0 0 0 0 0 0 0 0 0 0 0 0 0 0 0 0 0 0 0 0 0 0 0 0 0 0 0 0 0 0 0 0 0 0 0 0 0 0 0 0 0 0 0 0 0 0 0 0 0 0 0 0 0 0 0 0 0 0 0 0 0 0 0 0 0 0 0 0 0 0 0 0 0 0 0 0 0 0 0 0 0 0 0 0 0 0 0
0 0 0 0 0 0 0 0 0 0 0 0 0 0 0 0 0 0 0 0 0 0 0 0 0 0 0 0 0 0 0 0 0 0 0 0 0 0 0 0 0 0 0 0 0 0 0 0 0 0 0 0 0 0 0 0 0 0 0 0 0 0 0 0 0 0 0 0 0 0 2611.46 2863.16 2933.19 2871.73 3005.75 3198.7 3232.22 3241.21 3211 3229.54 3198.15 3189.51 3116.99 3095.19 3097.65 3071.51 3072.97 2991.18 2946.73 2999.57 2948.08 3114.21 3087.84 2875.23 2782.07 2724.87 2791.37 2744.79 2121.85 2198.68 1921.03 957.795 581.157 0 0 0 0 0 0 0 0 0 0 0 0 0 0 0 0 0 0 0 0 0 0 0 0 0 0 0 0 0 0 0 0 0 0 0 0 0 0 0 0 0 0 0 0 0 0 0 0 0 0 0 0 0 0 0 0 0 0 0 0 0 0 0 0 0 0 0 0 0 0 0 0 0 0 0 0 0 0 0 0 0 0 0 0 0 0 0 0 0 0 0 0 0 0 0 0 0 0 0 0 0 0 0 0 0 0 0 0 0 0 0 0 0 0 0 0 0 0 0 0 0 0 0 0 0 0 0 0 0 0 0 0 0 0 0 0 0 0 0 0 0 0 0 0 0 0 0 0 0 0 0 0 0 0 0 0 0 0 0 0 0 0 0 0 0 0 0 0 0 3139.73 3336.54 3426.83 3022.81 3113.05 3151.06 3200.89 3254.85 3336.67 3317.74 3301.22 3310.08 3324.77 3303.95 3256.24 3212.6 3175.39 3092.85 3056.96 2986.76 2873.75 2856.92 2753.76 2795.42 2805.09 2883.18 0 0 0 0 0 0 0 0 0 0 0 0 0 0 0 0 0 0 0 0 0 0 0 0 0 0 0 0 0 0 0 0 0 0 0 0 0 0 0 0 0 0 0 0 0 0 0 0 0 0 0 0 0 0 0 0 0 0 0 0 0 0 0 0 0 0 0 0 0 0 0 0 0 0 0 0 0 0 0 0 0 0 0 0 0 0 0 0 0 0 0 0 0 0 0 0 0 0 0 0 0 0 0 0 0 0 0 0 0 0 0 0 0 0 0 0 0 0 0 0 0 0 0 0 0 0 0 0 0 0 0 0 0 0 0 0 0 0 0 0 0 0 0 0 0 0 0 0 0 0 0 0 0 0 0 0 0 0 0 0 0 0 0 0 0 0 0 0 0 0 0 0 0 0 0 0 0 0 0 0 0 0 0 0 0 0 0 0 0 0 0 0 0 0 0 0 0 0 0 0 0 0 0 0 0 0 0 0 0 0 0 0 0 0
0 0 0 0 0 0 0 0 0 0 0 0 0 0 0 0 0 0 0 0 0 0 0 0 0 0 0 0 0 0 0 0 0 0 0 0 0 0 0 0 0 0 0 0 0 0 0 0 0 0 0 0 0 0 0 0 0 0 0 0 0 0 0 0 0 0 0 0 0 0 2699.66 2966.43 3089.78 2947.1 3047.68 3251.45 3229.54 3955.05 3180.69 3733.62 3106.02 3682.89 3662.79 3042.32 3049.4 3041.55 3062.09 2976.64 2968.05 3010.39 2858.23 2981.66 2942.65 2697.75 2597.47 2408.88 2449.57 2297.08 1810.48 1876.03 1573.19 911.505 0 0 0 0 0 0 0 0 0 0 0 0 0 0 0 0 0 0 0 0 0 0 0 0 0 0 0 0 0 0 0 0 0 0 0 0 0 0 0 0 0 0 0 0 0 0 0 0 0 0 0 0 0 0 0 0 0 0 0 0 0 0 0 0 0 0 0 0 0 0 0 0 0 0 0 0 0 0 0 0 0 0 0 0 0 0 0 0 0 0 0 0 0 0 0 0 0 0 0 0 0 0 0 0 0 0 0 0 0 0 0 0 0 0 0 0 0 0 0 0 0 0 0 0 0 0 0 0 0 0 0 0 0 0 0 0 0 0 0 0 0 0 0 0 0 0 0 0 0 0 0 0 0 0 0 0 0 0 0 0 0 0 0 0 0 0 0 0 0 0 3083.76 3244.84 3266.39 2937.96 3023.25 3060.36 3102.06 3202.3 3246.35 3281.85 3286.8 3282.81 3245.6 3247.36 3212.23 3153.43 3091.54 2990.16 2909.33 2823.17 2798.45 2822.65 2700.48 2677.09 2719.26 2736.56 0 0 0 0 0 0 0 0 0 0 0 0 0 0 0 0 0 0 0 0 0 0 0 0 0 0 0 0 0 0 0 0 0 0 0 0 0 0 0 0 0 0 0 0 0 0 0 0 0 0 0 0 0 0 0 0 0 0 0 0 0 0 0 0 0 0 0 0 0 0 0 0 0 0 0 0 0 0 0 0 0 0 0 0 0 0 0 0 0 0 0 0 0 0 0 0 0 0 0 0 0 0 0 0 0 0 0 0 0 0 0 0 0 0 0 0 0 0 0 0 0 0 0 0 0 0 0 0 0 0 0 0 0 0 0 0 0 0 0 0 0 0 0 0 0 0 0 0 0 0 0 0 0 0 0 0 0 0 0 0 0 0 0 0 0 0 0 0 0 0 0 0 0 0 0 0 0 0 0 0 0 0 0 0 0 0 0 0 0 0 0 0 0 0 0 0 0 0 0 0 0 0 0 0 0 0 0 0 0 0 0 0 0 0
0 0 0 0 0 0 0 0 0 0 0 0 0 0 0 0 0 0 0 0 0 0 0 0 0 0 0 0 0 0 0 0 0 0 0 0 0 0 0 0 0 0 0 0 0 0 0 0 0 0 0 0 0 0 0 0 0 0 0 0 0 0 0 0 0 0 0 0 0 0 2730.99 3157.05 3257.89 3135.45 3191.09 3360.73 3302.26 3995.84 4024.59 3953 3827.22 4108.06 4002.23 3093.77 3080.76 3060.02 3091.6 2933.34 2845.44 2876.21 2702.75 2830.65 2833.66 2637.9 2582.88 2366.85 2358.4 2224 1793.81 1929.85 1886.34 0 0 0 0 0 0 0 0 0 0 0 0 0 0 0 0 0 0 0 0 0 0 0 0 0 0 0 0 0 0 0 0 0 0 0 0 0 0 0 0 0 0 0 0 0 0 0 0 0 0 0 0 0 0 0 0 0 0 0 0 0 0 0 0 0 0 0 0 0 0 0 0 0 0 0 0 0 0 0 0 0 0 0 0 0 0 0 0 0 0 0 0 0 0 0 0 0 0 0 0 0 0 0 0 0 0 0 0 0 0 0 0 0 0 0 0 0 0 0 0 0 0 0 0 0 0 0 0 0 0 0 0 0 0 0 0 0 0 0 0 0 0 0 0 0 0 0 0 0 0 0 0 0 0 0 0 0 0 0 0 0 0 0 0 0 0 0 0 0 0 0 3026.25 3251.2 3239.52 2987.45 2957.96 3019.06 3084.84 3161.98 3254.16 4015.06 3978.78 3327.61 3244.66 3305.06 3259.28 3217.84 3196.44 3080.7 3023.19 2891.38 2831.84 2865.31 2670.82 2655.31 2550.99 2501.92 2548.62 2627 2637.2 0 0 0 0 0 0 0 0 0 0 0 0 0 0 0 0 0 0 0 0 0 0 0 0 0 0 0 0 0 0 0 0 0 0 0 0 0 0 0 0 0 0 0 0 0 0 0 0 0 0 0 0 0 0 0 0 0 0 0 0 0 0 0 0 0 0 0 0 0 0 0 0 0 0 0 0 0 0 0 0 0 0 0 0 0 0 0 0 0 0 0 0 0 0 0 0 0 0 0 0 0 0 0 0 0 0 0 0 0 0 0 0 0 0 0 0 0 0 0 0 0 0 0 0 0 0 0 0 0 0 0 0 0 0 0 0 0 0 0 0 0 0 0 0 0 0 0 0 0 0 0 0 0 0 0 0 0 0 0 0 0 0 0 0 0 0 0 0 0 0 0 0 0 0 0 0 0 0 0 0 0 0 0 0 0 0 0 0 0 0 0 0 0 0 0 0 0 0 0 0 0 0 0 0 0 0 0 0 0 0 0
0 0 0 0 0 0 0 0 0 0 0 0 0 0 0 0 0 0 0 0 0 0 0 0 0 0 0 0 0 0 0 0 0 0 0 0 0 0 0 0 0 0 0 0 0 0 0 0 0 0 0 0 0 0 0 0 0 0 0 0 0 0 0 0 0 0 0 0 0 0 2491.11 3024.72 3197.54 3070.61 3161.86 3318.13 3263.84 3903.43 3988.81 3234.59 3097.19 3123.66 3074.94 3037.75 3012.01 2958.63 3007.15 2836.87 2794.58 2888.49 2628.4 2665.43 2619.49 2424.2 2424.83 2105.87 2159.54 1940.85 0 0 0 0 0 0 0 0 0 0 0 0 0 0 0 0 0 0 0 0 0 0 0 0 914.097 941.742 847.322 733.4 0 0 0 0 0 0 0 0 0 0 0 0 0 0 0 0 0 0 0 0 0 0 0 0 0 0 0 0 0 0 0 0 0 0 0 0 0 0 0 0 0 0 0 0 0 0 0 0 0 0 0 0 0 0 0 0 0 0 0 0 0 0 0 0 0 0 0 0 0 0 0 0 0 0 0 0 0 0 0 0 0 0 0 0 0 0 0 0 0 0 0 0 0 0 0 0 0 0 0 0 0 0 0 0 0 0 0 0 0 0 0 0 0 0 0 0 0 0 0 0 0 0 0 0 0 0 0 0 0 0 0 0 0 0 0 0 0 0 0 0 0 0 0 0 0 0 2834.09 3160.02 3312.36 3185.64 3193.16 3216.11 3291.7 3338.93 3428.51 3567.08 4255.93 4101.23 3316.03 3357.97 3298.43 3246.48 3221.91 3096.96 3072.41 2970.47 2951.19 2947.56 2688.8 2628.36 2503.78 2529.57 2669.25 2738.43 2504.83 0 0 0 0 0 0 0 0 0 0 0 0 0 0 0 0 0 0 0 0 0 0 0 0 0 0 0 0 0 0 0 0 0 0 0 0 0 0 0 0 0 0 0 0 0 0 0 0 0 0 0 0 0 0 0 0 0 0 0 0 0 0 0 0 0 0 0 0 0 0 0 0 0 0 0 0 0 0 0 0 0 0 0 0 0 0 0 0 0 0 0 0 0 0 0 0 0 0 0 0 0 0 0 0 0 0 0 0 0 0 0 0 0 0 0 0 0 0 0 0 0 0 0 0 0 0 0 0 0 0 0 0 0 0 0 0 0 0 0 0 0 0 0 0 0 0 0 0 0 0 0 0 0 0 0 0 0 0 0 0 0 0 0 0 0 0 0 0 0 0 0 0 0 0 0 0 0 0 0 0 0 0 0 0 0 0 0 0 0 0 0 0 0 0 0 0 0 0 0 0 0 0 0 0 0 0 0 0 0 0 0
0 0 0 0 0 0 0 0 0 0 0 0 0 0 0 0 0 0 0 0 0 0 0 0 0 0 0 0 0 0 0 0 0 0 0 0 0 0 0 0 0 0 0 0 0 0 0 0 0 0 0 0 0 0 0 0 0 0 0 0 0 0 0 0 0 0 0 0 0 0 2214.35 2831.13 3024.83 2909.84 3046.97 3224.95 3868.78 3046.41 3129.84 3135.51 3047.68 3081.49 3027.88 2986.97 2972.21 2963.07 3047.74 2869.87 2874.88 2918.49 2638.19 2719.61 2694.28 2543.49 2510.75 2210.9 2362.85 1872.26 0 0 0 0 0 0 0 0 0 0 0 0 0 0 0 0 0 0 0 0 0 0 0 0 0 1458.09 0 0 0 0 0 0 0 0 0 0 0 0 0 0 0 0 0 0 0 0 0 0 0 0 0 0 0 0 0 0 0 0 0 0 0 0 0 0 0 0 0 0 0 0 0 0 0 0 0 0 0 0 0 0 0 0 0 0 0 0 0 0 0 0 0 0 0 0 0 0 0 0 0 0 0 0 0 0 0 0 0 0 0 0 0 0 0 0 0 0 0 0 0 0 0 0 0 0 0 0 0 0 0 0 0 0 0 0 0 0 0 0 0 0 0 0 0 0 0 0 0 0 0 0 0 0 0 0 0 0 0 0 0 0 0 0 0 0 0 0 0 0 0 0 0 0 0 0 2577.6 3026.57 3127.27 3246.23 3320.36 3291.89 3335.74 3396.86 3417.2 4375 4308.16 3467.56 3320.76 3326.81 3266.26 3240.77 3176.05 3116.06 3052.68 2901.78 2897.87 2901.48 2685.83 2646.72 2533.08 2557.72 2672.18 2574.67 2243.6 0 0 0 0 0 0 0 0 0 0 0 0 0 0 0 0 0 0 0 0 0 0 0 0 0 0 0 0 0 0 0 0 0 0 0 0 0 0 0 0 0 0 0 0 0 0 0 0 0 0 0 0 0 0 0 0 0 0 0 0 0 0 0 0 0 0 0 0 0 0 0 0 0 0 0 0 0 0 0 0 0 0 0 0 0 0 0 0 0 0 0 0 0 0 0 0 0 0 0 0 0 0 0 0 0 0 0 0 0 0 0 0 0 0 0 0 0 0 0 0 0 0 0 0 0 0 0 0 0 0 0 0 0 0 0 0 0 0 0 0 0 0 0 0 0 0 0 0 0 0 0 0 0 0 0 0 0 0 0 0 0 0 0 0 0 0 0 0 0 0 0 0 0 0 0 0 0 0 0 0 0 0 0 0 0 0 0 0 0 0 0 0 0 0 0 0 0 0 0 0 0 0 0 0 0 0 0 0 0 0 0
0 0 0 0 0 0 0 0 0 0 0 0 0 0 0 0 0 0 0 0 0 0 0 0 0 0 0 0 0 0 0 0 0 0 0 0 0 0 0 0 0 0 0 0 0 0 0 0 0 0 0 0 0 0 0 0 0 0 0 0 0 0 0 0 0 0 0 0 0 0 2252.49 2781.1 2965.01 2914.64 2998.13 3171.73 3101.32 3078.21 3189.94 3202.48 3113 3838.25 3085.8 3051.62 3057.91 3075.28 3117.62 2924.7 2941.62 3021.78 2726.77 2836.34 2883.08 2683.68 2615.94 2344.82 0 0 0 0 0 0 0 0 0 0 0 0 0 0 0 0 0 0 0 0 0 0 0 0 0 0 0 0 0 0 0 0 1574.74 0 0 0 1423.84 0 0 0 0 0 0 0 0 0 0 0 0 0 0 0 0 0 0 0 0 0 0 0 0 0 0 0 0 0 0 0 0 0 0 0 0 0 0 0 0 0 0 0 0 0 0 0 0 0 0 0 0 0 0 0 0 0 0 0 0 0 0 0 0 0 0 0 0 0 0 0 0 0 0 0 0 0 0 0 0 0 0 0 0 0 0 0 0 0 0 0 0 0 0 0 0 0 0 0 0 0 0 0 0 0 0 0 0 0 0 0 0 0 0 0 0 0 0 0 0 0 0 0 0 0 0 0 0 0 0 0 0 0 0 0 0 0 0 0 2403.19 2863.26 5206.56 3314.79 3315.24 3313.02 3347.59 3308.64 4199.99 4446.19 4396.67 3446.19 3333.62 3355.15 3334.68 3269.95 3219.69 3184.85 3121.97 2961.24 2977.32 2969.1 2747.85 2598.52 2538.1 2740.31 2902.39 2509.59 2348.07 0 0 0 0 0 0 0 0 0 0 0 0 0 0 0 0 0 0 0 0 0 0 0 0 0 0 0 0 0 0 0 0 0 0 0 0 0 0 0 0 0 0 0 0 0 0 0 0 0 0 0 0 0 0 0 0 0 0 0 0 0 0 0 0 0 0 0 0 0 0 0 0 0 0 0 0 0 0 0 0 0 0 0 0 0 0 0 0 0 0 0 0 0 0 0 0 0 0 0 0 0 0 0 0 0 0 0 0 0 0 0 0 0 0 0 0 0 0 0 0 0 0 0 0 0 0 0 0 0 0 0 0 0 0 0 0 0 0 0 0 0 0 0 0 0 0 0 0 0 0 0 0 0 0 0 0 0 0 0 0 0 0 0 0 0 0 0 0 0 0 0 0 0 0 0 0 0 0 0 0 0 0 0 0 0 0 0 0 0 0 0 0 0 0 0 0 0 0 0 0 0 0 0 0 0 0 0 0 0 0 0
0 0 0 0 0 0 0 0 0 0 0 0 0 0 0 0 0 0 0 0 0 0 0 0 0 0 0 0 0 0 0 0 0 0 0 0 0 0 0 0 0 0 0 0 0 0 0 0 0 0 0 0 0 0 0 0 0 0 0 0 0 0 0 0 0 0 0 0 0 0 1814.57 2560.45 2859.35 2824.17 2982.78 3180.81 3145.44 3125.64 3140.26 3127.85 3026.85 3101.66 3009.96 2968.68 3017 3006.24 3039.4 2914.03 2974.53 3024.34 2808.52 2891.18 2865.51 2584.07 2572.66 0 0 0 0 0 0 0 0 0 0 0 0 0 0 0 0 0 0 0 0 0 0 0 0 0 0 0 0 0 0 2389.94 2232.73 2338.41 1909.18 1763.26 1705.35 1655.26 1812.73 0 0 0 0 0 0 0 0 0 0 0 0 0 0 0 0 0 0 0 0 0 0 0 0 0 0 0 0 0 0 0 0 0 0 0 0 0 0 0 0 0 0 0 0 0 0 0 0 0 0 0 0 0 0 0 0 0 0 0 0 0 0 0 0 0 0 0 0 0 0 0 0 0 0 0 0 0 0 0 0 0 0 0 0 0 0 0 0 0 0 0 0 0 0 0 0 0 0 0 0 0 0 0 0 0 0 0 0 0 0 0 0 0 0 0 0 0 0 0 0 0 0 0 0 0 0 0 0 0 0 0 0 0 0 0 0 0 0 0 0 2442.41 2839.37 2968.05 3070.83 3102.23 3185.52 3181.65 3258.65 3430.83 3543.43 3499.01 3398.58 3400.37 3379.62 3291.89 3216.11 3131.47 3073.48 2876.36 2933.54 2845.87 2638.73 2428.16 2367.48 2579.1 2700.09 2281.87 0 0 0 0 0 0 0 0 0 0 0 0 0 0 0 0 0 0 0 0 0 0 0 0 0 0 0 0 0 0 0 0 0 0 0 0 0 0 0 0 0 0 0 0 0 0 0 0 0 0 0 0 0 0 0 0 0 0 0 0 0 0 0 0 0 0 0 0 0 0 0 0 0 0 0 0 0 0 0 0 0 0 0 0 0 0 0 0 0 0 0 0 0 0 0 0 0 0 0 0 0 0 0 0 0 0 0 0 0 0 0 0 0 0 0 0 0 0 0 0 0 0 0 0 0 0 0 0 0 0 0 0 0 0 0 0 0 0 0 0 0 0 0 0 0 0 0 0 0 0 0 0 0 0 0 0 0 0 0 0 0 0 0 0 0 0 0 0 0 0 0 0 0 0 0 0 0 0 0 0 0 0 0 0 0 0 0 0 0 0 0 0 0 0 0 0 0 0 0 0 0 0 0 0 0 0 0 0 0 0 0 0
0 0 0 0 0 0 0 0 0 0 0 0 0 0 0 0 0 0 0 0 0 0 0 0 0 0 0 0 0 0 0 0 0 0 0 0 0 0 0 0 0 0 0 0 0 0 0 0 0 0 0 0 0 0 0 0 0 0 0 0 0 0 0 0 0 0 0 0 0 0 1523.6 2166.12 2559.43 2759.06 2939.66 3112.36 3145.03 3127.62 3162.52 3131.18 3028.81 3106.94 2921.49 2884.97 2928.22 2889.69 2913.98 2755.12 2809.65 2830.32 2556.66 2735.22 2707.81 2420.14 2434.71 0 0 0 0 0 0 0 0 0 0 0 0 0 0 0 0 0 0 0 0 0 0 0 0 0 0 0 3506.55 0 3361.47 3068.08 2821.42 0 2307 2140.55 2061.49 2013.02 2129.63 2077.81 0 0 0 0 0 0 0 0 0 0 0 0 0 0 0 0 0 0 0 0 0 0 0 0 0 0 0 0 0 0 0 0 0 0 0 0 0 0 0 0 0 0 0 0 0 0 0 0 0 0 0 0 0 0 0 0 0 0 0 0 0 0 0 0 0 0 0 0 0 0 0 0 0 0 0 0 0 0 0 0 0 0 0 0 0 0 0 0 0 0 0 0 0 0 0 0 0 0 0 0 0 0 0 0 0 0 0 0 0 0 0 0 0 0 0 0 0 0 0 0 0 0 0 0 0 0 0 0 0 0 0 0 0 0 0 0 0 0 1935.19 2453.44 2833.85 2902.64 3001.29 3027.01 3140.15 3057.13 3209.71 3423.34 3523.48 3491.51 3367.48 3383.91 3350.73 3289.44 3221.42 3145.09 3027.06 2840.86 2879.32 2870.65 2566.95 2461.11 2225.24 2567.85 2422.31 1946.62 1073.35 0 0 0 0 0 0 0 0 0 0 0 0 0 0 0 0 0 0 0 0 0 0 0 0 0 0 0 0 0 0 0 0 0 0 0 0 0 0 0 0 0 0 0 0 0 0 0 0 0 0 0 0 0 0 0 0 0 0 0 0 0 0 0 0 0 0 0 0 0 0 0 0 0 0 0 0 0 0 0 0 0 0 0 0 0 0 0 0 0 0 0 0 0 0 0 0 0 0 0 0 0 0 0 0 0 0 0 0 0 0 0 0 0 0 0 0 0 0 0 0 0 0 0 0 0 0 0 0 0 0 0 0 0 0 0 0 0 0 0 0 0 0 0 0 0 0 0 0 0 0 0 0 0 0 0 0 0 0 0 0 0 0 0 0 0 0 0 0 0 0 0 0 0 0 0 0 0 0 0 0 0 0 0 0 0 0 0 0 0 0 0 0 0 0 0 0 0 0 0 0 0 0 0 0 0 0 0 0 0 0 0
0 0 0 0 0 0 0 0 0 0 0 0 0 0 0 0 0 0 0 0 0 0 0 0 0 0 0 0 0 0 0 0 0 0 0 0 0 0 0 0 0 0 0 0 0 0 0 0 0 0 0 0 0 0 0 0 0 0 0 0 0 0 0 0 0 0 0 0 0 0 1462.07 0 0 2641.56 2778.84 3065 3105.62 3108.55 3123.6 3125.93 3007.42 3112.65 2885.22 2840.09 2846.93 2824.93 2848.38 2778.8 2922.1 2960.41 2701.7 2889.79 2922.3 0 0 0 0 0 0 0 0 0 0 0 0 0 0 0 0 0 0 0 0 0 0 0 0 0 0 0 3689.45 3912.17 3902.25 4025.85 3717.57 3419.01 3081.78 3051.9 2641.6 2612.6 2501.99 2423.5 2551.45 2536.83 0 0 0 0 0 0 0 0 0 0 0 0 0 0 0 0 0 0 0 0 0 0 0 0 0 0 0 0 0 0 0 0 0 0 0 0 0 0 0 0 0 0 0 0 0 0 0 0 0 0 0 0 0 0 0 0 0 0 0 0 0 0 0 0 0 0 0 0 0 0 0 0 0 0 0 0 0 0 0 0 0 0 0 0 0 0 0 0 0 0 0 0 0 0 0 0 0 0 0 0 0 0 0 0 0 0 0 0 0 0 0 0 0 0 0 0 0 0 0 0 0 0 0 0 0 0 0 0 0 0 0 0 0 0 0 0 0 0 0 0 5227 2860.04 3043.54 3147.33 3229.98 3052.34 3225.07 3461.76 3538.42 3547.7 3435.32 3371.4 3294.54 3223.59 3222.97 3096.51 2898.32 2716.27 2674.36 2724.03 2521.01 2438.22 2220.29 2394.55 2269.89 0 0 0 0 0 0 0 0 0 0 0 0 0 0 0 0 0 0 0 0 0 0 0 0 0 0 0 0 0 0 0 0 0 0 0 0 0 0 0 0 0 0 0 0 0 0 0 0 0 0 0 0 0 0 0 0 0 0 0 0 0 0 0 0 0 0 0 0 0 0 0 0 0 0 0 0 0 0 0 0 0 0 0 0 0 0 0 0 0 0 0 0 0 0 0 0 0 0 0 0 0 0 0 0 0 0 0 0 0 0 0 0 0 0 0 0 0 0 0 0 0 0 0 0 0 0 0 0 0 0 0 0 0 0 0 0 0 0 0 0 0 0 0 0 0 0 0 0 0 0 0 0 0 0 0 0 0 0 0 0 0 0 0 0 0 0 0 0 0 0 0 0 0 0 0 0 0 0 0 0 0 0 0 0 0 0 0 0 0 0 0 0 3646.55 0 0 0 0 0 0 0 0 0 0 0 0 0 0 0 0 0 0 0 0
0 0 0 0 0 0 0 0 0 0 0 0 0 0 0 0 0 0 0 0 0 0 0 0 0 0 0 0 0 0 0 0 0 0 0 0 0 0 0 0 0 0 0 0 0 0 0 0 0 0 0 0 0 0 0 0 0 0 0 0 0 0 0 0 0 0 0 0 0 0 0 0 0 2610.85 2656.82 2942.96 3056.07 3044.7 3054.06 2983.62 2878.19 3001.02 2779.44 2739.86 2781.56 2733.97 2739.37 2670.74 2778.2 2771.13 2446.57 2578.87 2543.76 0 0 0 0 0 0 0 0 0 0 0 0 0 0 0 0 0 0 0 0 0 0 0 0 3156.27 3480.07 3401.48 3577.04 3476.61 3586.53 3684.5 3371.33 3163.29 2955.71 2891.43 2656.61 2598.68 2774.39 2692.25 2804.81 2857.06 0 0 0 0 0 0 0 0 0 0 0 0 0 0 0 0 0 0 0 0 0 0 0 0 0 0 0 0 0 0 0 0 0 0 0 0 0 0 0 0 0 0 0 0 0 0 0 0 0 0 0 0 0 0 0 0 0 0 0 0 0 0 0 0 0 0 0 0 0 0 0 0 0 0 0 0 0 0 0 0 0 0 0 0 0 0 0 0 0 0 0 0 0 0 0 0 0 0 0 0 0 0 0 0 0 0 0 0 0 0 0 0 0 0 0 0 0 0 0 0 0 0 0 0 0 0 0 0 0 0 0 0 0 0 0 0 0 0 0 0 5103.62 2970.63 2906.26 3041.83 3209.22 3153.43 3299.6 3428.51 3510.51 3503.03 3370.18 3462.91 3450.94 3360.19 3258.71 3172.57 3019.55 2805.84 2751.95 2920.22 2604.77 2238.9 1939.6 2007.6 1872.62 0 0 0 0 0 0 0 0 0 0 0 0 0 0 0 0 0 0 0 0 0 0 0 0 0 0 0 0 0 0 0 0 0 0 0 0 0 0 0 0 0 0 0 0 0 0 0 0 0 0 0 0 0 0 0 0 0 0 0 0 0 0 0 0 0 0 0 0 0 0 0 0 0 0 0 0 0 0 0 0 0 0 0 0 0 0 0 0 0 0 0 0 0 0 0 0 0 0 0 0 0 0 0 0 0 0 0 0 0 0 0 0 0 0 0 0 0 0 0 0 0 0 0 0 0 0 0 0 0 0 0 0 0 0 0 0 0 0 0 0 0 0 0 0 0 0 0 0 0 0 0 0 0 0 0 0 0 0 0 0 0 0 0 0 0 0 0 0 0 0 0 0 0 0 0 0 0 0 0 0 0 2920.07 2886.61 0 0 0 0 0 0 0 0 0 0 0 0 0 0 0 0 0 0 0 0 0 0 0 0 0 0 0 0 0 0
0 0 0 0 0 0 0 0 0 0 0 0 0 0 0 0 0 0 0 0 0 0 0 0 0 0 0 0 0 0 0 0 0 0 0 0 0 0 0 0 0 0 0 0 0 0 0 0 0 0 0 0 0 0 0 0 0 0 0 0 0 0 0 0 0 0 0 0 0 0 0 0 0 0 0 0 3144.15 3041.61 3119.01 3075.34 3000.49 3022.59 2827.07 2798.36 2795.61 2704.58 2726.6 2614.51 2599.04 2506.51 2489.78 2497 0 0 0 0 0 0 0 0 0 0 0 0 0 0 0 0 0 0 0 0 0 0 0 0 2912.61 3182.31 3439.06 3487.96 3512.79 3334.15 3521.78 3377.99 3010.07 3080.25 3017.16 2943.99 2803.08 2805.19 2949.63 2829.36 3022.97 3237.83 0 0 0 0 0 0 0 0 0 0 0 0 0 0 0 0 0 0 0 0 0 0 0 0 0 0 0 0 0 0 0 0 0 0 0 0 0 0 0 0 0 0 0 0 0 0 0 0 0 0 0 0 0 0 0 0 0 0 0 0 0 0 0 0 0 0 0 0 0 0 0 0 0 0 0 0 0 0 0 0 0 0 0 0 0 0 0 0 0 0 0 0 0 0 0 0 0 0 0 0 0 0 0 0 0 0 0 0 0 0 0 0 0 0 0 0 0 0 0 0 0 0 0 0 0 0 0 0 0 0 0 0 0 0 0 0 0 0 0 2861.79 4916.53 3256.56 3212.6 3269.19 3370.59 3229.79 3365.65 3397.96 3403.82 3388.22 3246.1 3286.15 3225.57 3173.71 3071.06 3029.74 2940.02 2791.61 2781.1 2968.37 2719.97 2610 2232.41 2360.55 0 0 0 0 0 0 0 0 0 0 0 0 0 0 0 0 0 0 0 0 0 0 0 0 0 0 0 0 0 0 0 0 0 0 0 0 0 0 0 0 0 0 0 0 0 0 0 0 0 0 0 0 0 0 0 0 0 0 0 0 0 0 0 0 0 0 0 0 0 0 0 0 0 0 0 0 0 0 0 0 0 0 0 0 0 0 0 0 0 0 0 0 0 0 0 0 0 0 0 0 0 0 0 0 0 0 0 0 0 0 0 0 0 0 0 0 0 0 0 0 0 0 0 0 0 0 0 0 0 0 0 0 0 0 0 0 0 0 0 0 0 0 0 0 0 0 0 0 0 0 0 0 0 0 0 0 0 0 0 0 0 0 0 0 0 0 0 0 0 0 0 0 0 0 0 0 0 0 0 0 2508.13 0 2886.95 2882.39 2691.6 2683.38 2714.25 2756.56 0 0 0 0 0 0 0 0 0 0 0 0 0 0 0 0 0 0 0 0 0 0 0 0 0 0
0 0 0 0 0 0 0 0 0 0 0 0 0 0 0 0 0 0 0 0 0 0 0 0 0 0 0 0 0 0 0 0 0 0 0 0 0 0 0 0 0 0 0 0 0 0 0 0 0 0 0 0 0 0 0 0 0 0 0 0 0 0 0 0 0 0 0 0 0 0 0 0 0 0 0 0 0 2955.19 2908.52 2892.03 2890.93 2981.61 2856.19 2873.9 2831.13 2708.24 2657.83 2691.73 2610.93 2567.58 2538.37 0 0 0 0 0 0 0 0 0 0 0 0 0 0 0 0 0 0 0 0 0 0 0 0 2943.63 2935.75 3234.27 3390.2 3424.6 3508.97 3365.45 3547.25 3458.48 3227.24 3292.6 3183.1 3051.95 2932.98 2891.68 3032.7 2860.13 2965.12 2990.27 2981.56 2820.99 0 0 0 0 0 0 0 0 0 0 0 0 0 0 0 0 0 0 0 0 0 0 0 0 0 0 0 0 0 0 0 0 0 0 0 0 0 0 0 0 0 0 0 0 0 0 0 0 0 0 0 0 0 0 0 0 0 0 0 0 0 0 0 0 0 0 0 0 0 0 0 0 0 0 0 0 0 0 0 0 0 0 0 0 0 0 0 0 0 0 0 0 0 0 0 0 0 0 0 0 0 0 0 0 0 0 0 0 0 0 0 0 0 0 0 0 0 0 0 0 0 0 0 0 0 0 0 0 0 0 0 0 0 0 0 0 0 0 4808.32 3096.39 3065.9 3182.31 3279.6 3210.51 3357.97 3382.41 3363.43 3370.79 3248.17 3291.12 3213.28 3190.24 2999.47 3014.99 2934.36 2878.04 2852.26 3120.87 2787.48 2708.99 2245.16 2618.8 0 0 0 0 0 0 0 0 0 0 0 0 0 0 0 0 0 0 0 0 0 0 0 0 0 0 0 0 0 0 0 0 0 0 0 0 0 0 0 0 0 0 0 0 0 0 0 0 0 0 0 0 0 0 0 0 0 0 0 0 0 0 0 0 0 0 0 0 0 0 0 0 0 0 0 0 0 0 0 0 0 0 0 0 0 0 0 0 0 0 0 0 0 0 0 0 0 0 0 0 0 0 0 0 0 0 0 0 0 0 0 0 0 0 0 0 0 0 0 0 0 0 0 0 0 0 0 0 0 0 0 0 0 0 0 0 0 0 0 0 0 0 0 0 0 0 0 0 0 0 0 0 0 0 0 0 0 0 0 0 0 0 0 0 0 0 0 0 0 0 0 0 0 0 0 0 0 3001.4 2671.97 2531.86 2389.91 2370.19 2760.06 2941.31 2872.91 2633.55 2770.72 2777.46 2879.97 2922.76 3121.68 0 0 0 0 0 0 0 0 0 0 0 0 0 0 0 0 0 0 0 0 0 0 0
0 0 0 0 0 0 0 0 0 0 0 0 0 0 0 0 0 0 0 0 0 0 0 0 0 0 0 0 0 0 0 0 0 0 0 0 0 0 0 0 0 0 0 0 0 0 0 0 0 0 0 0 0 0 0 0 0 0 0 0 0 0 0 0 0 0 0 0 0 0 0 0 0 0 0 0 0 0 2772.55 2871.54 2974.16 3002.04 2862.04 2843.46 2892.63 2841.97 2798.78 2837.21 2582.4 2545.22 2636.12 0 0 0 0 0 0 0 0 0 0 0 0 0 0 0 0 0 0 0 0 0 0 0 2555.38 2858.57 2929.91 3192.49 3363.43 3352.27 3394.46 3296.87 3460.26 3388.01 3191.45 3284.16 3126.8 2997.27 2887.7 2949.63 2993.26 2808.85 2860.38 2899.93 2856.29 2907.72 2961.82 3092.34 2772.87 3250.63 3676.03 0 0 0 0 0 0 0 0 0 0 0 0 0 0 0 0 0 0 0 0 0 0 0 0 0 0 0 0 0 0 0 0 0 0 0 0 0 0 0 0 0 0 0 0 0 0 0 0 0 0 0 0 0 0 0 0 0 0 0 0 0 0 0 0 0 0 0 0 0 0 0 0 0 0 0 0 0 0 0 0 0 0 0 0 0 0 0 0 0 0 0 0 0 0 0 0 0 0 0 0 0 0 0 0 0 0 0 0 0 0 0 0 0 0 0 0 0 0 0 0 0 0 0 0 0 0 0 0 0 0 0 0 0 0 3157.52 3064.61 3231.47 3298.75 3318.72 3467.41 3449.59 3365.79 3325.89 3236.77 3245.22 3188.12 3193.7 2943.94 2900.73 2828.65 2822.32 2876.36 3202.18 3032.32 2899.58 2480.98 2881.5 2477.17 0 0 0 0 0 0 0 0 0 0 0 0 0 0 0 0 0 0 0 0 0 0 0 0 0 0 0 0 0 0 0 0 0 0 0 0 0 0 0 0 0 0 0 0 0 0 0 0 0 0 0 0 0 0 0 0 0 0 0 0 0 0 0 0 0 0 0 0 0 0 0 0 0 0 0 0 0 0 0 0 0 0 0 0 0 0 0 0 0 0 0 0 0 0 0 0 0 0 0 0 0 0 0 0 0 0 0 0 0 0 0 0 0 0 0 0 0 0 0 0 0 0 0 0 0 0 0 0 0 0 0 0 0 0 0 0 0 0 0 0 0 0 0 0 0 0 0 0 0 0 0 0 0 0 0 0 0 0 0 0 0 0 0 0 0 0 0 0 0 0 0 0 0 0 0 0 3243.97 2796.44 2747.36 2649.56 2551.07 2605.21 2727.3 2670.35 2514.97 2739.1 2779.9 2819.38 2890.19 3056.85 3324.57 3580.4 3727.98 4042.14 4193.07 5243.99 0 5396.99 5486.82 2334.57 0 0 0 0 0 0 0 0 0 0 0 0 0
0 0 0 0 0 0 0 0 0 0 0 0 0 0 0 0 0 0 0 0 0 0 0 0 0 0 0 0 0 0 0 0 0 0 0 0 0 0 0 0 0 0 0 0 0 0 0 0 0 0 0 0 0 0 0 0 0 0 0 0 0 0 0 0 0 0 0 0 0 0 0 0 0 0 0 0 0 0 0 2440.52 2536.99 2421.19 2295.48 2259.55 2367.88 2234.58 2224.95 2258.95 1965.18 1897.46 2194.62 0 0 0 0 0 0 0 0 0 0 0 0 0 0 0 0 0 0 0 0 0 0 2598.44 2896.07 3151.65 3147.27 3335.15 3502.08 4348.92 3506.99 3492.02 3592.59 3554.39 3481.23 3609.98 3512.64 3344.52 3326.48 3362.01 3304.6 3155.5 3143.5 3103.04 2923.58 2901.38 3001.88 0 0 0 0 0 0 0 0 0 0 0 0 0 0 0 0 0 0 0 0 0 0 0 0 0 0 0 0 0 0 0 0 0 0 0 0 0 0 0 0 0 0 0 0 0 0 0 0 0 0 0 0 0 0 0 0 0 0 0 0 0 0 0 0 0 0 0 0 0 0 0 0 0 0 0 0 0 0 0 0 0 0 0 0 0 0 0 0 0 0 0 0 0 0 0 0 0 0 0 0 0 0 0 0 0 0 0 0 0 0 0 0 0 0 0 0 0 0 0 0 0 0 0 0 0 0 0 0 0 0 0 0 0 0 0 0 0 3196.38 2980.81 2861.01 3121.16 3246.41 3224.64 3380.64 3309.82 3257.51 3272.44 3189.51 3236.83 3125.81 3145.15 2997.05 2922.51 2918.69 2902.18 2872.03 3184.97 3049.73 3008.34 2560.33 2930.62 2539.06 0 0 0 0 0 0 0 0 0 0 0 0 0 0 0 0 0 0 0 0 0 0 0 0 0 0 0 0 0 0 0 0 0 0 0 0 0 0 0 0 0 0 0 0 0 0 0 0 0 0 0 0 0 0 0 0 0 0 0 0 0 0 0 0 0 0 0 0 0 0 0 0 0 0 0 0 0 0 0 0 0 0 0 0 0 0 0 0 0 0 0 0 0 0 0 0 0 0 0 0 0 0 0 0 0 0 0 0 0 0 0 0 0 0 0 0 0 0 0 0 0 0 0 0 0 0 0 0 0 0 0 0 0 0 0 0 0 0 0 0 0 0 0 0 0 0 0 0 0 0 0 0 0 0 0 0 0 0 0 0 0 0 0 0 0 0 0 0 0 0 0 0 0 0 0 0 3400.79 2899.43 2870.7 2931.54 2954.73 2917.93 2946.06 2860.96 2789.93 2977.38 3044.53 3118.72 3157.88 3297.13 3587.52 3997.36 4126.75 4355.24 4606.6 5431.76 5823.12 5798.37 5600.75 0 0 0 0 0 0 0 0 0 0 0 0 0 0
0 0 0 0 0 0 0 0 0 0 0 0 0 0 0 0 0 0 0 0 0 0 0 0 0 0 0 0 0 0 0 0 0 0 0 0 0 0 0 0 0 0 0 0 0 0 0 0 0 0 0 0 0 0 0 0 0 0 0 0 0 0 0 0 0 0 0 0 0 0 0 0 0 0 0 0 0 0 0 0 0 0 0 0 0 0 0 0 1726.11 1641.68 1862.54 0 0 0 0 0 0 0 0 0 0 0 0 0 0 0 0 0 0 0 0 0 0 2653.8 2898.42 3221.79 3240.52 4635.87 3439.9 3331.24 3396.79 3342.59 3354.48 3337 3258.14 3356.56 3322.4 3233.65 3218.39 3245.53 3162.88 3121.34 3106.54 3081.27 2822.27 2647.89 2787.11 2980.02 0 0 0 0 0 0 0 0 0 0 0 0 0 0 0 0 0 0 0 0 0 0 0 0 0 0 0 0 0 0 0 0 0 0 0 0 0 0 0 0 0 0 0 0 0 0 0 0 0 0 0 0 0 0 0 0 0 0 0 0 0 0 0 0 0 0 0 0 0 0 0 0 0 0 0 0 0 0 0 0 0 0 0 0 0 0 0 0 0 0 0 0 0 0 0 0 0 0 0 0 0 0 0 0 0 0 0 0 0 0 0 0 0 0 0 0 0 0 0 0 0 0 0 0 0 0 0 0 0 0 0 0 0 0 0 0 3285.51 3053.56 2945.44 3238.39 3307.34 3269.82 3415.19 3284.35 3260.1 3269.44 3141.73 3248.74 3123.25 3181.53 3044.53 2982.51 3038.03 3014.01 2940.48 3280.76 3022.27 2941.41 2530.1 2797.52 2368.99 0 0 0 0 0 0 0 0 0 0 0 0 0 0 0 0 0 0 0 0 0 0 0 0 0 0 0 0 0 0 0 0 0 0 0 0 0 0 0 0 0 0 0 0 0 0 0 0 0 0 0 0 0 0 0 0 0 0 0 0 0 0 0 0 0 0 0 0 0 0 0 0 0 0 0 0 0 0 0 0 0 0 0 0 0 0 0 0 0 0 0 0 0 0 0 0 0 0 0 0 0 0 0 0 0 0 0 0 0 0 0 0 0 0 0 0 0 0 0 0 0 0 0 0 0 0 0 0 0 0 0 0 0 0 0 0 0 0 0 0 0 0 0 0 0 0 0 0 0 0 0 0 0 0 0 0 0 0 0 0 0 0 0 0 0 0 0 0 0 0 0 2984.79 3212.54 0 0 0 3362.82 2983.36 2882.09 2907.57 2887.45 2831.8 2801.02 2771.87 2694.07 2901.08 2893.43 3011.58 3091.88 3146.33 3350.06 3772.06 3835.7 3939.08 3922.78 4741.06 4836.87 4636.77 4902.02 0 0 0 0 0 0 0 0 0 0 0 0 0 0
0 0 0 0 0 0 0 0 0 0 0 0 0 0 0 0 0 0 0 0 0 0 0 0 0 0 0 0 0 0 0 0 0 0 0 0 0 0 0 0 0 0 0 0 0 0 0 0 0 0 0 0 0 0 0 0 0 0 0 0 0 0 0 0 0 0 0 0 0 0 0 0 0 0 0 0 0 0 0 0 0 0 0 0 0 0 0 0 0 0 0 0 0 0 0 0 0 0 0 0 0 0 0 0 0 0 0 0 0 0 0 0 2455.24 2719.48 3034.02 3352.61 3342.12 4168.9 3464.84 3362.48 3447.18 3406.45 3380.64 3371.94 3308.31 3421.17 3417.69 3355.62 3370.05 3372.22 3357.84 3306.1 3242.59 3221.05 2913.32 2582.44 2684.88 2825.36 2495.29 3171.85 0 0 0 0 0 0 0 0 0 0 0 0 0 0 0 0 0 0 0 0 0 0 0 0 0 0 0 0 0 0 0 0 0 0 0 0 0 0 0 0 0 0 0 0 0 0 0 0 0 0 0 0 0 0 0 0 0 0 0 0 0 0 0 0 0 0 0 0 0 0 0 0 0 0 0 0 0 0 0 0 0 0 0 0 0 0 0 0 0 0 0 0 0 0 0 0 0 0 0 0 0 0 0 0 0 0 0 0 0 0 0 0 0 0 0 0 0 0 0 0 0 0 0 0 0 0 0 0 0 0 0 0 0 0 2853.37 2882.29 2956.6 3183.88 3283.97 3162.28 3303.62 3242.4 3220.49 3261.31 3113.11 3209.22 3086.42 3138.5 3059.19 3050.07 3041 3010.72 2924.6 3588.37 2996.52 3022.76 2558.61 2857.55 2380.01 0 2205.15 2059.95 0 773.654 435.431 0 0 0 0 0 0 0 0 0 0 0 0 0 0 0 0 0 0 0 0 0 0 0 0 0 0 0 0 0 0 0 0 0 0 0 0 0 0 0 0 0 0 0 0 0 0 0 0 0 0 0 0 0 0 0 0 0 0 0 0 0 0 0 0 0 0 0 0 0 0 0 0 0 0 0 0 0 0 0 0 0 0 0 0 0 0 0 0 0 0 0 0 0 0 0 0 0 0 0 0 0 0 0 0 0 0 0 0 0 0 0 0 0 0 0 0 0 0 0 0 0 0 0 0 0 0 0 0 0 0 0 0 0 0 0 0 0 0 0 0 0 0 0 0 0 0 0 0 0 0 0 0 0 0 0 0 0 0 1510.53 1522.72 1360.01 1896.41 2424.51 3021.45 2748.75 3018.08 3118.2 3261.43 3129.43 3288.73 3174.25 2871.98 2807.86 2790.03 2789.98 2818.52 2772.74 2789.24 2757.33 2890.78 2882.84 2960.83 3076.3 3117.33 3238.39 3624.65 3686.61 3710.09 3658.15 4328.73 4112.99 0 0 0 0 0 0 0 0 0 0 0 0 0 0 0 0
0 0 0 0 0 0 0 0 0 0 0 0 0 0 0 0 0 0 0 0 0 0 0 0 0 0 0 0 0 0 0 0 0 0 0 0 0 0 0 0 0 0 0 0 0 0 0 0 0 0 0 0 0 0 0 0 0 0 0 0 0 0 0 0 0 0 0 0 0 0 0 0 0 0 0 0 0 0 0 0 0 0 0 0 0 0 0 0 0 0 0 0 0 0 0 0 0 0 0 0 0 0 0 0 0 0 0 0 0 0 0 0 2564.79 2658.17 2925.51 3164.19 3300.83 3425.36 3335.34 3173.59 3265.24 3235.33 3236.77 3257.19 3221.73 3268.29 3294.09 3288.41 3368.9 3392.47 3386.78 3359.39 3314.98 3274.23 3062.87 2762.19 2796.35 2842.35 2328.51 2747.63 0 0 0 0 0 0 0 0 0 0 0 0 0 0 0 0 0 0 0 0 0 0 0 0 0 0 0 0 0 0 0 0 0 0 0 0 0 0 0 0 0 0 0 0 0 0 0 0 0 0 0 0 0 0 0 0 0 0 0 0 0 0 0 0 0 0 0 0 0 0 0 0 0 0 0 0 0 0 0 0 0 0 0 0 0 0 0 0 0 0 0 0 0 0 0 0 0 0 0 0 0 0 0 0 0 0 0 0 0 0 0 0 0 0 0 0 0 0 0 0 0 0 0 0 0 0 0 0 0 0 0 0 0 2334.34 2552.04 2686.22 2765.33 3060.53 3137.27 3080.08 3228.3 3163.65 3234.9 3291.76 3188.18 3310.67 3140.56 3219.44 4033.01 3173.53 3222.41 3143.44 3056.4 3651.31 3597.37 3238.58 2742.01 2933.75 2438.85 0 2462.15 2201.24 0 0 0 0 0 0 0 0 0 0 0 0 0 0 0 0 0 0 0 0 0 0 0 0 0 0 0 0 0 0 0 0 0 0 0 0 0 0 0 0 0 0 0 0 0 0 0 0 0 0 0 0 0 0 0 1217.93 0 0 0 0 0 0 0 0 0 0 0 0 0 0 0 0 0 0 0 0 0 0 0 0 0 0 0 0 0 0 0 0 0 0 0 0 0 0 0 0 0 0 0 0 0 0 0 0 0 0 0 0 0 0 0 0 0 0 0 0 0 0 0 0 0 0 0 0 0 0 0 0 0 0 0 0 0 0 0 0 0 0 0 0 0 0 0 0 0 0 0 0 0 0 0 0 0 0 0 0 0 0 0 0 0 1894.76 2153.33 2032.01 2368.62 2596.18 2866.39 2712.93 2856.77 3027.78 3063.32 2953.22 3098.62 3171.25 2950.46 2852.16 2776.09 2799.1 2849.49 2797.47 2820.56 2790.17 2864.14 2829.93 2928.73 3135.51 3184.49 3232.03 3628.88 3672.17 3754.25 3742.19 4258.19 4073.75 3161.69 2964.91 2016.91 0 1451.67 0 0 0 0 0 0 0 0 0 0 0
0 0 0 0 0 0 0 0 0 0 0 0 0 0 0 0 0 0 0 0 0 0 0 0 0 0 0 0 0 0 0 0 0 0 0 0 0 0 0 0 0 0 0 0 0 0 0 0 0 0 0 0 0 0 0 0 0 0 0 0 0 0 0 0 0 0 0 0 0 0 0 0 0 0 0 0 0 0 0 0 0 0 0 0 0 0 0 0 0 0 0 0 0 0 0 0 0 0 0 0 0 0 0 0 0 0 0 0 0 0 0 1972.76 2486.86 2613.01 2863.01 3010.44 3245.16 3349.73 3259.34 3081.61 3255.04 3220.99 3218.08 3198.7 3198.45 3215.43 3255.23 3227.18 3361.94 3335.28 3335.21 3342.12 3331.7 3260.74 3085.4 2777.46 2964.91 2884.17 2418.5 2590.85 2308.74 2338.57 2283.23 0 0 0 0 0 0 0 0 0 0 0 0 0 0 0 0 0 0 0 0 0 0 0 0 0 0 0 0 0 0 0 0 0 0 0 0 0 0 0 0 0 0 0 0 0 0 0 0 0 0 0 0 0 0 0 0 0 0 0 0 0 0 0 0 0 0 0 0 0 0 0 0 0 0 0 0 0 0 0 0 0 0 0 0 0 0 0 0 0 0 0 0 0 0 0 0 0 0 0 0 0 0 0 0 0 0 0 0 0 0 0 0 0 0 0 0 0 0 0 0 0 0 0 0 0 0 0 0 0 0 2792.72 2865.21 2947.77 2913.47 3119.3 3133.87 3099.65 3228.98 3159.42 3251.57 3801.29 3182.74 3326.29 3972.38 3285.58 3910.07 3276.02 3303.69 3225.44 3131.24 4067.72 3133.46 3270.08 2806.5 2922.05 2244.74 2295.29 2181.52 0 0 0 0 0 0 0 0 0 0 0 0 0 0 0 0 0 0 0 0 0 0 0 0 0 0 0 0 0 0 0 0 0 0 0 0 0 0 0 0 0 0 0 0 0 0 0 0 0 0 0 0 0 0 1907.73 0 1387.74 0 0 0 0 0 0 0 0 0 0 0 0 0 0 0 0 0 0 0 0 0 0 0 0 0 0 0 0 0 0 0 0 0 0 0 0 0 0 0 0 0 0 0 0 0 0 0 0 0 0 0 0 0 0 0 0 0 0 0 0 0 0 0 0 0 0 0 0 0 0 0 0 0 0 0 0 0 0 0 0 0 0 0 0 0 0 0 0 0 0 0 0 0 0 0 0 0 0 0 0 0 0 2291.62 2440.59 2440.45 2289.24 2349.45 2299.16 2557.75 2823.17 3020.58 3062.26 3105.16 3168.25 3069.37 3114.15 3157.05 3235.71 3035.88 2927.61 3795.36 4024.5 3732.62 3961.78 3930.5 4306.28 4270.01 4283.2 2949.06 3127.33 3155.68 3215.8 3474.67 3478.56 3626.92 3634.78 4021.22 4007.1 3167.71 2800.65 2307.54 0 1659.82 0 0 0 0 0 0 0 0 0 0 0
0 0 0 0 0 0 0 0 0 0 0 0 0 0 0 0 0 0 0 0 0 0 0 0 0 0 0 0 0 0 0 0 0 0 0 0 0 0 0 0 0 0 0 0 0 0 0 0 0 0 0 0 0 0 0 0 0 0 0 0 0 0 0 0 0 0 0 0 0 0 0 0 0 0 0 0 0 0 0 0 0 0 0 0 0 0 0 0 0 0 0 0 0 0 0 0 0 0 0 0 0 0 0 0 0 0 0 0 0 0 1821.94 2339.85 2810.78 2916.97 3109.13 3210.94 3366.53 3366.73 3232.09 3136.1 3235.08 3265.43 3247.99 3232.03 3255.86 3245.66 3297.39 3289.38 3365.86 3359.92 3320.56 3339.26 3320.43 3188.06 3049.07 2834.57 2993.1 2941.46 2480.35 2467.62 2056.95 2039.15 1953.12 0 0 0 0 0 0 0 0 0 0 0 0 0 0 0 0 0 0 0 0 0 0 0 0 0 0 0 0 0 0 0 0 0 0 0 0 0 0 0 0 0 0 0 0 0 0 0 0 0 0 0 0 0 0 0 0 0 0 0 0 0 0 0 0 0 0 0 0 0 0 0 0 0 0 0 0 0 0 0 0 0 0 0 0 0 0 0 0 0 0 0 0 0 0 0 0 0 0 0 0 0 0 0 0 0 0 0 0 0 0 0 0 0 0 0 0 0 0 0 0 0 0 0 0 0 0 0 0 0 0 2726.37 2840.47 3074.83 3235.21 3399 3310.8 3213.03 3244.15 3161.86 3211.55 3266 3099.48 3161.86 3062.59 3191.94 3798.71 3236.39 3320.43 3301.54 3246.04 4175.64 3285.19 3442.09 3006.67 3123.19 2472.53 0 2427.91 1975.71 1165.37 471.857 0 0 0 0 0 0 0 0 0 0 0 0 0 0 0 0 0 0 0 0 0 0 0 0 0 0 0 0 0 0 0 0 0 0 0 0 0 0 0 0 0 0 0 0 0 0 2296.07 2260.35 2248.11 2063.17 1801.25 1976.85 0 1569.94 0 0 0 0 0 0 0 0 0 0 0 0 0 0 0 0 0 0 0 0 0 0 0 0 0 0 0 0 0 0 0 0 0 0 0 0 0 0 0 0 0 0 0 0 0 0 0 0 0 0 0 0 0 0 0 0 0 0 0 0 0 0 0 0 0 0 0 0 0 0 0 0 0 0 0 0 0 0 0 0 0 0 0 0 0 0 0 0 0 0 0 0 0 0 0 0 0 0 0 0 0 2799.38 2695.19 2788.64 2704.18 2388.07 2406.43 2401.16 2608.29 2888.64 2952.8 3123.83 3211.18 3254.98 3254.73 3285.58 3186.79 3263.59 3042.21 2982.72 2927.04 2971.37 2925.36 2954.99 3006.56 2984.58 3002.69 3017.75 3020.04 3156.81 3132.7 3258.9 3458.91 3446.47 3586.68 3551.9 3785.51 3914.91 3171.61 0 0 0 0 0 0 0 0 0 0 0 0 0 0 0
0 0 0 0 0 0 0 0 0 0 0 0 0 0 0 0 0 0 0 0 0 0 0 0 0 0 0 0 0 0 0 0 0 0 0 0 0 0 0 0 0 0 0 0 0 0 0 0 0 0 0 0 0 0 0 0 0 0 0 0 0 0 0 0 0 0 0 0 0 0 0 0 0 0 0 0 0 0 0 0 0 0 0 0 0 0 0 0 0 0 0 0 0 0 0 0 0 0 0 0 0 0 0 0 0 0 0 0 0 0 2221.15 2518.93 2850.46 2908.98 3107.35 3184.91 3417.13 3439.9 3290.21 3146.57 3285 3319.9 3305.84 3341.59 3377.51 3327.21 3362.01 3350.6 3390.48 3388.42 3357.03 3449.95 3340.13 3180.44 3068.64 2804.91 2980.44 3008.72 2495.92 2258.16 1911.64 1794.97 1457.56 0 0 0 0 0 0 0 0 0 0 0 0 0 0 0 0 0 0 0 0 0 0 0 0 0 0 0 0 0 0 0 0 0 0 0 0 0 0 0 0 0 0 0 0 0 0 0 0 0 0 0 0 0 0 0 0 0 0 0 0 0 0 0 0 0 0 0 0 0 0 0 0 0 0 0 0 0 0 0 0 0 0 0 0 0 0 0 0 0 0 0 0 0 0 0 0 0 0 0 0 0 0 0 0 0 0 0 0 0 0 0 0 0 0 0 0 0 0 0 0 0 0 0 0 0 0 0 0 0 2720.72 2436.62 2714.95 2965.69 2983.15 3213.09 3254.98 3202.73 3212.84 3111.55 3219.5 3288.02 3138.68 3250.63 3142.5 3247.67 3240.83 3340.59 3437.36 3370.05 3264.42 4119.66 3258.46 3340.13 2839.03 2704.97 2138.37 0 0 0 0 0 0 0 0 0 0 0 0 0 0 0 0 0 0 0 0 0 0 0 0 0 0 0 0 0 0 0 0 0 0 0 0 0 0 0 0 0 0 0 0 0 0 0 0 0 0 2583.63 2462.08 2549.9 2447.46 2290.84 2420.7 2491.7 2424.23 1995.78 0 0 0 0 0 0 0 0 0 0 0 0 0 0 0 0 0 0 0 0 0 0 0 0 0 0 0 0 0 0 0 0 0 0 0 0 0 0 0 0 0 0 0 0 0 0 0 0 0 0 0 0 0 0 0 0 0 0 0 0 0 0 0 0 0 0 0 0 0 0 0 0 0 0 0 0 0 0 0 0 0 0 0 0 0 0 0 0 0 0 0 0 0 0 0 0 0 0 0 0 2976.53 3132.29 3035.99 2945.75 2839.42 2582.68 2641.02 2463.06 2674.65 2957.38 2990.75 3051.18 3194.49 3247.8 3261.5 3205.29 3147.92 3149.22 2992.78 2951.97 2910.84 2938.01 2880.86 2884.72 2970.89 2962.24 2984.42 3001.45 3003.76 3137.97 3097.82 3205.36 3408.04 3343.32 3449.45 3522.82 3672.33 3700.19 3097.54 0 0 0 0 0 0 0 0 0 0 0 0 0 0 0
0 0 0 0 0 0 0 0 0 0 0 0 0 0 0 0 0 0 0 0 0 0 0 0 0 0 0 0 0 0 0 0 0 0 0 0 0 0 0 0 0 0 0 0 0 0 0 0 0 0 0 0 0 0 0 0 0 0 0 0 0 0 0 0 0 0 0 0 0 0 0 0 0 0 0 0 0 0 0 0 0 0 0 0 0 0 0 0 0 0 0 0 0 0 0 0 0 0 0 0 0 0 0 0 0 0 0 0 0 0 2672.52 2947.41 3139.73 3179.36 3226.69 3274.29 3485.64 3506.55 3370.79 3188.36 3237.39 3271.93 3241.08 3279.22 3302.26 3222.35 3255.04 3254.79 3320.43 3369.57 3304.99 3946.4 4045.26 3241.02 3197.48 2922.2 3055.84 3035.17 2663.61 2844.52 2233.06 2019.17 1406.34 0 0 0 0 0 0 0 0 0 0 0 0 0 0 0 0 0 0 0 0 0 0 0 0 0 0 0 0 0 0 0 0 0 0 0 0 0 0 0 0 0 0 0 0 0 0 0 0 0 0 0 0 0 0 0 0 0 0 0 0 0 0 0 0 0 0 0 0 0 0 0 0 0 0 0 0 0 0 0 0 0 0 0 0 0 0 0 0 0 0 0 0 0 0 0 0 0 0 0 0 0 0 0 0 0 0 0 0 0 0 0 0 0 0 0 0 0 0 0 0 0 0 0 0 0 0 0 0 0 0 2497.3 2781.06 3049.96 3042.82 3171.67 3204.01 3159.96 3165.8 3079.91 3184.73 3270.97 3131 3269.12 3186.18 3277.74 3284.87 3359.66 3440.11 3396.59 3853.23 4202.1 3301.35 3362.62 2966.58 2841.1 2298.15 2197.93 0 0 0 0 0 0 0 0 0 0 0 0 0 0 0 0 0 0 0 0 0 0 0 0 0 0 0 0 0 0 0 0 0 0 0 0 0 0 0 0 0 0 0 0 0 0 0 0 3109.36 3039.35 2950.15 3162.22 3031.22 2839.03 2839.66 3032.37 2773.38 2389.63 0 0 0 2115.8 0 0 0 0 0 0 0 0 0 0 0 0 0 0 0 0 0 0 0 0 0 0 0 0 0 0 0 0 0 0 0 0 0 0 0 0 0 0 0 0 0 0 0 0 0 0 0 0 0 0 0 0 0 0 0 0 0 0 0 0 0 0 0 0 0 0 0 0 0 0 0 0 0 0 0 0 0 0 0 0 0 0 0 0 0 0 0 0 0 0 0 0 0 0 0 3672.97 3502.01 3556.87 3375 3302.91 3191.52 2936.47 2939.09 2813.28 2824.07 3014.88 3003.76 3101.09 3133.93 3282.1 3356.43 3284.03 3102.12 3137.5 3024.23 3024.66 2994.27 3049.24 2919.61 2866.88 2925.72 2975.63 3002.63 3001.77 2973.95 3094.79 3008.99 3122.44 3291.38 3238.46 3307.47 3370.18 3508.38 3386.58 0 0 0 0 0 0 0 0 0 0 0 0 0 0 0 0
0 0 0 0 0 0 0 0 0 0 0 0 0 0 0 0 0 0 0 0 0 0 0 0 0 0 0 0 0 0 0 0 0 0 0 0 0 0 0 0 0 0 0 0 0 0 0 0 0 0 0 0 0 0 0 0 0 0 0 0 0 0 0 0 0 0 0 0 0 0 0 0 0 0 0 0 0 0 0 0 0 0 0 0 0 0 0 0 0 0 0 0 0 0 0 0 0 0 0 0 0 0 0 0 0 0 0 0 0 0 2558.22 3009.42 3255.74 3351.67 3494.5 3506.11 3726.07 3642.83 3440.89 3226.75 3291.76 3279.79 3226.56 3219.87 3256.5 3150.05 3201.2 3205.91 3275.63 3277.49 3269.06 3926.73 3415.88 3224.39 3186.97 2831.89 2998.61 2744.75 0 2585.46 0 0 0 0 0 0 0 0 0 0 0 0 0 0 0 0 0 0 0 0 0 0 0 0 0 0 0 0 0 0 0 0 0 0 0 0 0 0 0 0 0 0 0 0 0 0 0 0 0 0 0 0 0 0 0 0 0 0 0 0 0 0 0 0 0 0 0 0 0 0 0 0 0 0 0 0 0 0 0 0 0 0 0 0 0 0 0 0 0 0 0 0 0 0 0 0 0 0 0 0 0 0 0 0 0 0 0 0 0 0 0 0 0 0 0 0 0 0 0 0 0 0 0 0 0 0 0 0 0 0 0 0 0 2554.79 2624.49 2959.36 2989.84 3100.28 3141.03 3078.67 3084.44 3022.92 3116.06 3289.12 3137.91 3280.44 3175.09 3256.37 3286.22 3374.59 3456.41 3404.17 3251.7 4004.42 3187.09 3265.11 2848.48 2779.44 2307.31 2114.42 0 0 0 0 0 0 0 0 0 0 0 0 0 0 0 0 0 0 0 0 0 0 0 0 0 0 0 0 0 0 0 0 0 0 0 0 0 0 0 0 0 0 0 0 0 0 3227.62 3011.15 3052.12 3138.91 3038.25 3338.66 3424.81 3237.52 3128.2 3120.17 3025.43 2663.45 2616.92 3047.02 0 0 1915.83 0 0 0 1220.75 760.5 447.69 0 0 0 0 0 0 0 0 0 0 0 0 0 0 0 0 0 0 0 0 0 0 0 0 0 0 0 0 0 0 0 0 0 0 0 0 0 0 0 0 0 0 0 0 0 0 0 0 0 0 0 0 0 0 0 0 0 0 0 0 0 0 0 0 0 0 0 0 0 0 0 0 0 0 0 0 0 0 0 0 0 0 0 0 0 0 0 3712.47 3497.12 3319.24 3330.78 3225.2 3073.31 3021.5 2941.46 2945.08 2869.38 2785.72 2978.86 3015.42 3087.73 3160.55 3214.69 3214.51 3183.16 3044.48 3133.23 3049.29 3014.66 2993.53 3060.97 3004.57 2976.16 2991.55 3079.74 3110.92 3069.54 3065.28 3159.13 3067.41 3114.04 3290.86 3327.47 3289.5 3290.09 3531.12 3241.71 0 0 0 0 0 0 0 0 0 0 0 0 0 0 0 0
0 0 0 0 0 0 0 0 0 0 0 0 0 0 0 0 0 0 0 0 0 0 0 0 0 0 0 0 0 0 0 0 0 0 0 0 0 0 0 0 0 0 0 0 0 0 0 0 0 0 0 0 0 0 0 0 0 0 0 0 0 0 0 0 0 0 0 0 0 0 0 0 0 0 0 0 0 0 0 0 0 0 0 0 0 0 0 0 0 0 0 0 0 0 0 0 0 0 0 0 0 0 0 0 0 0 0 0 0 0 0 2922.4 3272.57 3290.79 3377.1 3430.34 3716.66 3588.52 3335.54 3089.49 3142.26 3100.63 3031.44 3076.35 3106.31 2994.01 3055.01 3091.71 3165.14 3177.13 3195.95 3343.79 3311.38 3120.06 3109.82 2793.65 2785.49 2584.63 2437.19 2315.79 1969.75 1297.63 518.413 0 0 0 0 0 0 0 0 0 0 0 0 0 0 0 0 0 0 0 0 0 0 0 0 0 0 0 0 0 0 0 0 0 0 0 0 0 0 0 0 0 0 0 0 0 0 0 0 0 0 0 0 0 0 0 0 0 0 0 0 0 0 0 0 0 0 0 0 0 0 0 0 0 0 0 0 0 0 0 0 0 0 0 0 0 0 0 0 0 0 0 0 0 0 0 0 0 0 0 0 0 0 0 0 0 0 0 0 0 0 0 0 0 0 0 0 0 0 0 0 0 0 0 0 0 0 0 0 0 0 2439.53 2590.77 2854.59 2935.14 3043.54 3133.93 3044.7 3097.31 3083.08 3156.21 3265.11 3170.05 3309.75 3173.83 3247.48 3303.95 3353.14 3375.2 3358.31 3200.22 3305.77 3043.59 3173.83 2739.06 2663.78 2271.58 2189.64 0 0 0 0 0 0 0 0 0 0 0 0 0 0 0 0 0 0 0 0 0 0 0 0 0 0 0 0 0 0 0 0 0 0 0 0 0 0 0 0 0 0 0 0 0 3415.95 3433.92 3148.87 3208.18 3310.53 3194.61 3352.2 3422.71 3316.16 3193.7 3135.63 3145.09 2825.22 2716.05 3000.32 2270.66 2083.02 1660.93 1424.93 1117.48 1113.08 1078.47 712.877 447.528 0 0 0 0 0 0 0 0 0 0 0 0 0 0 0 0 0 0 0 0 0 0 0 0 0 0 0 0 0 0 0 0 0 0 0 0 0 0 0 0 0 0 0 0 0 0 0 0 0 0 0 0 0 0 0 0 0 0 0 0 0 0 0 0 0 0 0 0 0 0 0 0 0 0 0 0 0 0 0 0 0 0 0 0 0 0 3711.81 3653.85 3636.51 3349.93 3338.66 3185.94 3038.41 2960.3 2837.59 2859.21 2903.84 2772.69 2960.88 2991.39 3181.59 3238.46 3286.28 3278.32 3208.42 3043.04 3105.68 3018.95 2967.84 2909.33 2936.73 2894.22 2886.06 2892.68 2945.44 2948.13 2911.1 2879.62 2956.34 2909.23 2910.64 3052.34 3129.37 3122.79 3125.93 3243.03 3121.39 0 0 0 0 0 0 0 0 0 0 0 0 0 0 0 0
0 0 0 0 0 0 0 0 0 0 0 0 0 0 0 0 0 0 0 0 0 0 0 0 0 0 0 0 0 0 0 0 0 0 0 0 0 0 0 0 0 0 0 0 0 0 0 0 0 0 0 0 0 0 0 0 0 0 0 0 0 0 0 0 0 0 0 0 0 0 0 0 0 0 0 0 0 0 0 0 0 0 0 0 0 0 0 0 0 0 0 0 0 0 0 0 0 0 0 0 0 0 0 0 0 0 0 0 0 0 0 3342.39 3521.04 3436.17 3474.59 3419.78 3652.34 3458.91 3320.95 3081.72 3051.84 3068.03 3062.93 3110.17 3157.22 3012.07 3053.9 3070.22 3175.03 3213.4 3258.46 3342.39 3280.24 3081.78 3227.37 3139.73 3034.51 2793.98 2773.42 2457.36 2123.38 1703.88 801.279 0 0 0 0 0 0 0 0 0 0 0 0 0 0 0 0 0 0 0 0 0 0 0 0 0 0 0 0 0 0 0 0 0 0 0 0 0 0 0 0 0 0 0 0 0 0 0 0 0 0 0 0 0 0 0 0 0 0 0 0 0 0 0 0 0 0 0 0 0 0 0 0 0 0 0 0 0 0 0 0 0 0 0 0 0 0 0 0 0 0 0 0 0 0 0 0 0 0 0 0 0 0 0 0 0 0 0 0 0 0 0 0 0 0 0 0 0 0 0 0 0 0 0 0 0 0 0 0 0 0 2389.29 2493.55 2746.1 2780.36 2851 3037.59 2959.47 2971.89 3022.1 3106.14 3228.36 3196.75 3335.28 3234.02 3276.98 3355.22 3437.51 3408.94 3396.86 3298.04 3347.46 3148.16 3268.49 2897.42 2781.42 2342.33 2169.53 0 0 0 0 0 0 0 0 0 0 0 0 0 0 0 0 0 0 0 0 0 0 0 0 0 0 0 0 0 0 0 0 0 0 0 0 0 0 0 0 0 0 0 0 3233.28 3384.8 3396.59 3103.67 3226.81 3341.19 3243.78 3462.62 3454.71 3319.84 3214.69 3110.11 3218.39 2888.84 2866.88 2851.04 2283.64 2156.32 1828.52 1538.77 1228.72 1150.81 0 0 0 0 0 0 0 0 0 0 0 0 0 0 0 0 0 0 0 0 0 0 0 0 0 0 0 0 0 0 0 0 0 0 0 0 0 0 0 0 0 0 0 0 0 0 0 0 0 0 0 0 0 0 0 0 0 0 0 0 0 0 0 0 0 0 0 0 0 0 0 0 0 0 0 0 0 0 0 0 0 0 0 0 0 0 0 0 3937.97 3646.71 3607.66 3639.11 3385.69 3416.09 3215.92 3102.69 3021.07 2941.83 2974.95 3030.73 2857.99 3036.49 3033.14 3226.06 3242.15 3291.96 3297.52 3242.71 3084.78 3155.86 3062.82 2997.48 2940.02 3005.16 2916.16 2927.81 2926.02 2940.02 2933.85 2918.64 2863.65 2934.01 2898.83 2924.9 2974.84 3085.8 3163.12 3169.15 3235.02 3154.85 0 0 0 0 0 0 0 0 0 0 0 0 0 0 0 0
0 0 0 0 0 0 0 0 0 0 0 0 0 0 0 0 0 0 0 0 0 0 0 0 0 0 0 0 0 0 0 0 0 0 0 0 0 0 0 0 0 0 0 0 0 0 0 0 0 0 0 0 0 0 0 0 0 0 0 0 0 0 0 0 0 0 0 0 0 0 0 0 0 0 0 0 0 0 0 0 0 0 0 0 0 0 0 0 0 0 0 0 0 0 0 0 0 0 0 0 0 0 0 0 0 0 0 0 0 0 0 3363.36 3563.45 3321.15 3380.1 3363.36 3631.79 3394.94 3254.1 3019.98 2959.21 2991.12 3017.38 3051.9 3098.97 2931.24 2941.36 2935.19 3039.68 3114.44 3085.91 3167.3 3123.19 2891.03 3024.99 3097.25 3075.79 2933.95 2721.73 2456.21 2227.96 1738.79 0 0 0 0 0 0 0 0 0 0 0 0 0 0 0 0 0 0 0 0 0 0 0 0 0 0 0 0 0 0 0 0 0 0 0 0 0 0 0 0 0 0 0 0 0 0 0 0 0 0 0 0 0 0 0 0 0 0 0 0 0 0 0 0 0 0 0 0 0 0 0 0 0 0 0 0 0 0 0 0 0 0 0 0 0 0 0 0 0 0 0 0 0 0 0 0 0 0 0 0 0 0 0 0 0 0 0 0 0 0 0 0 0 0 0 0 0 0 0 0 0 0 0 0 0 0 0 0 0 0 0 2529.41 2696.71 2969.47 2869.48 3002.1 3171.97 3146.57 3093.82 3073.36 3121.86 3225.07 3177.19 3326.75 3173.59 3241.46 3311.45 3377.31 3397.76 3421.24 3292.09 3354.89 3102.29 3274.61 2844.18 2693.94 2457.61 0 0 0 0 0 0 0 0 0 0 0 0 0 0 0 0 0 0 0 0 0 0 0 0 0 0 0 0 0 0 0 0 0 0 0 0 0 0 0 0 0 0 0 3169.45 3043.81 3344.39 3443.01 3447.25 3195.28 3220.86 3316.03 3212.54 3321.87 3331.24 3213.09 3150.76 3049.9 3135.45 2942.91 2837.11 2743.72 2259.98 2152.97 1896.94 1622.92 1399.3 1238.23 0 0 0 0 0 0 0 0 0 0 0 0 0 0 0 0 0 0 0 0 0 0 0 0 0 0 0 0 0 0 0 0 0 0 0 0 0 0 0 0 0 0 0 0 0 0 0 0 0 0 0 0 0 0 0 0 0 0 0 0 0 0 0 0 0 0 0 0 0 0 0 0 0 0 0 0 0 0 0 0 0 0 0 0 0 0 0 0 0 3607.66 3945.2 4257.44 4092.03 4143.98 3385.14 3873.6 3227.86 3135.69 3166.34 3189.57 2974.74 3068.47 3042.66 3237.08 3240.46 3282.1 3282.88 3248.61 3143.03 3135.8 3094.05 3010.88 2965.27 2963.07 2880.81 2923.37 2934.83 2933.13 2945.91 2904.24 2870.11 2936.93 2953.63 3003.65 3012.01 3089.78 3185.82 3228.36 3316.42 3320.82 0 0 0 0 0 0 0 0 0 0 0 0 0 0 0 0
0 0 0 0 0 0 0 0 0 0 0 0 0 0 0 0 0 0 0 0 0 0 0 0 0 0 0 0 0 0 0 0 0 0 0 0 0 0 0 0 0 0 0 0 0 0 0 0 0 0 0 0 0 0 0 0 0 0 0 0 0 0 0 0 0 0 0 0 0 0 0 0 0 0 0 0 0 0 0 0 0 0 0 0 0 0 0 0 0 0 0 0 0 0 0 0 0 0 0 0 0 0 0 0 0 0 0 0 0 0 3879.16 0 3529.64 3487.6 3593.82 3595.52 3676.51 3403.68 3341.66 3128.79 3075 3095.36 3055.45 3054.29 3091.32 2963.28 2991.07 2924.19 2996.84 3085.29 3037.53 3113.63 3032.21 2763.88 2818.19 2830.75 2853.91 2706.5 2670.91 2548.2 2237.8 1695.73 1029.37 0 0 0 0 0 0 0 0 0 0 0 0 0 0 0 0 0 0 0 0 0 0 0 0 0 0 0 0 0 0 0 0 0 0 0 0 0 0 0 0 0 0 0 0 0 0 0 0 0 0 0 0 0 0 0 0 0 0 0 0 0 0 0 0 0 0 0 0 0 0 0 0 0 0 0 0 0 0 0 0 0 0 0 0 0 0 0 0 0 0 0 0 0 0 0 0 0 0 0 0 0 0 0 0 0 0 0 0 0 0 0 0 0 0 0 0 0 0 0 0 0 0 0 0 0 0 0 0 0 0 2543.52 2623.46 2930.62 2806.08 2942.6 3187.64 3120.64 3076.86 3049.9 3077.54 3188.18 3108.73 3297.78 3180.32 3243.53 3338.8 3371.06 3409.36 3423.41 3283.84 3350.73 3098.57 3133.69 2760.6 2624.65 2518.89 2151.18 2132.5 2148.28 0 0 0 0 0 0 0 0 0 0 0 0 0 0 0 0 0 0 0 0 0 0 0 0 0 0 0 0 0 0 0 0 0 0 0 0 0 0 0 0 2906.41 2801.25 3237.83 3311.06 3327.28 3180.75 3204.19 3254.29 3172.03 3251.76 3266.07 3105.56 3073.42 3028.54 3103.44 2934.88 2962.29 2877.84 2454.3 2396.15 2203.32 1802.78 1410.43 1304.56 1183.4 0 0 0 0 0 0 0 0 0 0 0 0 0 0 0 0 0 0 0 0 0 0 0 0 0 0 0 0 0 0 0 0 0 0 0 0 0 0 0 0 0 0 0 0 0 0 0 0 0 0 0 0 0 0 0 0 0 0 0 0 0 0 0 0 0 0 0 0 0 0 0 0 0 0 0 0 0 0 0 0 0 0 0 0 0 0 0 3782.86 3624.25 3650.04 4250.64 4101.23 4099.13 3896.18 3841.06 3796.64 3150.35 3172.99 3204.32 3065.73 3191.7 3173.47 3304.99 3373.5 3384.53 3368.97 3348.12 3233.77 3174.37 3116.23 3073.82 3052.12 3024.34 2910.95 2965.38 2954.73 2941.83 2962.71 2939.56 2825.98 2849.83 2860.13 2924.49 2905.7 2864.82 2921.59 2937.7 2937.65 3109.13 0 0 0 0 0 0 0 0 0 0 0 0 0 0 0 0
0 0 0 0 0 0 0 0 0 0 0 0 0 0 0 0 0 0 0 0 0 0 0 0 0 0 0 0 0 0 0 0 0 0 0 0 0 0 0 0 0 0 0 0 0 0 0 0 0 0 0 0 0 0 0 0 0 0 0 0 0 0 0 0 0 0 0 0 0 0 0 0 0 0 0 0 0 0 0 0 0 0 0 0 0 0 0 0 0 0 0 0 0 0 0 0 0 0 0 0 0 0 0 0 0 0 0 0 0 0 0 0 0 3545.22 3679.74 3777.07 3747.46 3440.68 3392.53 3134.16 3002.26 2993.21 2958.79 3000.43 2992.51 2838.89 2854.83 2809.56 2841.63 2974 2938.12 2978.12 2872.23 2664.93 2742.42 2769.76 2577.56 2626.13 2474.76 2432.53 2148.48 1175.4 0 0 0 0 0 0 0 0 0 0 0 0 0 0 0 0 0 0 0 0 0 0 0 0 0 0 0 0 0 0 0 0 0 0 0 0 0 0 0 0 0 0 0 0 0 0 0 0 0 0 0 0 0 0 0 0 0 0 0 0 0 0 0 0 0 0 0 0 0 0 0 0 0 0 0 0 0 0 0 0 0 0 0 0 0 0 0 0 0 0 0 0 0 0 0 0 0 0 0 0 0 0 0 0 0 0 0 0 0 0 0 0 0 0 0 0 0 0 0 0 0 0 0 0 0 0 0 0 0 0 0 2345.77 2519.73 2778.98 2723.85 2940.43 3247.73 3222.35 3040.45 3037.48 3025.75 3127.68 3117.57 3306.1 3172.69 3227.93 3297.26 3373.71 3456.48 3517.72 3414 3468.49 3171.91 3226.13 2759.56 2622.73 2721.07 0 0 0 0 0 0 0 0 0 0 0 0 0 0 0 0 0 0 0 0 0 0 0 0 0 0 0 0 0 0 0 0 0 0 0 0 0 0 0 0 0 0 2934.52 2923.88 2920.32 3188.6 3287.7 3262.89 3163.89 3120.76 3215.31 3185.15 3614.88 3288.22 3188.18 3131.24 3136.92 3192.91 3151.06 3107.46 2959.57 2630.37 2568.72 2422.17 2172.06 1727.97 1586.81 1479.51 934.04 562.847 0 0 0 0 0 0 0 0 0 0 0 0 0 0 0 0 0 0 0 0 0 0 0 0 0 0 0 0 0 0 0 0 0 0 0 0 0 0 0 0 0 0 0 0 0 0 0 0 0 0 0 0 0 0 0 0 0 0 0 0 0 0 0 0 0 0 0 0 0 0 0 0 0 0 0 0 0 0 0 0 0 0 0 0 0 3978.03 3725.57 3635.96 4359.66 4234.55 4203.68 3994.51 3932.25 3864.24 3254.47 3284.22 3337.47 3191.39 3241.84 3223.71 3315.9 3372.69 3392.95 3362.21 3328.66 3179.06 3065.56 3066.96 3056.51 3066.85 2994.33 2882.59 2907.42 2899.38 2892.93 2928.48 2886.31 2784.42 2803.64 2828.88 2847.08 2844.86 2788.22 2845.72 2933.29 3018.79 3139.38 0 0 0 0 0 0 0 0 0 0 0 0 0 0 0 0
0 0 0 0 0 0 0 0 0 0 0 0 0 0 0 0 0 0 0 0 0 0 0 0 0 0 0 0 0 0 0 0 0 0 0 0 0 0 0 0 0 0 0 0 0 0 0 0 0 0 0 0 0 0 0 0 0 0 0 0 0 0 0 0 0 0 0 0 0 0 0 0 0 0 0 0 0 0 0 0 0 0 0 0 0 0 0 0 0 0 0 0 0 0 0 0 0 0 0 0 0 0 0 0 0 0 0 0 0 0 0 0 0 3608.2 3747.54 3761.49 3755.09 3571.56 3529.19 3108.55 2895.37 2895.57 2892.63 2918.69 2913.42 2790.31 2760.56 2696.49 2744.79 2950.21 2860.47 2832.08 2696.71 2503.11 2505.5 2395.61 2120.03 0 1995.9 2143.73 1887.68 254.036 0 0 0 0 0 0 0 0 0 0 0 0 0 0 0 0 0 0 0 0 0 0 0 0 0 0 0 0 0 0 0 0 0 0 0 0 0 0 0 0 0 0 0 0 0 0 0 0 0 0 0 0 0 0 0 0 0 0 0 0 0 0 0 0 0 0 0 0 0 0 0 0 0 0 0 0 0 0 0 0 0 0 0 0 0 0 0 0 0 0 0 0 0 0 0 0 0 0 0 0 0 0 0 0 0 0 0 0 0 0 0 0 0 0 0 0 0 0 0 0 0 0 0 0 0 0 0 0 0 0 0 2343.83 2461 2706.71 2492.85 2762.24 3152.42 3018.57 2926.38 2963.07 3014.77 3138.85 3106.94 3356.83 3184.07 3215.06 3377.71 3406.66 3395.28 3367.55 3237.77 3302.52 2930.83 2941.52 2409.85 2298.09 2274.78 0 0 0 0 0 0 0 0 0 0 0 0 0 0 0 0 0 0 0 0 0 0 0 0 0 0 0 0 0 0 0 0 0 0 0 0 0 0 0 0 0 2743.99 3007.85 3008.99 3038.25 3171.55 3205.36 3202.24 3106.6 3090.29 3190.12 3139.73 3591.13 3145.92 3085.63 3027.34 3007.75 3009.2 2936.21 2882.24 2728.19 2335.61 2401.78 2213.12 1940.31 1645.51 1531 1294.75 859.017 0 0 0 0 0 0 0 0 0 0 0 0 0 0 0 0 0 0 0 0 0 0 0 0 0 0 0 0 0 0 0 0 0 0 0 0 0 0 0 0 0 0 0 0 0 0 0 0 0 0 0 0 0 0 0 0 0 0 0 0 0 0 0 0 0 0 0 0 0 0 0 0 0 0 0 0 0 0 0 0 0 0 0 0 0 3340.33 3493.19 3392.4 3382.62 3676.03 3429.22 3385.28 3325.49 3835.44 3810.61 3734.78 3316.42 3340.39 3204.44 4389.31 4111.88 4652.84 4202.52 4333.42 3250.63 3203.89 3139.15 3035.55 3048.13 3021.34 3000.91 2957.9 2874.15 2886.06 2846.26 2821.7 2885.02 2805.47 2693.94 2739.69 2782.49 2781.33 2787.15 2802.56 2868.79 2906.06 3084.5 0 0 0 0 0 0 0 0 0 0 0 0 0 0 0 0 0
0 0 0 0 0 0 0 0 0 0 0 0 0 0 0 0 0 0 0 0 0 0 0 0 0 0 0 0 0 0 0 0 0 0 0 0 0 0 0 0 0 0 0 0 0 0 0 0 0 0 0 0 0 0 0 0 0 0 1723.43 1932.98 0 0 0 0 0 0 0 0 0 0 0 0 0 0 0 0 0 0 0 0 0 0 0 0 0 0 0 0 0 0 0 0 0 0 0 0 0 0 0 0 0 0 0 0 0 0 0 0 0 0 0 0 0 3792.87 3916.46 3817.9 3818.5 3499.23 3411.23 2946.47 2654.97 2648.44 2583.23 2608.13 2640.02 2470.67 2469.73 2443.97 2521.85 2773.47 2632.89 2639.35 2571.55 2403.91 2515.83 2622.07 2278.05 0 0 2194.42 830.277 211.387 0 0 0 0 0 0 0 0 0 0 0 0 0 0 0 0 0 0 0 0 0 0 0 0 0 0 0 0 0 0 0 0 0 0 0 0 0 0 0 0 0 0 0 0 0 0 0 0 0 0 0 0 0 0 0 0 0 0 0 0 0 0 0 0 0 0 0 0 0 0 0 0 0 0 0 0 0 0 0 0 0 0 0 0 0 0 0 0 0 0 0 0 0 0 0 0 0 0 0 0 0 0 0 0 0 0 0 0 0 0 0 0 0 0 0 0 0 0 0 0 0 0 0 0 0 0 0 0 0 0 0 2368.32 2328.35 2554.83 2431.89 2659.35 2957.43 2813.18 2780.92 2888.64 2900.23 3037.92 3102.23 3316.16 3182.37 3249.5 3438 3430.34 3854.65 3398.03 3329.85 3353.88 3026.96 3046.52 2515.76 2507.49 2643.93 2034.45 0 0 0 0 0 0 0 0 0 0 0 0 0 0 0 0 0 0 0 0 0 0 0 0 0 0 0 0 0 0 0 0 0 0 0 0 0 0 0 0 2579.38 2883.33 2943.99 3008.12 3293.44 3307.14 3293.44 3163.65 3160.38 3715.1 3658.47 3599.53 3203.34 3145.27 3101.26 3083.02 3150.64 3105.1 3035.61 2813.28 2566.13 2626.54 2331.81 2181.01 1980.65 1898.79 1597.46 1092.5 613.938 0 0 0 0 0 0 0 0 0 0 0 0 0 0 0 0 0 0 0 0 0 0 0 0 0 0 0 0 0 0 0 0 0 0 0 0 0 0 0 0 0 0 0 0 0 0 0 0 0 0 0 0 0 0 0 0 0 0 0 0 0 0 0 0 0 0 0 0 0 0 0 0 0 0 0 0 0 0 0 0 0 0 0 0 0 3521.04 3421.66 3291.44 3990.8 3370.12 3341.99 3320.82 3868.69 3886.98 3838.95 3919.12 3913.91 3893.29 4378.54 4525.22 4235.83 3369.3 3382.34 3297.98 3262.38 3112.3 3032.43 3031.5 3011.47 2998.13 2954.36 2850.37 2888.94 2819.66 2784.56 2874.49 2792.4 2592.61 2621.91 2661.04 2579.3 2533.61 2547.93 2612.92 2432.1 2476.73 2794.77 2048.03 0 1603.58 1684.7 0 0 0 0 0 0 0 0 0 0 0 0
0 0 0 0 0 0 0 0 0 0 0 0 0 0 0 0 0 0 0 0 0 0 0 0 0 0 0 0 0 0 0 0 0 0 0 0 0 0 0 0 0 0 0 0 0 0 0 0 0 0 0 0 0 0 0 0 0 2195.4 2168.36 2182.35 2230.57 0 0 2067.36 0 0 0 0 0 0 0 0 0 0 0 0 0 0 0 0 0 0 0 0 0 0 0 0 0 0 0 0 0 0 0 0 0 0 0 0 0 0 0 0 0 0 0 0 0 0 0 0 0 3188.36 3707.46 3482.02 3654.33 3281.66 3170.23 2689.57 2486.64 2485.28 2461.86 2457.18 2523.63 2401.43 2405.05 2416.27 2468.75 2640.27 2599.4 2565.22 2506.59 2383.15 2348.46 2745.6 0 0 0 0 0 0 0 0 0 0 0 0 0 0 0 0 0 0 0 0 0 0 0 0 0 0 0 0 0 0 0 0 0 0 0 0 0 0 0 0 0 0 0 0 0 0 0 0 0 0 0 0 0 0 0 0 0 0 0 0 0 0 0 0 0 0 0 0 0 0 0 0 0 0 0 0 0 0 0 0 0 0 0 0 0 0 0 0 0 0 0 0 0 0 0 0 0 0 0 0 0 0 0 0 0 0 2653.46 2326.51 0 0 0 0 0 0 0 0 0 0 0 0 0 0 0 0 0 0 0 0 0 0 0 0 0 0 0 0 0 1989.1 2043.67 2377.85 2362.21 2765.2 3106.71 2943.43 2879.18 2947.87 2932.72 3033.96 3123.37 3260.29 3098.68 3172.51 3365.11 3397.41 3467.99 3460.33 3314.79 3296.29 3007.8 3040.89 2454.05 2403.22 2512.22 1762.61 0 0 0 0 0 0 0 0 0 0 0 0 0 0 0 0 0 0 0 0 0 0 0 0 0 0 0 0 0 0 0 0 0 0 0 0 0 0 0 0 2338.25 2659.39 2933.34 2994.27 3285.45 3288.86 3337.2 3196.32 3197.84 3697.25 3667.51 3587.91 3209.28 3163.59 3120.35 3067.02 3154.79 3140.62 3125.7 2899.68 2736.78 2835.62 2600.01 2428.79 2312.85 0 2102.89 1453.06 1024.58 700.985 568.792 0 0 0 0 0 0 0 0 0 0 0 3139.44 2874.64 2181.78 0 0 0 0 0 3111.15 3212.84 0 0 0 0 0 0 2690.87 0 0 0 0 0 0 0 0 0 0 0 0 0 0 0 0 0 0 0 0 0 0 0 0 0 0 0 0 0 0 0 0 0 0 0 0 0 0 0 0 0 0 0 0 0 0 0 0 0 0 0 0 1898.6 0 2722.7 2881.95 2965.48 3001.18 3410.67 3212.91 3252.14 3287.06 3742.61 3807.07 3747.21 3836.05 3861.39 3862.81 4358.98 4499.37 4228.57 3304.99 3314.46 3207.68 3207.75 3098.17 2967.37 2927.15 2897.17 2894.82 2863.01 2828.88 2882.19 2827.22 2755.89 2859.3 2789.52 2603.88 2658 2703.27 2569.51 2593.94 2661.08 2721.16 2484.17 2443.29 2861.11 2060.51 0 0 0 0 0 0 0 0 0 0 0 0 0 0 0
0 0 0 0 0 0 0 0 0 0 0 0 0 0 0 0 0 0 0 0 0 0 0 0 0 0 0 0 0 0 0 0 0 0 0 0 0 0 0 0 0 0 0 0 0 0 0 0 0 0 0 0 0 0 0 0 2804.3 0 2679.95 2590.57 2563.73 2799.57 0 2174.12 0 0 0 0 0 0 0 0 0 0 0 0 0 0 0 0 0 0 0 0 0 0 0 0 0 0 0 0 0 0 0 0 0 0 0 0 0 0 0 0 0 0 0 0 0 0 0 0 0 0 3253.4 3136.98 3231.35 2989.21 2936.93 2554.44 2305.22 2308.52 2316.52 2379.67 2382.81 2314.32 2372.67 2394.89 2443.54 2831.13 2712.93 2660.95 2575.46 2637.53 0 0 0 0 0 0 0 0 0 0 0 0 0 0 0 0 0 0 0 0 0 0 0 0 0 0 0 0 0 0 0 0 0 0 0 0 0 0 0 0 0 0 0 0 0 0 0 0 0 0 0 0 0 0 0 0 0 0 0 0 0 0 0 0 0 0 0 0 0 0 0 0 0 0 0 0 0 0 0 0 0 0 0 0 0 0 0 0 0 0 0 0 0 0 0 0 0 0 0 0 0 0 0 0 2159.57 2435.81 2614.76 3031.33 3129.37 2949.74 2819.57 0 0 0 0 0 0 0 0 0 0 0 0 0 0 0 0 0 0 0 0 0 0 0 0 0 0 0 0 0 0 2192.84 2106.53 2520.82 2992.14 2829.84 2785.16 2844.28 2857.94 2845.63 2949.84 3114.15 3037.64 3086.77 3313.15 3363.7 4001.37 3897.09 3378.6 3352.87 3031.39 2948.7 2255.36 2178.89 2167.4 0 0 0 0 0 0 0 0 0 0 0 0 0 0 0 0 0 0 0 0 0 0 0 0 0 0 0 0 0 0 0 0 0 0 0 0 0 0 0 0 0 2494.55 2666.15 2933.65 3071.85 3303.89 3291.05 3342.99 3255.42 3252.27 3727.23 3703.94 3634.85 3225.2 3199.12 3188.3 3112.01 3180.38 3149.1 3159.9 2968.32 2889.34 2986.44 2811.39 2677.51 2591.77 0 0 1410.76 969.063 0 0 0 0 0 0 0 0 0 0 0 1207.66 2497.15 3053.73 2890.49 2420.7 2628.93 2923.53 2703.31 3440.68 3303.1 3209.77 3278 3209.83 3637.61 3525.19 3509.63 3345.32 3153.9 2976.27 2886.85 0 0 0 0 0 0 0 0 0 0 0 0 0 0 0 0 0 0 0 0 0 0 0 0 0 0 0 0 0 0 0 0 0 0 0 0 0 0 0 0 0 0 0 0 0 0 0 0 0 0 0 1616.15 0 2510.26 2884.37 2943.06 3021.34 3376.76 3187.57 3281.85 3278.45 3748.38 3235.27 3205.23 3246.29 3349.59 3274.74 4347.23 4482.9 4059.95 3246.1 3298.36 3208.97 3177.31 3078.38 2941.57 2886.41 2916.87 2906.51 2874.59 2778.11 2805.33 2766.38 2594.1 2673.8 2632.23 2433.55 2542.37 2595.18 2498.23 2500.24 2505.73 2673.42 2535.99 2418.29 2918.14 2249.95 0 0 0 0 0 0 0 0 0 0 0 0 0 0 0
0 0 0 0 0 0 0 0 0 0 0 0 0 0 0 0 0 0 0 0 0 0 0 0 0 0 0 0 0 0 0 0 0 0 0 0 0 0 0 0 0 0 0 0 0 0 0 0 0 0 0 0 0 0 0 2933.03 2936.26 2788.78 2757.65 2764.92 2760.15 2750.15 2447.36 2320.27 2398.55 2546.88 2211.72 1735.26 1518.85 1442.37 1373.99 0 0 0 0 0 0 0 0 0 0 0 0 0 0 0 0 0 0 0 0 0 0 0 0 0 0 0 0 0 0 0 0 0 0 0 0 0 0 0 0 0 0 0 0 2711.66 2911.96 2956.81 3010.82 2674.48 2436.48 2508.69 2506.03 2353.86 2307.63 2247.15 2239.23 2180.22 2120.16 2425.49 2360.92 2280.72 2382.31 0 0 0 0 0 0 0 0 0 0 0 0 0 0 0 0 0 0 0 0 0 0 0 0 0 0 0 0 0 0 0 0 0 0 0 0 0 0 0 0 0 0 0 0 0 0 0 0 0 0 0 0 0 0 0 0 0 0 0 0 0 0 0 0 0 0 0 0 0 0 0 0 0 0 0 0 0 0 0 0 0 0 0 0 0 0 0 0 0 0 0 0 0 0 0 0 0 0 0 0 0 0 0 0 2690.87 2265.17 2424.27 2594.54 2765.79 2681.67 2716.79 2657.75 2513.72 2576.33 0 0 0 2516.48 2341.45 0 0 0 0 0 0 0 0 0 0 0 0 0 0 0 0 0 0 0 0 0 0 0 0 0 2532.2 3020.63 2851.48 2764.88 2739.42 2780 2795.19 2866.58 3021.29 3049.4 3005.27 3133.99 3214.81 3942.97 3816.33 3434.83 3424.46 3043.81 2618.1 1900.62 1824.46 0 0 0 0 0 0 0 0 0 0 0 0 0 0 0 0 0 0 0 0 0 0 0 0 0 0 0 0 0 0 0 0 0 0 0 0 0 0 0 0 0 0 2633.97 2794.35 3109.02 3262.26 3405.69 3305.19 3325.3 3277.23 3220.31 3696.44 3687.1 3650.2 3199 3184.85 3181.23 3115.37 3189.82 3194.61 3205.78 2999.52 2869.13 2996.57 2851.48 2733.53 2763.56 2597.43 0 2067.44 1452.61 1509.16 920.249 403.088 0 0 0 0 0 0 1328.02 1653.39 2667.09 3098.11 3118.96 3054.29 2906.21 3043.65 3203.76 3088.58 3449.45 3364.57 3348.99 3487.16 3430.13 3649.88 3533.35 3596.29 3505.08 3324.44 3056.9 2929.24 2337.63 2518.59 0 0 0 0 0 0 0 0 0 0 0 0 0 0 0 0 0 0 0 0 0 0 0 0 0 0 0 0 0 0 0 0 0 0 0 0 0 0 0 0 0 0 0 0 0 0 0 0 0 2104.94 0 2798.4 2957.69 3049.68 3101.37 3364.24 3155.62 3203.34 3299.73 3223.46 3241.96 3239.58 3239.52 3323.06 3269.89 3345.99 3872.35 3206.4 3196.68 3193.58 3142.85 3132.35 3073.65 2954.47 2961.19 2990.64 3070.22 3032.87 2952.02 2935.08 2979.23 2802.99 2886.06 2799.57 2598.15 2700.66 2705.8 2614.92 2598.72 2503.67 2644.05 2471.55 2415.68 0 0 0 0 0 0 0 0 0 0 0 0 0 0 0 0 0
0 0 0 0 0 0 0 0 0 0 0 0 0 0 0 0 0 0 0 0 0 0 0 0 0 0 0 0 0 0 0 0 0 0 0 0 0 0 0 0 0 0 0 0 0 0 0 0 0 0 0 0 0 2758.38 2962.71 2942.34 3121.34 2907.36 2855.22 2989.63 2976.16 3201.69 2916.31 2783.59 2858.48 2804.16 2550.33 2330.91 2013.77 1869.99 1546.1 0 0 0 0 0 0 0 0 0 0 0 0 0 0 0 0 0 0 0 0 0 0 0 0 0 0 0 0 0 0 0 0 0 0 0 0 0 0 0 0 0 0 0 0 2796.21 3054.95 0 3095.14 2769.67 2580.77 2634.17 2606.92 2443.65 2394.14 2304.18 2352.61 2219.44 2143.89 2454.63 2423.74 2262.39 2383.08 2665.39 0 0 0 0 0 0 0 0 0 0 0 0 0 0 0 0 0 0 0 0 0 0 0 0 0 0 0 0 0 0 0 0 0 0 0 0 0 0 0 0 0 0 0 0 0 0 0 0 0 0 0 0 0 0 0 0 0 0 0 0 0 0 0 0 0 0 0 0 0 0 0 0 0 0 0 0 0 0 0 0 0 0 0 0 0 0 0 0 0 0 0 0 0 0 0 0 0 0 0 0 0 0 2602.14 2638.07 2514.89 2728.33 2885.22 2932.01 2893.48 2853.81 2939.61 2735.89 2759.6 2939.2 2930.93 2652.71 2767.75 2400.37 1993.59 1754.17 0 0 0 0 0 0 0 0 0 0 0 0 0 0 0 0 0 0 0 0 0 0 0 0 3188.36 2987.82 2883.18 2846.5 2819.8 2843.17 2861.25 3005.75 2974.26 2936.98 2957.38 2983.2 3332.43 3324.37 3179.84 3175.27 2734.24 2344.65 1389.62 0 0 0 0 0 0 0 0 0 0 0 0 0 0 0 0 0 0 0 0 0 0 0 0 0 0 0 0 0 0 0 0 0 0 0 0 0 0 0 0 0 0 2353.33 2544.18 2891.68 3166.46 3281.78 3347.72 3278.13 3259.85 3241.46 3210.45 3732.7 3705.66 3839.65 3590.44 3544.4 3467.7 3188.85 3231.47 3223.77 3218.95 3051.84 2933.39 2995.66 2908.68 2700.96 2812.29 2679.18 2624.7 2567.3 2250.1 0 1230.63 0 0 0 0 0 0 0 0 0 3300.83 3415.32 3409.08 3357.64 3248.36 3233.15 3355.15 3283.52 3634.15 3517.5 3573.77 3655.21 3522.82 3656 3649.8 3756.77 3754.08 3614.18 3614.65 3578.8 3158.59 4096.42 0 0 0 0 0 0 0 0 0 0 0 0 0 0 0 0 0 0 0 0 0 0 0 0 0 0 0 0 0 0 0 0 0 0 0 0 0 0 0 0 0 0 0 0 0 0 0 0 0 0 0 0 2845.82 2945.8 3041.77 3330.64 3117.33 3152.36 3907.25 3179.06 3186.24 3200.04 3206.46 3254.47 3188.79 3272.06 3250.69 3091.09 3155.26 3165.62 3068.36 3050.79 3010.66 2919.15 2895.22 3023.74 3047.57 2954 2845.15 2838.5 2880.36 2776.27 2811.91 2743.67 2501.95 2616.22 2652.41 2575.62 2614.59 2480.83 2517.91 2365.78 0 0 0 0 0 0 0 0 0 0 0 0 0 0 0 0 0 0
0 0 0 0 0 0 0 0 0 0 0 0 0 0 0 0 0 0 0 0 0 0 0 0 0 0 0 0 0 0 0 0 0 0 0 0 0 0 0 0 0 0 0 0 0 0 0 0 0 0 0 0 2700.14 2814.79 3013.85 3523.48 3990.99 3943.99 3803.44 3790.13 3851.02 3763.26 3080.19 2971.47 2989.1 2845.29 2690.65 2565.58 2506.1 2348.36 1925.35 2025.63 0 0 0 0 0 0 0 0 0 0 0 0 0 0 0 0 0 0 0 0 0 0 0 0 0 0 0 0 0 0 0 0 0 0 0 0 0 0 0 0 0 0 0 0 0 0 0 2896.12 2714.86 2808.33 2736.83 2459.52 2279.08 2138.62 2231.81 2182.86 2081.29 2570.57 0 2267.37 2429.95 0 0 0 0 0 0 0 0 0 0 0 0 0 0 0 0 0 0 0 0 0 0 0 0 0 0 0 0 0 0 0 0 0 0 0 0 0 0 0 0 0 0 0 0 0 0 0 0 0 0 0 0 0 0 0 0 0 0 0 0 0 0 0 0 0 0 0 0 0 0 0 0 0 0 0 0 0 0 0 0 0 0 0 0 0 0 0 0 0 0 0 0 0 0 0 0 0 0 0 0 0 0 0 2640.52 2607.73 2502.63 2826.6 2977.96 2987.98 2900.08 2875.23 2972.31 2840.23 2892.28 2965.59 2782.16 2536.76 2687.38 2539.48 2295.92 2089.04 0 0 0 0 0 0 0 0 0 0 0 0 0 0 0 0 0 0 0 0 0 0 0 0 2830.27 2784.93 2636.16 2633.47 2612.35 2469.95 2540.17 2725.49 2942.55 2866.63 2862.72 3031.22 3378.12 3409.29 3304.08 0 0 2328.93 0 0 0 0 0 0 0 0 0 0 0 0 0 0 0 0 0 0 0 0 0 0 0 0 0 0 0 0 0 0 0 0 0 0 0 0 0 0 0 0 0 0 0 2589.09 2551.92 2880.07 3055.18 3237.71 3274.55 3219.69 3181.17 3175.81 3167.77 4036.02 3965.62 3754.08 3676.67 3639.59 3571.03 3195.47 3238.27 3235.65 3264.73 3141.32 3017.16 2998.55 2936.52 2654.55 2940.95 2747.31 2746.59 0 0 0 0 0 0 0 0 0 0 0 0 2287.5 2776.09 3000 3204.01 3227.06 3128.44 3242.96 3405.55 3303.82 3577.2 3565.03 3563.97 3555.29 3501.06 4190.45 3518.53 3477.62 3519.79 3404.03 3309.88 3295.25 2857.26 3047.08 2057.85 2138.05 1352.62 0 1056.19 1013.38 0 0 0 0 0 0 0 0 0 0 0 0 0 0 0 0 0 0 0 0 0 0 0 0 0 0 0 0 0 0 0 0 0 0 0 0 0 0 0 0 0 0 0 0 0 0 2841.24 2912.66 2866.14 3110.69 2922.4 3018.95 3334.09 3126.16 3159.66 3249.31 3245.41 3319.7 3246.79 3288.28 3278.96 3098.17 3202.11 3227.18 3104.82 3086.71 3010.82 2942.86 2938.99 3108.5 3035.17 3024.77 2782.81 2807.53 2778.94 2685.92 2738.75 2687.42 2397.42 2551.84 2506.48 2487.49 2573.76 2431.01 2452.11 2195.43 0 0 0 0 0 0 0 0 0 0 0 0 0 0 0 0 0 0
0 0 0 0 0 0 0 0 0 0 0 0 0 0 0 0 0 0 0 0 0 0 0 0 0 0 0 0 0 0 0 0 0 0 0 0 0 0 0 0 0 0 0 0 0 0 0 0 0 0 0 0 2920.62 2969.84 3199.85 3881.85 4204.1 4261.33 4069.3 4075.13 4040.98 4001.84 3937.88 3048.96 3041.77 2900.63 2788.13 2829.79 2907.67 2770.22 2243.84 2381.46 0 0 0 0 0 0 0 0 0 0 0 0 0 0 0 0 0 0 0 0 0 0 0 0 0 0 0 0 0 0 0 0 0 0 0 0 0 0 0 0 0 0 0 0 0 0 0 2544.95 2215.6 2310.78 2513.27 2346.46 2117.06 1959.78 1992.81 2026.61 0 0 0 0 0 0 0 0 0 0 0 0 0 0 0 0 0 0 0 0 0 0 0 0 0 0 0 0 0 0 0 0 0 0 0 0 0 0 0 0 0 0 0 0 0 0 0 0 0 0 0 0 0 0 0 0 0 0 0 0 0 0 0 0 0 0 0 0 0 0 0 0 0 0 0 0 0 0 0 0 0 0 0 0 0 0 0 0 0 0 0 0 0 0 0 0 0 0 0 0 0 0 0 0 0 0 2606.67 2499.75 2625.52 2579.82 2508.05 2749.88 2870.46 2875.18 2750.92 2744.21 2844.66 2746.01 2800.97 2791.28 2673.16 2528.42 2597.35 2539.64 2296.73 2016.31 0 0 0 0 0 0 0 0 0 0 0 0 0 0 0 0 0 0 0 0 0 0 0 0 0 0 2604.37 2643.89 2648.77 2533.92 2548.97 2562.01 2737.18 2613.41 2520.1 2687.08 2836.06 2825.98 0 0 0 1715.43 0 0 0 0 0 0 0 0 0 0 0 0 0 0 0 0 0 0 0 0 0 0 0 0 0 0 0 0 0 0 0 0 0 0 0 0 0 0 0 0 0 0 0 0 2559.78 2874.64 3157.52 3332.76 3299.4 3245.79 3178.82 3168.67 3161.98 4085.05 3722.27 3739.86 3175.69 3205.11 3214.45 3184.55 3226.69 3237.77 3209.34 3121.8 2988.3 2985.22 2795.56 2555.81 2970.73 2768.39 2653.38 0 0 0 0 0 547.9 0 0 0 0 2548.59 3153.31 2904.8 3372.42 3465.48 3646.63 3464.91 3476.54 3462.76 3532.53 3456.91 3655.13 3585.07 3627.78 3888.06 4036.02 4214.66 3633.75 3675.14 3750.81 3601.85 3600.3 3422.01 2984.53 3047.19 2159.87 0 0 0 1185.42 1096.54 0 0 0 0 0 0 0 0 0 0 0 0 0 0 0 0 0 0 0 0 0 0 0 0 0 0 0 0 0 0 0 0 0 0 0 0 0 0 0 0 0 0 0 0 0 0 3076.35 2901.38 2800.08 2920.37 2868.69 2998.5 3248.68 3094.96 3102.81 3244.34 3294.28 3356.56 3295.13 3330.64 3317.54 3166.64 3197.84 3235.83 3122.67 3054.4 3012.82 2880.81 2843.84 2926.13 2829.55 2897.32 2644.89 2631.86 2600.49 2518.93 2646.56 2555.85 2361.18 2533.96 2496.96 2464.29 2520.26 2469.95 2486.53 0 0 0 0 0 0 0 0 0 0 0 0 0 0 0 0 0 0 0
0 0 0 0 0 0 0 0 0 0 0 0 0 0 0 0 0 0 0 0 0 0 0 0 0 0 0 0 0 0 0 0 0 0 0 0 0 0 0 0 0 0 0 0 0 0 0 0 0 0 0 0 2807.44 2875.77 3128.49 4040.68 4975.43 4320.25 4161.14 4146.64 3953.28 3936.86 3868.25 3018.57 2978.54 2852.93 2795.51 2770.58 2779.07 2797.89 2345.21 2438.32 2562.09 2314.92 0 0 711.864 0 0 0 0 0 0 0 0 0 0 0 0 0 0 0 0 0 0 0 0 0 0 0 0 0 0 0 0 0 0 0 0 0 0 0 0 0 0 0 0 0 0 0 0 0 0 0 0 0 0 0 0 0 0 0 0 0 0 0 0 0 0 0 0 0 0 0 0 0 0 0 0 0 0 0 0 0 0 0 0 0 0 0 0 0 0 0 0 0 0 0 0 0 0 0 0 0 0 0 0 0 0 0 0 0 0 0 0 0 0 0 0 0 0 0 0 0 0 0 0 0 0 0 0 0 0 0 0 0 0 0 0 2520.6 2170.01 0 0 0 0 0 0 0 0 0 0 0 0 0 0 0 0 0 0 0 0 0 0 0 2863.94 2720.32 2925.92 2806.97 2682.61 2934.11 3071.68 3031.39 2837.78 2818.48 2928.53 2793.88 2867.27 2907.16 2820.7 2692.68 2691.95 2733.88 2607.08 2436.27 2304.94 1839.66 0 0 0 0 0 0 0 0 0 0 0 0 0 0 0 0 0 0 0 0 0 0 0 0 0 2415.4 2496.3 2321.39 2307.5 2373.78 2487.12 2339.55 2145.23 2247.3 2261.32 0 0 0 0 0 0 0 0 0 0 0 0 0 0 0 0 0 0 0 0 0 0 0 0 0 0 0 0 0 0 0 0 0 0 0 0 0 0 0 0 0 0 0 0 0 0 0 0 0 2443.33 2835.86 3236.27 3313.21 3369.17 3237.77 3209.4 3817.11 3853.14 4166 3770.96 3757.7 3081.1 3068.81 3113.17 3034.62 3052.9 3037.97 3048.46 3005.48 2847.95 2957.17 2679.91 2375.29 2947.98 2726.11 2495.66 0 0 0 0 0 788.651 0 0 0 0 0 3147.63 3003.06 3359.99 3512.57 3584.61 3334.02 3442.3 3514.7 3559.97 3565.26 3718.89 3632.65 3620.11 3544.02 3661.43 4029.14 3524.22 3557.55 3523.41 3373.77 3388.83 3216.36 3049.07 3024.88 2731.03 0 0 0 1555.53 1375.08 0 0 0 0 0 0 0 0 0 0 0 0 0 0 0 0 0 0 0 0 0 0 0 0 0 0 0 0 0 0 0 0 0 0 0 0 0 0 0 0 0 0 0 0 0 0 2787.48 2672.4 2621.62 2656.32 2687.21 2903.89 3115.94 2911.3 2946.73 3119.71 3240.83 3352.81 3308.05 3362.89 3294.54 3146.09 3196.93 3223.09 3126.1 3006.56 2898.37 2846.01 2693.37 2842.49 2657.75 2789.1 2598.11 2717.37 2624.78 2569.19 2622.93 2526.21 2241.65 2454.95 2383.66 2349.15 2264.07 2204.16 2123.16 0 0 0 0 0 0 0 0 0 0 0 0 0 0 0 0 0 0 0
0 0 0 0 0 0 0 0 0 0 0 0 0 0 0 0 0 0 0 0 0 0 0 0 0 0 0 0 0 0 0 0 0 0 0 0 0 0 0 0 0 0 0 0 0 0 0 0 0 0 0 2630.5 2645.72 2691.95 2924.95 2997.64 3136.92 3810.79 3212.11 3164.01 3107.58 3170.17 3162.58 3085.29 3065 2913.83 2878.93 2946.11 2975.16 3001.02 2798.26 2772.23 2881.55 2799.34 2441.87 1756.52 1126.83 0 0 0 0 0 0 0 0 0 0 0 0 0 0 0 0 0 0 0 0 0 0 0 0 0 0 0 0 0 0 0 0 0 0 0 0 0 0 0 0 0 0 0 0 0 0 0 0 0 0 0 0 0 0 0 0 0 0 0 0 0 0 0 0 0 0 0 0 0 0 0 0 0 0 0 0 0 0 0 0 0 0 0 0 0 0 0 0 0 0 0 0 0 0 0 0 0 0 0 0 0 0 0 0 0 0 0 0 0 0 0 0 0 0 0 0 0 0 0 0 0 0 0 0 0 0 0 0 0 0 0 2703.14 2783.13 2414.05 2192.07 2189.69 2626.13 0 0 0 0 0 0 0 0 0 0 0 0 0 0 0 0 0 0 0 3084.78 3046.52 3033.41 3244.97 3110.23 3005.7 3166.7 3286.86 3199.06 3031.28 3027.06 3082.91 2960.41 3017.65 3104.7 3078.21 2944.15 3023.57 3116.81 3001.72 2856.92 0 0 0 0 0 0 0 0 0 0 0 0 0 0 0 0 0 0 0 0 0 0 0 0 0 0 0 0 0 2127.82 2198.5 2380.65 2468.35 2239.08 1837.63 1834.67 1694.52 0 0 0 0 0 0 0 0 0 0 0 0 0 0 0 0 0 0 0 0 0 0 0 0 0 0 0 0 0 0 0 0 0 0 0 0 0 0 0 0 0 0 0 0 0 0 0 0 0 2220.41 2607.56 3076.07 3143.91 3352.27 3268.29 3233.96 3255.86 3274.61 4009.49 3894.64 3897.63 3723.84 3627.39 3215.86 3146.33 3168.07 3103.78 3117.51 3010.17 2929.65 2899.33 2638.56 2428.83 2783.55 2324.61 2337.76 0 0 0 0 0 666.532 0 0 0 0 0 3008.34 3018.84 3324.24 3437.08 3509.55 3301.8 3503.84 3623.94 3964.87 3988.91 4071.97 3488.97 3501.42 3949.75 4029.43 3919.12 3351.4 3427.32 3494.28 3394.32 3456.13 3210.94 2973.52 2788.4 2439.39 2971.1 2042 0 1254.47 0 0 0 0 0 0 0 0 0 0 0 0 0 0 0 0 0 0 0 0 0 0 0 0 0 0 0 0 0 0 0 0 0 0 0 0 0 0 0 0 0 0 0 0 0 0 0 0 2799.9 2701.88 2659.18 2832.51 3043.15 3252.83 3017.59 3006.67 3171.73 3278.58 3405.69 3389.59 3443.93 3347.66 3169.39 3246.98 3302.78 3248.05 3171.31 3042.88 2906.01 2684.41 2891.18 2754.62 2709.6 2527.47 2596.27 2410.96 2385.9 2427.28 2292.37 2100.62 2213.44 2280.44 2172.91 2085.53 1988.16 0 0 0 0 0 0 0 0 0 0 0 0 0 0 0 0 0 0 0 0
0 0 0 0 0 0 0 0 0 0 0 0 0 0 0 0 0 0 0 0 0 0 0 0 0 0 0 0 0 0 0 0 0 0 0 0 0 0 0 0 0 0 0 0 0 0 0 0 0 2821.42 2789.29 2837.64 2747.27 2722.7 2907.62 2967.16 3045.2 3779.71 3696.03 3657.44 3605.33 3180.38 3214.69 3100.68 3101.26 2991.6 2929.09 2979.49 3074.15 3066.01 2854.39 2753.44 2939.04 2851.19 2758.42 2321.75 1843.95 0 0 0 0 0 0 0 0 0 0 0 0 0 0 0 0 0 0 0 0 0 0 0 0 0 0 0 0 0 0 0 0 0 0 0 0 0 0 0 0 0 0 0 0 0 0 0 0 0 0 0 0 0 0 0 0 0 0 0 0 0 0 0 0 0 0 0 0 0 0 0 0 0 0 0 0 0 0 0 0 0 0 0 0 0 0 0 0 0 0 0 0 0 0 0 0 0 0 0 0 0 0 0 0 0 0 0 0 0 0 0 0 0 0 0 0 0 0 0 0 0 0 0 0 0 0 0 3115.48 3127.39 2892.08 2576.53 2954.88 2868.69 2594.74 2354.82 2228.76 2499.68 2024.82 1934.01 0 0 0 0 0 0 0 0 0 0 0 0 0 0 0 0 2828.45 3199 3166.58 3071.11 3237.89 3111.73 3078.1 3202.73 3310.93 3213.34 3049.29 3051.34 3151.83 3114.56 3120.58 3166.76 3106.66 2980.39 3072.52 3161.98 2964.91 2797.61 2689.27 0 0 0 0 0 0 0 0 0 0 0 0 0 0 0 0 0 0 0 0 0 0 0 0 0 0 0 0 2204.08 2079.04 2366.55 2401.09 2134.4 1687.72 1771.75 1697.24 0 0 0 0 0 0 0 0 0 0 0 0 0 0 0 0 0 0 0 0 0 0 0 0 0 0 0 0 0 0 0 0 0 0 0 0 0 0 0 0 0 0 0 0 0 0 0 0 0 0 2829.36 3167.83 3190.97 3304.15 3195.95 3161.21 3218.76 3251.38 4358.3 3856.07 3260.74 3225.94 3157.7 3157.34 3078.78 3082.85 2984.21 2961.03 2820.09 2706.58 2616.55 2475.63 2189.67 2376.74 1888.38 1794.81 1800.38 0 0 0 0 0 0 0 0 0 0 2990.64 3094.17 3304.86 3263.08 3299.21 3197.84 3434.34 3479.42 3440.25 3416.09 3877.01 3368.76 3428.93 3421.94 3482.31 3334.81 3318.79 3400.51 3471.22 3420.34 3554.08 3433.5 3249.75 3343.12 3264.54 0 0 0 1471.31 0 0 0 0 0 0 0 0 0 0 0 0 0 0 0 0 0 0 0 0 0 0 0 0 0 0 0 0 0 0 0 0 0 0 0 0 0 0 0 0 0 0 0 0 0 0 0 0 0 0 2518.82 2696.79 2862.04 3070.83 2869.03 2846.01 3091.77 3273.01 3402.51 3438.28 3510.58 3383.3 3266.77 3352.27 3351 3276.78 3177.25 3156.69 3079.01 2812.76 3168.19 2858.43 2939.97 2822.98 2840.28 2516.67 2466.39 2372.7 2218.86 2091.9 2194.39 2300.7 0 0 0 0 0 0 0 0 0 0 0 0 0 0 0 0 0 0 0 0 0 0 0
0 0 0 0 0 0 0 0 0 0 0 0 0 0 0 0 0 0 0 0 0 0 0 0 0 0 0 0 0 0 0 0 0 0 0 0 0 0 0 0 0 0 0 0 0 0 0 0 2854.15 2830.55 2701.88 2747.18 2636.53 2621.17 2785.67 2842.59 2947.87 3094.96 3062.87 3036.76 3036.32 3153.19 3169.63 3115.94 3116.35 3041.28 2966.48 3081.89 3162.76 3230.66 3131.71 3126.28 3205.85 3186.73 2968.05 2724.25 2220.91 0 0 0 0 0 0 0 0 0 0 0 0 0 0 0 0 0 0 0 0 0 0 0 0 0 0 0 0 0 0 0 0 0 0 0 0 0 0 0 0 0 0 0 0 0 0 0 0 0 0 0 0 0 0 0 0 0 0 0 0 0 0 0 0 0 0 0 0 0 0 0 0 0 0 0 0 0 0 0 0 0 0 0 0 0 0 0 0 0 0 0 0 0 0 0 0 0 0 0 0 0 0 0 0 0 0 0 0 0 0 0 0 0 0 0 0 0 0 0 0 0 0 0 0 2975.05 3164.49 3314.13 3031.28 3145.39 2949.63 2735.44 3136.04 3115.37 3131.47 2990.11 2828.69 2967.27 2581.84 2442.26 2885.71 2140.34 0 0 0 0 0 0 0 1248.19 1589.89 1662.43 2402.4 2963.44 2998.55 2853.42 2922 3212.6 3146.74 2950.93 3208.54 3123.83 3045.31 3136.21 3232.84 3147.04 3029.96 2986.55 3103.95 3025.1 3025.48 3066.29 3043.7 2945.75 2980.39 3008.39 2940.64 2788.45 2569.62 2398.04 0 0 0 0 0 0 0 0 0 0 0 0 0 0 0 0 0 0 0 0 0 0 0 0 0 0 0 0 1466.05 1850.58 1983.34 1762.92 1568.46 1421.32 1246.5 0 0 0 0 0 0 0 0 0 0 0 0 0 0 0 0 0 0 0 0 0 0 0 0 0 0 0 0 0 0 0 0 0 0 0 0 0 0 0 0 0 0 0 0 0 0 0 0 0 2849.45 3172.57 3312.23 3291.63 3341.46 3213.4 3116.7 3206.09 3208.54 4368.85 3769.6 3170.05 3145.86 3084.16 3106.31 3080.08 3099.94 3011.04 2997.7 2909.03 2804.48 2746.01 2680.89 2419.37 2583.87 1869.36 1826.29 0 0 0 0 0 0 0 0 0 0 0 2921.23 3115.83 3226.93 3264.92 3254.73 3224.39 3428.37 3921.68 3951.98 3990.8 4022.57 3754.34 3765.54 3818.59 3418.32 3274.48 3238.46 3285.32 3351.8 3321.48 3429.29 3351.4 3295.45 3352.27 3304.15 3570.65 3008.72 0 1698.12 0 0 0 0 0 0 0 0 0 0 0 0 0 0 0 0 0 0 0 0 0 0 0 0 0 0 0 0 0 0 0 0 0 0 0 0 0 0 0 0 0 0 0 0 0 0 0 0 0 0 0 2585.18 2585.34 2818.71 2568.01 2601.14 2880.26 3301.74 3442.58 3538.27 3549.05 3453.35 3385.07 3615.43 3584 3574.07 3389.04 3461.62 3460.33 3252.39 3697.58 3206.4 2994.65 2809.74 2718.95 2289.96 2403.43 0 2119.09 2036.2 0 0 0 0 0 0 0 0 0 0 0 0 0 0 0 0 0 0 0 0 0 0 0 0 0
0 0 0 0 0 0 0 0 0 0 0 0 0 0 0 0 0 0 0 0 0 0 0 0 0 0 0 0 0 0 0 0 0 0 0 0 0 0 0 0 0 0 0 0 0 0 0 0 2800.79 2822.46 2652.25 2726.99 2687.51 2595.74 2767.48 2828.74 2908.68 3078.67 3033.19 3022.81 3013.26 3044.42 3093.42 3047.68 3074.66 3024.61 2970.58 3721.2 3151.23 4062.21 3309.42 3321.41 3384.94 3346.52 3251.89 2862.67 2724.74 0 0 0 0 0 0 0 0 0 0 0 0 0 0 0 0 0 0 0 0 0 0 0 0 0 0 0 0 0 0 0 0 0 0 0 0 0 0 0 0 0 0 0 0 0 0 0 0 0 0 0 0 0 0 0 0 0 0 0 0 0 0 0 0 0 0 0 0 0 0 0 0 0 0 0 0 0 0 0 0 0 0 0 0 0 0 0 0 0 0 0 0 0 0 0 0 0 0 0 0 0 0 0 0 0 0 0 0 0 0 0 0 0 0 0 0 0 0 0 0 0 0 3057.57 3150.17 2823.84 3096.11 3238.71 3059.97 3109.36 3034.68 2893.13 3267.85 3284.16 3360.33 3199.55 2959.78 3033.96 2773.29 2599.73 2971.58 2343.64 0 0 0 0 0 0 0 1420.79 1839.4 1906.06 2881.75 3298.49 3111.49 2756.66 2799.76 3008.83 3042.66 2902.74 3148.57 3095.42 3101.43 3146.98 3277.87 3200.95 3067.63 3055.51 3158.35 3049.73 3009.42 2991.6 2980.07 2856.68 2878.63 2989.31 2806.03 2610.53 2427.18 2281.62 2027.88 0 1136.49 0 0 0 0 0 0 0 0 0 0 0 0 0 0 0 0 0 0 0 0 0 0 0 0 0 1365.67 2017.25 1902.11 1884.29 1712.82 0 0 0 0 0 0 0 0 0 0 0 0 0 0 0 0 0 0 0 0 0 0 0 0 0 0 0 0 0 0 0 0 0 0 0 0 0 0 0 0 0 0 0 0 0 0 0 0 0 0 0 0 3012.77 3228.86 3285.32 3362.21 3185.15 3016.67 3153.6 3175.39 4519.97 3142.44 3112.3 3062.82 3004.68 3040.45 3082.85 3105.97 3026.46 3022.21 2870.26 2737.14 2652.37 2402.57 2062.38 2127.63 1662.79 1592.38 0 0 0 0 0 0 0 0 0 0 2867.71 2999.25 3184.43 3205.17 3293.31 3286.28 3263.08 3429.71 4153.83 4136.11 4027.2 4030.88 3741.53 3385.69 3742.61 3376.35 3216.91 3130.3 3192.12 3249.94 3228.3 3280.63 3234.15 3178.4 3166.28 3233.46 3478.27 2998.72 0 1727.24 1413.99 0 0 0 0 0 0 0 0 0 0 0 0 0 0 0 0 0 0 0 0 0 0 0 0 0 0 0 0 0 0 0 0 0 0 0 0 0 0 0 0 0 0 0 0 0 0 0 0 0 0 0 2499.87 2880.51 2604.41 2735.62 3156.57 3479.78 3608.9 3644.72 3693.34 3620.03 3511.98 3903.98 3807.85 3725.24 3513.45 3504.64 0 0 0 0 0 0 0 1931.22 0 0 0 0 0 0 0 0 0 0 0 0 0 0 0 0 0 0 0 0 0 0 0 0 0 0 0 0 0
0 0 0 0 0 0 0 0 0 0 0 0 0 0 0 0 0 0 0 0 0 0 0 0 0 0 0 0 0 0 0 0 0 0 0 0 0 0 0 0 0 0 0 0 0 0 2984.79 3167.24 2586.74 2544.6 2457.18 2586.98 2619.74 2614.31 2799.15 2865.07 2936.26 3080.25 3047.91 3047.41 3014.23 3035.5 3052.23 3020.42 3049.46 3040.5 3004.41 3724.67 3845.64 4136.01 3400.51 3357.5 3374.39 3383.23 3159.66 2802.38 2663.61 2136.79 0 0 0 0 0 0 0 0 0 0 0 0 0 0 0 0 0 0 0 0 0 0 0 0 0 0 0 0 0 0 0 0 0 0 0 0 0 0 0 0 0 0 0 0 0 0 0 0 0 0 0 0 0 0 0 0 0 0 0 0 0 0 0 0 0 0 0 0 0 0 0 0 0 0 0 0 0 0 0 0 0 0 0 0 0 0 0 0 0 0 0 0 0 0 0 0 0 0 0 0 0 0 0 0 0 0 0 0 0 0 0 0 0 0 0 0 0 0 0 0 0 2827.07 2946.84 2797.75 2878.19 3054.12 2967.69 3055.01 2999.47 2995.93 3364.37 3379.69 3399.82 3375.88 3134.63 3182.92 2992.83 2971.47 3088.87 2398.17 0 0 0 0 0 0 0 1358.33 1927.96 1852.93 3181.29 3448.88 3155.32 2836.3 2791.05 2999.09 3123.54 2972.26 3206.52 3161.98 3226.62 3291.63 3400.51 3341.12 3305.45 3253.4 3677.32 3265.37 3243.72 3175.63 3170.77 3053.18 3097.82 3032.26 2928.22 2688.63 2602.59 2474.39 2245.4 1961.13 0 1334.99 855.601 295.133 0 0 0 0 0 0 0 0 0 0 0 0 0 0 0 0 0 0 0 0 0 0 0 1087.55 0 0 0 0 0 0 0 0 0 0 0 0 0 0 0 0 0 0 0 0 0 0 0 0 0 0 0 0 0 0 0 0 0 0 0 0 0 0 0 0 0 0 0 0 0 0 0 0 0 0 0 0 0 0 0 2619 2789.8 2907.77 3068.31 3010.93 2817.72 3041.33 3127.62 3218.08 3152 3100.34 3086.14 2989.1 3033.3 3094.74 3077.31 2977.91 2932.21 2819.23 2809.65 2698.05 2641.47 2193.53 2090.31 1502.46 1232.59 0 0 0 0 0 0 0 0 2353.96 2428.76 2902.13 2943.89 3019.82 3020.09 3260.8 3296.74 3253.34 4123.1 4225.59 4237.55 4095.82 4108.76 3874.59 3785.68 3257.06 3260.04 3117.97 3045.75 3058.41 3111.09 3089.21 3138.27 3088.92 3101.37 3094.91 3091.54 3256.12 3056.62 0 0 0 0 0 0 0 0 0 0 0 0 0 0 0 0 0 0 0 0 0 0 0 0 0 0 0 0 0 0 0 0 0 0 0 0 0 0 0 0 0 0 0 0 0 0 0 0 0 0 0 0 0 0 2001.59 0 2083.41 2191.9 2673.46 3234.71 3448.46 3584.99 3662.23 3439.97 3466.55 3837.98 4010.26 0 0 3427.6 0 2712.75 3386.03 2222.85 1957.68 1621.09 1741.69 1394.55 0 0 0 0 0 0 0 0 0 0 0 0 0 0 0 0 0 0 0 0 0 0 0 0 0 0 0 0 0
0 0 0 0 0 0 0 0 0 0 0 0 0 0 0 0 0 0 0 0 0 0 0 0 0 0 0 0 0 0 0 0 0 0 0 0 0 0 0 0 0 0 0 0 0 0 0 3005.38 2547.12 2523.9 2516.82 2644.97 2720.45 2794.02 2892.33 2924.24 2902.08 3038.52 3046.3 3004.84 2987.24 2971.84 2956.03 2936.93 2965.59 3015.75 3005.27 3083.53 3154.73 3280.63 3410.4 3406.79 3494.64 3609.21 3433.92 2639.15 2278.27 1526.64 0 0 0 0 0 0 0 0 0 0 0 0 0 0 0 0 0 0 0 0 0 0 0 0 0 0 0 0 0 0 0 0 0 0 0 0 0 0 0 0 0 0 0 0 0 0 0 0 0 0 0 0 0 0 0 0 0 0 0 0 0 0 0 0 0 0 0 0 0 0 0 0 0 0 0 0 0 0 0 0 0 0 0 0 0 0 0 0 0 0 0 0 0 0 0 0 0 0 0 0 0 0 0 0 0 0 0 0 0 0 0 0 0 0 0 0 0 1904.24 2634.34 2987.45 2948.44 2577.08 2625.27 2671.03 2804.16 2976.95 2873.6 3000.54 2987.82 3039.79 3365.59 3418.39 3405.27 3317.41 3154.49 3206.58 3021.18 3002.9 2970.73 2413.42 2235.41 0 0 0 0 0 0 1590.31 2340.79 1698.51 3178.34 3553.33 3522.37 3272.25 3270.65 3348.79 3540.29 3383.71 3497.12 3378.26 3390.68 3406.38 3448.46 3380.1 3642.27 3552.65 3489.55 3635.88 3651.07 3638.64 3208.11 3109.88 3117.45 3065.56 2882.19 2715.39 2674.1 2460.1 2310.05 2065.63 0 0 1030.45 0 0 0 0 0 0 0 0 0 0 0 0 0 0 0 0 0 0 0 0 0 0 0 0 0 0 0 0 0 0 0 0 0 0 0 0 0 0 0 0 0 0 0 0 0 0 0 0 0 0 0 0 0 0 0 0 0 0 0 0 0 0 0 0 0 0 0 0 0 0 0 0 0 0 0 0 0 0 0 0 0 2982.62 3240.14 3328.27 3158.83 3040.5 3204.5 3165.26 4007.2 3193.52 3085.52 3039.62 2984.69 3004.73 3045.58 3020.42 3017.81 2972.52 2983.41 3017.81 2935.19 2658.68 2363.48 2014.59 1495.12 1236.26 0 0 0 0 0 439.78 0 1229.4 1553.94 2190.04 2820.09 2902.13 3046.97 3025.1 3267.53 3215.06 3157.22 3358.38 3435.39 3411.99 3945.85 3331.24 3284.35 3161.51 3182.07 3190.61 3035.5 2930.57 2885.32 2878.39 2907.72 2973.58 2992.46 2946.58 2886.76 2792.54 2786.04 2697.57 0 0 0 0 0 0 0 0 0 0 0 0 0 0 0 0 0 0 0 0 0 0 0 0 0 0 0 0 0 0 0 0 0 0 0 0 0 0 0 0 0 0 0 0 0 0 0 0 0 0 0 0 0 0 0 0 0 1963.41 2362.18 3282.88 3699.94 3974.82 4153.83 3808.54 3746.79 3937.88 4049.95 0 0 2925.77 0 1971.48 0 0 0 0 0 0 0 0 0 0 0 0 0 0 0 0 0 0 0 0 0 0 0 0 0 0 0 0 0 0 0 0 0 0 0
0 0 0 0 0 0 0 0 0 0 0 0 0 0 0 0 0 0 0 0 0 0 0 0 0 0 0 0 0 0 0 0 0 0 0 0 0 0 0 0 0 0 0 0 0 0 0 2796.68 2556.24 2587.34 2641.02 2702.66 2776.13 2792.02 2846.64 2897.57 2863.89 2954.1 2963.7 2916.01 2900.83 2896.12 2901.33 2892.73 2912.46 2986.44 3011.96 3058.8 3135.98 3942.14 3352.2 3343.79 3435.82 3503.11 3293.57 2656.19 2566.56 1740.84 0 0 0 0 0 0 0 0 0 0 0 0 0 0 0 0 0 0 0 0 0 0 0 0 0 0 0 0 0 0 0 0 0 0 0 0 0 0 0 0 0 0 0 0 0 0 0 0 0 0 0 0 0 0 0 0 0 0 0 0 0 0 0 0 0 0 0 0 0 0 0 0 0 0 0 0 0 0 0 0 0 0 0 0 0 0 0 0 0 0 0 0 0 0 0 0 0 0 0 0 0 0 0 0 0 0 0 0 0 0 0 0 0 0 0 0 0 2186.38 2600.81 3125.23 3096.62 2779.35 2823.74 2834.09 2957.07 3108.84 3024.34 3117.33 3079.97 3108.84 3366.94 3433.57 3471.22 3767.06 3710.66 3310.14 3200.46 3185.88 3183.88 2729.66 2333.95 2215.72 1864.23 0 0 0 0 947.866 1726.62 1748.68 3125.76 3435.18 3437.72 3202.97 3093.08 3285.9 3470.79 3392.81 3531.94 3454.56 3468.99 3418.04 3442.23 3719.71 3707.63 3658.39 3719.88 3641.64 3670.48 3688.88 3669.35 3702.55 4240.12 3058.41 2934.62 2874.74 2965.43 2856.77 2751.64 2480.83 2022.16 1989.88 1432.16 0 0 0 0 0 0 0 0 0 0 0 0 0 0 0 0 0 0 0 0 0 0 0 0 0 0 0 0 0 0 0 0 0 0 0 0 0 0 0 0 0 0 0 0 0 0 0 0 0 0 0 0 0 0 0 0 0 0 0 0 0 0 0 0 0 0 0 0 0 0 0 0 0 0 0 0 0 0 0 0 0 2642.14 2817.15 3254.1 3217.53 3214.32 3344.25 3336.21 4022.18 3390.68 3126.63 3036.87 2931.9 2984.53 3051.73 3033.41 2963.55 2858.72 2736.02 2941.62 3082.85 0 0 0 0 0 583.581 0 0 0 0 0 0 1746.59 1638.55 2016.91 2725.05 2789.84 2955.25 2999.63 3263.46 3187.45 3144.85 3324.64 3392.12 3926.36 3973.32 3331.7 3274.99 3170.95 3200.46 3211.98 3096.34 3047.24 3028.54 3039.62 3045.91 3114.21 3105.85 3111.55 3114.32 3012.82 2998.18 3030.13 2576.29 0 0 0 0 0 0 0 0 0 0 0 0 0 0 0 0 0 0 0 0 0 0 0 0 0 0 0 0 0 0 0 0 0 0 0 0 0 0 0 0 0 0 0 0 0 0 0 0 0 0 0 0 0 0 0 0 0 0 0 2780.18 3310.6 0 0 0 0 0 0 0 0 0 0 0 0 0 0 0 0 0 0 0 0 0 0 0 0 0 0 0 0 0 0 0 0 0 0 0 0 0 0 0 0 0 0 0 0 0
0 0 0 0 0 0 0 0 0 0 0 0 0 0 0 0 0 0 0 0 0 0 0 0 0 0 0 0 0 0 0 0 0 0 0 0 0 0 0 0 0 0 0 0 0 0 0 2941.83 2611.3 2601.46 2642.6 2700.01 2764.01 2813.51 2841.87 2887.2 2809.51 2893.73 2941.46 2905.3 2898.12 2895.97 2879.13 2895.82 2909.78 3014.01 3054.68 3028.54 3101.26 3834.74 3256.24 3214.51 3263.4 3316.16 3028.98 2528.88 2690.35 1623.02 0 0 0 0 0 0 0 0 0 0 0 0 0 0 0 0 0 0 0 0 0 0 0 0 0 0 0 0 0 0 0 0 0 0 0 0 0 0 0 0 0 0 0 0 0 0 0 0 0 0 0 0 0 0 0 0 0 0 0 0 0 0 0 0 0 0 0 0 0 0 0 0 0 0 0 0 0 0 0 0 0 0 0 0 0 0 0 0 0 0 0 0 0 0 0 0 0 0 0 0 0 0 0 0 0 0 0 0 0 0 0 0 0 0 0 0 0 2401.3 2583.04 2785.03 2852.64 2717.72 2751.46 2843.12 3014.77 3140.85 3086.82 3191.94 3304.93 3255.55 3490.5 3515.36 3518.9 3474.31 3319.51 3299.66 3203.83 3086.88 3151.53 2642.64 2413.98 2213.47 1754.06 0 0 0 1216.97 1010.59 1908.36 2054.5 3209.28 3506.84 3556.65 3314.79 3160.02 3364.84 3457.84 3325.3 3472.58 3448.67 3462.83 3393.91 3473.01 3727.98 3708.28 3668.55 3748.38 3688.39 3709.59 3769.18 3836.49 3863.97 4303.85 4548.28 3110.57 2989.74 3090.63 3161.45 3039.07 2719.3 2257.49 2179.4 1674.86 1428.63 0 0 0 0 0 0 0 0 0 0 0 0 0 0 0 0 0 0 0 0 0 0 0 0 0 0 0 0 0 0 0 0 0 0 0 0 0 0 0 0 0 0 0 0 0 0 0 0 0 0 0 0 0 0 0 0 0 0 0 0 0 0 0 0 0 0 0 0 0 0 0 0 0 0 0 0 0 0 0 0 2307.85 2559.2 3147.69 3077.42 3204.87 3371.2 3357.1 3482.96 3547.92 3265.31 3132.41 2980.18 3067.91 3104.7 3056.07 2946.99 2823.31 2586.78 2771.59 0 0 0 0 0 0 0 0 0 0 0 0 0 0 0 0 0 2630.09 2844.37 2873.51 3167.48 3075.62 3104.18 3171.13 3262.07 3248.24 3243.21 3218.76 3179.96 3057.63 3130.65 3076.35 3058.96 3022.27 3031.28 3012.07 3023.96 3092.06 3128.84 3126.05 4002.99 3032.54 2918.03 2913.47 0 0 0 0 0 0 0 0 0 0 0 0 0 0 0 0 0 0 0 0 0 0 0 0 0 0 0 0 0 0 0 0 0 0 0 0 0 0 0 0 0 0 0 0 0 0 0 0 0 0 0 0 0 0 0 0 0 0 0 0 0 0 0 0 0 0 0 0 0 0 0 0 0 0 0 0 0 0 0 0 0 0 0 0 0 0 0 0 0 0 0 0 0 0 0 0 0 0 0 0 0 0 0 0 0 0 0
0 0 0 0 0 0 0 0 0 0 0 0 0 0 0 0 0 0 0 0 0 0 0 0 0 0 0 0 0 0 0 0 0 0 0 0 0 0 0 0 0 0 0 0 0 0 0 2803.08 2620.31 2679.52 2727.88 2741.34 2790.26 2878.53 2905.35 2932.98 2883.38 2959.57 2977.75 2933.8 2980.71 2957.12 2914.38 2923.27 2943.01 3025.81 3049.57 3016.02 3699.29 3828.18 3206.27 3220.99 3233.4 3380.98 3191.39 2792.44 3230.85 2589.89 0 0 0 0 0 0 0 0 0 0 0 0 0 0 0 0 0 0 0 0 0 0 0 0 0 0 0 0 0 0 0 0 0 0 0 0 0 0 0 0 0 0 0 0 0 0 0 0 0 0 0 0 0 0 0 0 0 0 0 0 0 0 0 0 0 0 0 0 0 0 0 0 0 0 0 0 0 0 0 0 0 0 0 0 0 0 0 0 0 0 0 0 0 0 0 0 0 0 0 0 0 0 0 0 0 0 0 0 0 0 0 0 0 0 0 0 0 2179.65 2356.84 2541.67 2564.87 2561.5 2756.84 2860.91 3078.38 3238.39 3232.78 3320.49 3431.6 3401.41 3562.39 3526.15 3531.2 3459.69 3274.61 3287.76 3225.82 3130.89 3215.55 2875.28 2760.19 2558.96 2124.62 0 0 1810.46 1254.11 1105.12 1806.1 2074.62 2929.14 3418.53 3647.34 3337.53 3146.51 3297.52 3440.68 3323.52 3378.26 3397.76 3410.81 3325.03 3397.69 3385.28 3396.04 3356.36 3416.85 3647.18 3323.45 3737.19 3782.69 3328.6 4250.32 4512.8 3191.58 3057.96 3114.96 3113.57 3059.47 2765.93 2356.54 2083.25 0 0 0 0 0 0 0 0 0 0 0 0 0 0 0 0 0 0 0 0 0 0 0 0 0 0 0 0 0 0 0 0 0 0 0 0 0 0 0 0 0 0 0 0 0 0 0 0 0 0 0 0 0 0 0 0 0 0 0 0 0 0 0 0 0 0 0 0 0 0 0 0 0 0 0 0 0 0 0 0 0 0 0 0 0 3015.31 3147.63 3278.64 3267.15 3537.82 3660.31 3412.13 3276.27 3152.36 3201.14 3247.17 3278.96 0 3145.92 2848.77 0 0 0 0 0 0 0 0 0 0 0 0 0 0 0 1929.6 0 2612.31 2559.16 2776.27 2878.09 3130.89 3079.68 3104.76 3130.3 3154.43 3116.58 3125.23 3086.6 3067.63 3001.24 3073.36 3004.95 3013.04 3021.12 3051.62 3059.41 3064.05 3862.81 3785.68 3048.02 3174.85 2750.96 2577.92 0 0 0 0 0 0 0 0 0 0 0 0 0 0 0 0 0 0 0 0 0 0 0 0 0 0 0 0 0 0 0 0 0 0 0 0 0 0 0 0 0 0 0 0 0 0 0 0 0 0 0 0 0 0 0 0 0 0 0 0 0 0 0 0 0 0 0 0 0 0 0 0 0 0 0 0 0 0 0 0 0 0 0 0 0 0 0 0 0 0 0 0 0 0 0 0 0 0 0 0 0 0 0 0 0 0 0 0
0 0 0 0 0 0 0 0 0 0 0 0 0 0 0 0 0 0 0 0 0 0 0 0 0 0 0 0 0 0 0 0 0 0 0 0 0 0 0 0 0 0 0 0 0 0 2918.34 2977.17 2890.29 3029.63 2942.81 2929.6 2968.26 3056.35 3059.8 3033.03 2985.91 3004.46 3008.88 3005.43 3035.83 2996.25 2913.73 2913.88 2942.39 3010.77 3022.65 2946.47 2939.15 3051.56 3106.02 3185.58 3131.41 3135.28 0 0 0 0 0 0 0 0 0 0 0 0 0 0 0 0 0 0 0 0 0 0 0 0 0 0 0 0 0 0 0 0 0 0 0 0 0 0 0 0 0 0 0 0 0 0 0 0 0 0 0 0 0 0 0 0 0 0 0 0 0 0 0 0 0 0 0 0 0 0 0 0 0 0 0 0 0 0 0 0 0 0 0 0 0 0 0 0 0 0 0 0 0 0 0 0 0 0 0 0 0 0 0 0 0 0 0 0 0 0 0 0 0 0 0 0 0 0 0 0 2114.92 2310.24 2484.47 2564.87 2555.69 2626.79 2790.49 2905.9 3100.57 3240.77 3231.1 3306.95 3441.38 3442.09 3560.72 3554.69 3771.21 3754.42 3681.19 3323.06 3276.02 3158.59 3195.89 2963.7 2738.88 2428.58 1963.87 1952.03 1982.66 1677.2 1549.38 1437.92 2420.98 3132.93 3479.86 3611.23 3771.13 3396.11 3186.06 3230.1 3409.63 3201.56 3203.52 3233.53 3312.82 3265.11 3288.67 3299.99 3345.19 3264.99 3345.45 3317.93 3285.32 3217.1 3264.35 3307.34 3320.82 4377.06 4642.41 3033.41 3111.44 3135.1 3151 2964.59 2549.55 2436.48 2107.48 0 0 0 0 0 0 0 0 0 0 0 0 0 0 0 0 0 0 0 0 0 0 0 0 0 0 0 0 0 0 0 0 0 0 0 0 0 0 0 0 0 0 0 0 0 0 0 0 0 0 0 0 0 0 0 0 0 0 0 0 0 0 0 0 0 0 0 0 0 0 0 0 0 0 0 0 0 0 0 0 0 0 0 0 0 0 0 2903.69 0 3363.63 3151.53 3060.75 3031.39 3308.77 3426.69 3504.86 3632.34 3400.24 0 0 0 0 0 0 0 0 0 0 0 0 0 0 0 0 0 2776.32 2744.71 2765.61 2817.81 2963.6 3197.66 3093.54 3105.45 3143.32 3095.08 3087.84 3088.58 3074.21 3061.09 2969.79 3053.45 2975.69 2977.01 3006.67 3067.63 3052.51 3055.34 3072.97 3110.05 3071.28 3239.52 2945.03 2818.24 2685.57 0 0 0 0 0 0 0 0 0 0 0 0 0 0 0 0 0 0 0 0 0 0 0 0 0 0 0 0 0 0 0 0 0 0 0 0 0 0 0 0 0 0 0 0 0 0 0 0 0 0 0 0 0 0 0 0 0 0 0 0 0 0 0 0 0 0 0 0 0 0 0 0 0 0 0 0 0 0 0 0 0 0 0 0 0 0 0 0 0 0 0 0 0 0 0 0 0 0 0 0 0 0 0 0 0 0 0
0 0 0 0 0 0 0 0 0 0 0 0 0 0 0 0 0 0 0 0 0 0 0 0 0 0 0 0 0 0 0 0 0 0 0 0 0 0 0 0 0 0 0 0 0 0 0 2557.01 2604 2733.84 2751.19 2776.96 2939.09 3071.17 3099.14 4278.17 4097.82 3915.55 3094.74 3099.08 3116.12 3043.54 2925.31 2945.23 2959.1 2977.32 2999.73 2899.73 2823.46 2956.08 2978.43 3119.59 3014.66 2952.23 0 0 0 0 0 0 0 0 0 0 0 0 0 0 0 0 0 0 0 0 0 0 0 0 0 0 0 0 0 0 0 0 0 0 0 1749.23 0 0 0 0 0 0 0 2360.32 2256.18 0 0 0 0 0 0 0 0 0 0 0 0 0 0 0 0 0 0 0 0 0 0 0 0 0 0 0 0 0 0 0 0 0 0 0 0 0 0 0 0 0 0 0 0 0 0 0 0 0 0 0 0 0 0 0 0 0 0 0 0 0 0 0 0 0 0 0 0 0 0 0 0 0 0 0 2268.97 2363.05 2613.49 2644.47 2642.51 2720.01 2906.21 3002.53 3098.91 3227 3208.54 3232.72 3353.54 3396.59 3507.28 3460.26 3682 3682.89 3266.7 3289.76 3263.27 3158.89 3140.62 2898.83 2694.67 2411.72 2004.91 2145.18 2382.14 1778.43 1634.94 1924.29 2812.52 3902.8 3723.26 3664.79 3608.74 3289.38 3064.83 3096.11 3303.23 3163.71 3136.39 3195.47 3267.98 3253.53 3271.23 3293.06 3350.87 3239.58 3286.35 3241.52 3206.4 3116.12 3169.09 3201.5 3186.61 3041.66 3075.22 2957.64 3076.69 3046.25 3147.39 2806.08 2448.71 2247.21 1772.7 0 0 0 0 0 0 0 0 0 0 0 0 0 0 0 0 0 0 0 0 0 0 0 0 0 0 0 0 0 0 0 0 0 0 0 0 0 0 0 0 0 0 0 0 0 0 0 0 0 0 0 0 0 0 0 0 0 0 0 0 0 0 0 0 0 0 0 0 0 0 0 0 0 0 0 0 0 0 0 0 0 0 0 0 0 0 0 0 0 0 0 0 2934.42 3170.29 3445.13 3329.92 0 0 0 0 0 0 0 0 0 0 0 0 0 0 0 0 0 2273.46 2434.11 2972.84 2868.2 2826.64 2851.29 3014.99 3274.87 3184.19 3176.95 3128.2 3092.34 3074.1 3076.41 3057.29 3077.54 2977.17 3053.95 2996.89 3051.9 3070.27 3141.44 3148.1 4158.15 3968.15 3187.57 3191.09 3266.07 3004.51 2839.8 2711.09 2559.12 0 0 0 0 0 0 0 0 0 0 0 0 0 0 0 0 0 0 0 0 0 0 0 0 0 0 0 0 0 0 0 0 0 0 0 0 0 0 0 0 0 0 0 0 0 0 0 0 0 0 0 0 0 0 0 0 0 0 0 0 0 0 0 0 0 0 0 0 0 0 0 0 0 0 0 0 0 0 0 0 0 0 0 0 0 0 0 0 0 0 0 0 0 0 0 0 0 0 0 0 0 0 0 0 0 0
0 0 0 0 0 0 0 0 0 0 0 0 0 0 0 0 0 0 0 0 0 0 0 0 0 0 0 0 0 0 0 0 0 0 0 0 0 0 0 0 0 0 0 0 0 0 0 2388.38 2577.24 2685.23 2748.8 2861.5 3882.84 3979.82 3954.77 3135.8 3094.68 3062.93 3126.1 3133.75 3119.83 3004.35 2883.78 2875.97 2928.63 2956.34 3004.95 2817.77 2703.49 2781.01 2761.06 2869.72 2749.43 2489.41 0 0 0 0 0 0 0 0 0 0 0 0 0 0 0 0 0 0 0 0 0 0 0 0 0 0 0 0 0 0 0 0 0 0 0 1782.65 0 0 1620.29 0 0 0 0 2812.24 2685.36 0 0 0 0 0 0 0 0 0 0 0 0 0 0 0 0 0 0 0 0 0 0 0 0 0 0 0 0 0 0 0 0 0 0 0 0 0 0 0 0 0 0 0 0 0 0 0 0 0 0 0 0 0 0 0 0 0 0 0 0 0 0 0 0 0 0 0 0 0 0 0 0 0 0 0 0 2327.12 2563.58 2610.28 2584.11 2727.88 2903.54 3112.59 3204.25 3272.57 3224.39 3259.15 3378.19 3466.48 3538.05 3494.5 3376.02 3319.38 3162.88 3210.57 3140.79 3070.22 3021.5 2829.74 2693.07 2492.25 2239.98 0 2325.8 2116.39 1830.63 1757.18 2256.52 0 3633.44 3387.95 3400.51 3305.58 3177.73 3176.11 3333.16 3222.66 3152.06 3946.59 3247.17 3795.96 3255.86 3673.45 3324.7 3251.64 3305.38 3294.15 3306.16 3222.29 3243.15 3299.14 3318.65 3187.51 3180.26 3055.62 3260.74 3160.85 3312.76 3201.44 2878.98 2492.4 2014.95 0 0 0 1164.77 0 0 741.647 1260.91 2048.51 0 0 0 0 0 0 0 0 0 0 0 0 0 0 0 0 0 0 0 0 0 0 0 0 0 0 0 0 0 0 0 0 0 0 0 0 0 0 0 0 0 0 0 0 0 0 0 0 0 0 0 0 0 0 0 0 0 0 0 0 0 0 0 0 0 0 0 0 0 0 0 0 0 0 0 0 0 0 0 0 0 0 0 0 0 0 0 0 0 0 0 0 0 0 0 0 0 0 0 0 0 0 0 0 2303.04 2478.23 2824.79 2894.07 2889.39 2916.92 2987.5 3154.91 3083.31 3089.15 3042.16 3028.76 2961.03 2984.79 2955.19 2993.58 2905.5 4483.98 4453.15 2986.01 2986.76 3119.01 4153.83 5085.52 4310.38 4266.75 3013.42 3055.34 2701.66 2528.23 2392.8 2208.05 0 0 0 0 0 0 0 0 0 0 0 0 0 0 0 0 0 0 0 0 0 0 0 0 0 0 0 0 0 0 0 0 0 0 0 0 0 0 0 0 0 0 0 0 0 0 0 0 0 0 0 0 0 0 0 0 0 0 0 0 0 0 0 0 0 0 0 0 0 0 0 0 0 0 0 0 0 0 0 0 0 0 0 0 0 0 0 0 0 0 0 0 0 0 0 0 0 0 0 0 0 0 0 0 0 0
0 0 0 0 0 0 0 0 0 0 0 0 0 0 0 0 0 0 0 0 0 0 0 0 0 0 0 0 0 0 0 0 0 0 0 0 0 0 0 0 0 0 0 0 0 0 0 2162.63 2562.48 2605.7 2716.57 2824.74 2974.16 3191.27 3923.42 4123.3 3846.17 3079.68 3150.88 3174.01 3171.61 3105.79 2945.44 2943.32 2955.56 2944.77 2996.68 2804.81 2678.88 2739.91 2653.8 2775.63 2663.53 2495.15 0 0 0 0 0 0 0 0 0 0 0 0 0 0 0 0 0 0 0 0 0 0 0 0 0 0 0 0 0 0 0 0 0 0 0 2355.71 2091.07 1943.21 1947.41 2380.58 2614.27 2558.73 2627 2719.88 2531.47 0 0 0 0 0 0 0 0 0 0 0 0 0 0 0 0 0 0 0 0 0 0 0 0 0 0 0 0 0 0 0 0 0 0 0 0 0 0 0 0 0 0 0 0 0 0 0 0 0 0 0 0 0 0 0 0 0 0 0 0 0 0 0 0 0 0 0 0 0 0 0 0 0 0 0 0 2382.95 2590.09 2662.22 2664.42 2729.97 2832.66 2996.73 3078.95 3133.4 3117.04 3172.45 3245.53 3356.3 3476.47 3477.62 3379.69 3347.39 3226.13 3299.99 3239.33 3243.97 3150.82 2979.12 2851.48 2628.77 2352.54 2391.3 0 2159.04 1885.33 2352.58 2041.83 2511.65 0 0 3200.53 3238.14 3165.68 3182.44 3351.07 3275.06 3210.88 4060.93 3956.17 3934.56 3801.72 3803.96 3692.13 3212.6 3251.2 3255.8 3289.31 3208.61 3217.59 3321.28 3325.17 3166.52 3246.67 3165.5 3300.76 3224.58 3391.71 3165.5 2701.79 0 1290.25 0 0 0 979.027 0 0 822.866 1287.81 1660.8 0 0 0 0 0 0 0 0 0 0 2090.52 0 0 0 0 0 0 0 0 0 0 0 0 0 0 0 0 0 0 0 0 0 0 0 0 0 0 0 0 0 0 0 0 0 0 0 0 0 0 0 0 0 0 0 0 0 0 0 0 0 0 0 0 0 0 0 0 0 0 0 0 0 0 0 0 0 0 0 0 0 0 0 0 0 0 0 0 0 0 0 0 0 0 0 0 0 0 0 0 0 0 0 0 0 0 2423.74 2602.83 2740.36 2741.12 2824.74 2887.95 3018.79 2948.96 2990.43 2954.78 2956.7 2870.31 2905.3 2860.96 2873.21 2808.33 2940.95 2846.35 2924.85 2957.75 3074.72 3012.34 5306.35 4065.55 3136.86 2957.12 2949.06 2575.26 2202.37 2168.81 1752.13 0 0 0 0 0 0 0 0 0 0 0 0 0 0 0 0 0 0 0 0 0 0 0 0 0 0 0 0 0 0 0 0 0 0 0 0 0 0 0 0 0 0 0 0 0 0 0 0 0 0 0 0 0 0 0 0 0 0 0 0 0 0 0 0 0 0 0 0 0 0 0 0 0 0 0 0 0 0 0 0 0 0 0 0 0 0 0 0 0 0 0 0 0 0 0 0 0 0 0 0 0 0 0 0 0 0
0 0 0 0 0 0 0 0 0 0 0 0 0 0 0 0 0 0 0 0 0 0 0 0 0 0 0 0 0 0 0 0 0 0 0 0 0 0 0 0 0 0 0 0 0 0 0 0 0 2753.35 2862.57 2962.03 3045.36 3257.89 3227.31 4115.31 3198.94 3140.26 4072.16 3983.22 3901.44 3806.55 3765.71 2990.16 2959.15 3655.76 2909.18 2693.24 2551.42 2628.52 2482.08 2729.12 2613.62 0 0 0 0 0 0 0 0 0 0 0 0 0 0 0 0 0 0 0 0 0 0 0 0 0 0 0 0 0 0 0 0 2472.02 2490.07 2641.81 2572.82 2767.57 2630.42 2581.92 2419.69 2766.15 2948.7 3081.72 3170.71 3404.65 0 0 0 0 0 0 0 0 0 0 0 0 0 0 0 0 0 0 0 0 0 0 0 0 0 0 0 0 0 0 0 0 0 0 0 0 0 0 0 0 0 0 0 0 0 0 0 0 0 0 0 0 0 0 0 0 0 0 0 0 0 0 0 0 0 0 0 0 0 0 0 0 0 0 0 0 0 2503.71 2656.91 2751.86 2792.44 2839.03 2906.26 3015.91 3114.79 3154.91 3141.2 3164.49 3212.54 3255.48 3336.67 3352.54 3260.55 3206.15 3104.24 3166.76 3141.73 3189.76 3205.66 3201.87 3016.29 2836.01 2658.3 2528.54 0 2272.81 2086.83 2401.98 1893.86 2369.42 0 0 3116.29 3044.86 3172.99 3176.05 3739.53 3174.85 3113.92 4070.98 3957.11 3950.68 3184.25 3776.9 3213.89 3095.14 3139.56 3662.87 3175.93 3083.42 3090.35 3215.43 3182.62 3066.12 4856.9 3179.78 3185.4 3232.4 3373.84 2963.6 2357.6 1847.91 0 0 0 0 1334.97 0 0 1607.99 1913.95 1908.34 0 0 0 0 2530.79 2469.4 2655.81 2587.06 2539.06 2592.57 2286.56 0 0 0 0 0 0 0 0 0 0 0 0 0 0 0 0 0 0 0 0 0 0 0 0 0 0 0 0 0 0 0 0 0 0 0 0 0 0 0 0 0 0 0 0 0 0 0 0 0 0 0 0 0 0 0 0 0 0 0 0 0 0 0 0 0 0 0 0 0 0 0 0 0 0 0 0 0 0 0 0 0 0 0 0 0 0 0 0 0 0 0 0 1901.59 2113.7 2214.29 2410.79 2611.83 2683.04 2885.91 2949.95 3011.26 2996.84 3030.62 3000.81 2989.05 2898.73 2918.54 2849.01 2874.83 2844.33 2967.48 2876.51 2949.27 3006.83 3175.39 3122.96 4450.67 3174.01 3279.09 3067.75 3076.13 2606.39 2202.57 2034.72 1683.84 0 0 0 0 0 0 0 0 0 0 0 0 0 0 0 0 0 0 0 0 0 0 0 0 0 0 0 0 0 0 0 0 0 0 0 0 0 0 0 0 0 0 0 0 0 0 0 0 0 0 0 0 0 0 0 0 0 0 0 0 0 0 0 0 0 0 0 0 0 0 0 0 0 0 0 0 0 0 0 0 0 0 0 0 0 0 0 0 0 0 0 0 0 0 0 0 0 0 0 0 0 0 0 0 0 0
0 0 0 0 0 0 0 0 0 0 0 0 0 0 0 0 0 0 0 0 0 0 0 0 0 0 0 0 0 0 0 0 0 0 0 0 0 0 0 0 0 0 0 0 0 0 0 0 0 4656.07 2915.9 3566.55 3920.12 3197.17 4029.23 4192.54 4112.29 4097.93 4138.76 4173.56 4108.26 4035.05 3068.92 3908.98 3798.28 3811.22 3821.64 3529.86 2533.73 2554.68 2320.75 2471.37 2309.73 2157.21 2234.67 0 0 0 0 0 0 0 0 0 0 0 0 0 0 0 0 0 0 0 0 0 0 0 0 0 0 0 0 0 2395.02 2301.33 2389.29 2608.46 2556.04 2792.3 2665.14 2510.19 2330.52 2586.14 2645.39 2818.15 2754.75 2904.8 0 0 0 0 0 0 0 0 0 0 0 0 0 0 0 0 0 0 0 0 0 0 0 0 0 0 0 0 0 0 0 0 0 0 0 0 0 0 0 0 0 0 0 0 0 0 0 0 0 0 0 0 0 0 0 0 0 0 0 0 0 0 0 0 0 0 0 0 0 0 0 0 0 0 0 0 0 2633.35 2714.07 2822.93 2846.74 2882 2951.29 3013.96 3093.65 3132.58 3174.07 3186.67 3204.93 3231.41 3314.46 3312.95 3232.28 3215.18 3084.5 3134.34 3116.7 3189.82 3283.97 3282.04 3136.86 2973.74 2720.32 2841.1 2847.42 2422.34 2003.16 1753.71 1650.62 1941.59 2082.84 2092.79 2551.22 2657.5 2960.56 3110.34 3218.08 3155.32 3091.6 4084.95 3161.33 3904.8 3140.56 3158.83 3173.77 3073.08 3130.25 3205.91 3125.06 3047.63 3067.46 3186.61 3139.03 4781.32 3260.1 3148.87 2991.82 3134.51 3345.45 2985.54 2269.49 1690.08 0 0 0 0 1518.64 0 0 1996.32 2404.6 2304.34 0 0 0 0 2676.7 2578.91 2723.23 2654.68 2598.07 0 2211.92 0 0 0 0 0 0 0 0 0 0 0 0 0 0 0 0 0 0 0 0 0 0 0 0 0 0 0 0 0 0 0 0 0 0 0 0 0 0 0 0 0 0 0 0 0 0 0 0 0 0 0 0 0 0 0 0 0 0 0 0 0 0 0 0 0 0 0 0 0 0 0 0 0 0 0 1997.39 2261.81 2520.98 2663.91 2660.78 2713.15 2528.08 2559.39 2421.19 2807.77 2702.18 2712.62 2746.19 3014.5 2812.9 0 0 2454.59 2428.9 2473.22 2401.61 2445.22 2482.92 2639.02 2735.58 2861.64 2917.27 3013.36 2932.98 2901.78 2780.36 2813.84 2795.56 2839.7 2839.51 2901.73 2802.52 2933.49 3025.48 3299.79 3252.83 3321.41 3209.34 3253.72 3087.33 3007.75 2677.73 2412.07 0 0 0 0 0 0 0 0 0 0 0 0 0 0 0 0 0 0 0 0 0 0 0 0 0 0 0 0 0 0 0 0 0 0 0 0 0 0 0 0 0 0 0 0 0 0 0 0 0 0 0 0 0 0 0 0 0 0 0 0 0 0 0 0 0 0 0 0 0 0 0 0 0 0 0 0 0 0 0 0 0 0 0 0 0 0 0 0 0 0 0 0 0 0 0 0 0 0 0 0 0 0 0 0 0 0 0 0
0 0 0 0 0 0 0 0 0 0 0 0 0 0 0 0 0 0 0 0 0 0 0 0 0 0 0 0 1318.38 1721.69 2237.71 2448.07 2624.98 0 2398.41 2509.59 2716.13 2838.12 2336.29 1916.27 1978.06 0 0 0 0 0 0 0 0 4631.26 2720.41 2849.79 2911.96 3239.96 4056.51 4175.43 4166.93 4121.78 3401.75 4117.33 3941.58 3874.59 3772.91 3052.56 3016.18 2856.68 2769.53 2566.83 2375.12 2395.43 2232.2 2408.09 2240.57 0 0 0 0 0 0 0 0 0 0 0 0 0 0 2785.07 2710.43 2694.8 2981.29 3059.63 3276.46 3448.74 3261.43 3178.52 3227.68 3338.13 3450.44 3390.48 3158.29 3060.47 3216.17 3205.48 3172.93 2915.14 2847.85 2897.72 2834.24 3120.76 2854.2 2542.45 2619.08 2793.56 2879.23 3035.61 2965.43 3262.7 3341.72 3243.34 3248.36 3140.09 3084.16 3223.46 2863.26 2760.37 2802 2647.89 2639.69 2452.8 2550.41 2502.14 2336.59 2697.57 2826.41 0 0 0 0 0 0 0 0 0 0 0 0 0 0 0 0 0 0 0 0 0 0 0 0 0 0 0 0 0 0 0 0 0 0 0 0 0 0 0 0 0 0 0 0 0 0 0 0 0 0 0 0 0 0 0 0 0 0 0 3131.65 2856.09 2764.51 2678.16 2716.13 2726.77 2807.25 2854.34 2920.42 2970 3042.93 3110 3147.63 3205.36 3309.42 3302.45 3208.11 3162.22 2953.01 3002.74 2937.19 3064.55 3095.82 3068.98 3128.14 3045.2 3004.19 3385.96 3365.25 3131.36 2699.61 2385.76 2099.23 1998.84 2111.28 2020.58 2409.26 2548.16 3032.37 3111.49 3238.89 3145.03 3046.47 3049.9 3097.36 3078.5 3106.48 3080.08 3064.44 2952.7 3093.65 3188.97 3122.79 3037.09 3002.04 3088.19 2986.65 2928.53 3141.85 2862.96 2639.69 2740.85 2848.87 2707.28 2461.07 2511.5 0 0 2875.13 3259.41 3232.96 3208.54 3175.99 3102.52 3013.96 2743.49 2740.31 2855.56 2674.95 2638.48 2715.78 2713.37 2734.59 2705.54 2784.15 0 2453.51 0 0 0 0 0 0 0 0 0 0 0 0 0 0 0 0 0 0 0 0 0 0 0 0 0 0 0 0 0 0 0 0 0 0 0 0 0 0 0 0 0 0 0 0 0 0 0 0 0 0 0 0 0 0 0 0 0 0 0 0 0 0 0 0 0 0 0 0 0 0 0 2535.03 2713.02 2884.37 3524.08 3077.71 3280.24 3364.84 3315.44 3293.77 3249.68 3059.08 3023.46 2848.38 3179.24 2915.25 2921.69 3032.87 3140.79 2924.34 2992.3 2764.83 2463.6 2338.51 2457.47 2504.98 2500.31 2520.67 2739.33 2776.87 2855.61 2916.77 2987.34 2909.03 2850.75 2682.31 2728.1 2667.04 2708.02 2701.18 2787.52 2701.79 2771.73 2832.7 3201.81 3099.25 3236.02 3143.85 3228.98 2985.59 2806.36 2489.96 2091.88 0 0 0 0 0 0 0 0 0 0 0 0 0 0 0 0 0 0 0 0 0 0 0 0 0 0 0 0 0 0 0 0 0 0 0 0 0 0 0 0 0 0 0 0 0 0 0 0 0 0 0 0 0 0 0 0 0 0 0 0 0 0 0 0 0 0 0 0 0 0 0 0 0 0 0 0 0 0 0 0 0 0 0 0 0 0 0 0 0 0 0 0 0 0 0 0 0 0 0 0 0 0 0 0 0 0 0 0
0 0 0 0 0 0 0 0 0 0 0 0 0 0 0 0 0 0 0 0 0 0 0 0 0 0 0 2567.97 2504.46 2723.45 3163.06 3285.06 3255.74 3235.46 3014.99 3175.99 3136.8 3061.53 2719.44 2265.99 2175.39 2052.74 1804.81 2075.93 0 0 0 0 2800.13 0 2865.07 2884.22 2919.96 3159.07 3404.79 3388.42 3606.34 3942.88 3403.96 3522.82 3512.05 3418.94 3145.98 3053.9 3020.42 2751.1 2603.72 2465.95 2149.3 2196.14 2098.86 2353.86 0 0 0 0 0 0 0 0 0 2915.25 0 0 2841.39 3177.43 3181.23 3164.55 3081.61 3013.96 3304.73 3257 3378.87 3439.41 3280.5 3186.61 3187.57 3220.86 3380.16 3317.93 3280.18 3149.81 3218.76 3225.57 3208.36 3149.16 2983.09 2778.11 2676.75 2811.2 2610.28 2440.95 2667.09 2863.79 2886.9 3070.5 3460.48 3639.51 3516.17 3535.73 3566.32 3344.12 3175.39 3324.18 3196.68 3020.36 3024.39 2963.34 2978.01 2695.93 2818.67 2889.89 2560.06 2560.14 2520.9 2275.3 2147.62 1876.41 0 0 0 0 0 0 0 0 0 0 0 0 0 0 0 0 0 0 0 0 0 0 0 0 0 0 0 0 0 0 0 0 0 0 0 0 0 0 0 0 0 0 0 0 0 0 0 0 0 0 0 0 0 0 0 2523.36 2733.39 2629.67 2710.87 2702.14 2811.68 2750.55 2779.67 2806.64 2845.92 2938.78 2998.02 3043.21 2957.07 2969.42 3038.19 3106.02 3044.97 3004.89 2860.67 2941.46 2884.67 3103.32 3262.45 3335.28 3264.67 3139.03 3209.59 3318.52 3095.25 2954.41 2608.9 2208.66 2017.25 1869.32 1925.66 1767.49 2147.21 2431.71 3079.63 3074.04 3295.97 3262.57 3088.41 3050.29 3084.27 3870.66 3014.94 2943.17 2922.15 2739.28 2865.7 2993.58 2918.19 2777.05 2678.92 2869.62 2717.67 2612.8 2778.38 2625.52 2426.76 2404.98 2392.91 2547.46 2482.19 2607.24 2946.01 2946.89 2825.03 3085.06 3040.89 3087.73 3082.57 3023.85 3023.14 2812.01 2796.54 2891.33 2766.7 2739.28 2783.59 2730.28 2751.28 2644.85 2658.55 2723.28 2545.3 2485.72 2350.73 1993.14 1313.16 514.729 0 0 0 0 0 0 0 0 0 0 0 0 0 0 0 0 0 0 0 0 0 0 0 0 0 0 0 0 0 0 0 0 0 0 0 0 0 0 0 0 0 0 0 0 0 0 0 0 0 0 0 0 0 0 0 0 0 0 0 0 0 0 0 0 0 0 2633.06 2711.44 2957.69 3368.09 3042.77 3295.58 3354.55 3326.81 3350.46 3322.53 3261.94 3167.77 3009.8 3245.66 3006.35 2983.31 2949.53 3051.73 2832.32 2839.85 2583.31 2449.07 2305.6 2343.51 2410.54 2474.03 2502.85 2666.37 2757.33 2803.5 2864.09 2947.25 2946.79 2878.34 2661.08 2696.75 2634.79 2649.98 2641.85 2681.71 2591.49 2496.93 2526.1 2917.48 2867.66 3076.35 2919.35 3076.35 0 2326.38 0 0 0 0 0 0 0 0 0 0 0 0 0 0 0 0 0 0 0 0 0 0 0 0 0 0 0 0 0 0 0 0 0 0 0 0 0 0 0 0 0 0 0 0 0 0 0 0 0 0 0 0 0 0 0 0 0 0 0 0 0 0 0 0 0 0 0 0 0 0 0 0 0 0 0 0 0 0 0 0 0 0 0 0 0 0 0 0 0 0 0 0 0 0 0 0 0 0 0 0 0 0 0 0 0 0 0 0 0 0
0 0 0 0 0 0 0 0 0 0 0 0 0 0 0 0 0 0 0 0 0 0 0 0 2940.64 3453.85 3115.94 3117.1 2955.45 2897.27 3240.33 3354.48 3318.19 3256.5 3093.94 3205.97 3143.91 3083.25 3006.08 2628.4 2451.65 2366.81 2218.8 2408.12 2332.85 0 0 0 3657.36 3585.61 0 0 3218.27 3259.03 3848.99 3887.07 4032.72 3992.8 3242.52 3844.4 3350.06 3302.52 3085.63 3034.4 2966.53 2597.43 2361.28 2305.86 1971.9 2030.93 1843.46 0 0 0 0 0 0 0 0 0 0 2875.97 0 0 2841.92 3107.35 3154.67 3196.99 3170.95 3130.48 3249.24 3233.15 3327.41 3369.3 3278.19 3148.57 3068.59 3091.77 3170.29 3232.65 3180.93 3059.8 3142.56 3173.71 3229.98 3274.48 3126.8 2921.13 2697.88 2914.74 2774.11 2579.82 2707.46 2727.44 2666.58 2826.6 3029.96 3269.19 3093.31 3116.75 3138.44 2972.16 2918.85 3091.88 2979.49 2884.47 2887.75 2857.4 2876.91 2677.81 2806.22 2845.68 2618.02 2594.62 2701.22 2448.46 2321.71 2244.68 2374.62 2293.5 0 1971.76 0 0 0 0 0 0 0 0 0 0 0 0 0 0 0 0 0 0 0 0 0 0 0 0 0 0 0 0 0 0 0 0 0 0 0 0 0 0 0 0 0 0 0 0 0 0 0 0 2641.39 2770.45 3006.88 2971.84 2977.8 2976.69 2973.26 2975.21 3087.67 2840.71 2779.4 2746.1 2789.33 2806.08 2854.44 2933.34 2828.07 2795.51 2932.42 3066.74 3068.53 3041.66 2950.05 3028.65 2926.38 3141.73 3258.9 3293.7 3307.99 3091.37 3161.57 3356.7 3194.13 3195.71 2917.93 2683.47 2415.05 2004.98 2146.52 1799.28 2021.58 2263.73 2976.32 2953.11 3183.64 3147.04 2992.19 2951.81 3083.99 3950.96 3030.02 2977.01 2993.21 2837.11 2991.39 3054.23 2984.47 2795.98 2644.01 2802.66 2600.29 2408.33 2478.92 2364.15 2322.23 2567.58 2638.48 3014.5 2992.99 3051.62 3256.62 3179.12 3155.62 3264.67 3160.55 3199.85 3157.58 3134.92 3096.05 2903.54 2930.37 2937.34 2819.85 2769.03 2785.9 2700.31 2671.55 2575.22 2569.39 2628.19 2509.1 2573.92 2404.95 2066.83 1400.51 591.427 0 0 0 0 0 0 0 0 0 0 0 0 0 0 0 0 0 0 0 0 0 0 0 0 0 0 0 0 0 0 0 0 0 0 0 0 0 0 0 0 0 0 0 0 0 0 0 0 0 0 0 0 0 0 0 0 0 0 0 0 0 0 0 0 0 2558.07 2911.45 2996.68 3237.83 4046.63 3219.69 3354.35 3449.09 3432.02 3446.4 3440.82 3376.35 3238.21 3127.04 3275.57 3067.97 3000.49 2972.1 3005.97 2820.28 2936.88 2709.42 2514.74 2428.9 2430.97 2437.93 2399.27 2501.02 2613.37 2647.98 2718.07 2793.56 2946.79 2941.67 2911.6 2715.87 2691.99 2653.04 2636.08 2566.75 2604.57 2433.62 2330.52 2318.03 2735 2732.86 3003.76 2896.67 0 0 0 0 0 0 0 0 0 0 0 0 0 0 0 0 0 0 0 0 0 0 0 0 0 0 0 0 0 0 0 0 0 0 0 0 0 0 0 0 0 0 0 0 0 0 0 0 0 0 0 0 0 0 0 0 0 0 0 0 0 0 0 0 0 0 0 0 0 0 0 0 0 0 0 0 0 0 0 0 0 0 0 0 0 0 0 0 0 0 0 0 0 0 0 0 0 0 0 0 0 0 0 0 0 0 0 0 0 0 0 0 0
0 0 0 0 0 0 0 0 0 0 0 0 0 0 0 0 0 0 0 0 0 0 3005.48 2983.62 2931.7 3318.72 2950.83 2996.68 2911.86 2887 3188 3329.06 3275.25 3256.62 3163.18 3295.58 3217.03 3162.46 3117.16 2825.69 2689.62 2689.14 2651.28 2791.65 2744.62 2854.93 0 0 3742.95 3475.6 3057.68 2824.5 2904.04 2919.25 4593.61 4733.57 3357.84 3178.46 3130.89 3298.1 3126.75 3087.33 2930.73 2876.12 2696.45 2458.44 2326.7 2239.71 0 0 0 0 0 0 0 0 0 0 0 0 0 3042.1 0 3287.89 3081.04 3256.43 3218.64 3274.55 3255.67 3177.79 3251.07 3214.94 3301.87 3354.75 3292.09 3166.34 3031.28 3044.42 3142.79 3210.02 3188.73 3098.45 3117.28 3106.94 3245.85 3404.44 3323.26 3219.44 2941.67 3092.34 3008.66 2797.89 2995.82 3060.08 3040.56 3291.63 3397.41 3674.1 3540.88 3442.87 3484.05 3336.61 3172.27 3240.4 3059.91 2959.62 2989.15 2968.37 3003.76 2835.1 2866.83 2900.63 2752.86 2749.92 2855.61 2632.27 2436.77 2454.19 2472.53 2454.77 2438.11 2270.66 2551.88 2501.58 2594.22 2601.94 0 0 0 0 0 0 0 0 0 0 0 0 0 0 0 0 0 0 0 0 0 0 0 0 0 0 0 0 0 0 0 0 0 0 0 0 0 0 0 0 0 0 0 2320.72 2545.76 2556.16 2818.38 2979.97 2968.47 2986.6 2931.29 2967.32 3091.71 2861.3 2885.86 2824.69 2817.81 2797.8 2872.96 2953.84 2867.47 2793.47 3014.29 3091.83 3148.99 3131.36 3054.68 3127.62 3065.22 3250.57 3385.83 3321.87 3401.06 3190.24 3240.02 3437.79 3332.36 3341.46 3128.55 2882.74 2639.44 2060.23 2130.61 1773.99 1944.68 2109.97 2811.3 2927.86 3202.91 3262 3178.4 3180.38 3210.14 3163.65 3157.58 3052.06 3021.23 2872.13 2976.37 3026.74 2842.3 2614.72 2520.9 2477.94 2319.21 2077.45 2127.01 2085.12 2080.31 2464.54 2730.99 3088.87 3134.63 3216.23 3219.75 3124.53 3100.57 3209.1 3063.77 3042.05 2981.45 2967.9 2919.35 2847.32 2871.64 2914.84 2749.61 2772.55 2794.91 2780.64 2821.98 2683.04 2636.62 2673.63 2465.95 2460.53 2198.76 1765.09 900.628 383.96 0 0 0 0 0 0 0 0 0 0 0 0 0 0 0 0 0 0 0 0 0 0 0 0 0 0 0 0 0 0 0 0 0 0 0 0 0 0 0 0 0 0 0 0 0 0 0 0 0 0 0 0 0 0 0 0 0 0 0 0 0 0 0 0 0 2428.13 2798.36 2938.63 3163.53 3878.71 3084.27 3231.78 3347.12 3337.2 3357.5 3338 3277.36 3174.25 3149.4 3303.49 3088.19 3031.55 3025.43 3122.73 2928.94 3067.18 2864.23 2558.89 2430.06 2429.6 2370.32 2335.09 2298.84 2490.18 2435.35 2503.19 2654.13 2814.69 2705.49 2746.91 2596.75 2652.12 2540.98 2496.93 2477.53 2414.67 2194.79 2174.23 2049.43 2137.15 2124.7 2349.18 2392.5 0 0 0 0 0 0 0 0 0 0 0 0 0 0 0 0 0 0 0 0 0 0 0 0 0 0 0 0 0 0 0 0 0 0 0 0 0 0 0 0 0 0 0 0 0 0 0 0 0 0 0 0 0 0 0 0 0 0 0 0 0 0 0 0 0 0 0 0 0 0 0 0 0 0 0 0 0 0 0 0 0 0 0 0 0 0 0 0 0 0 0 0 0 0 0 0 0 0 0 0 0 0 0 0 0 0 0 0 0 0 0 0 0
0 0 0 0 0 0 0 0 0 0 0 0 0 0 0 0 0 0 0 0 0 0 3058.8 2985.8 2933.9 3380.44 3062.37 3023.25 2973.63 2998.45 3275.44 3416.37 3328.93 3304.73 3243.4 3298.23 3264.54 3242.4 3205.42 2992.3 2883.33 2942.39 2953.68 3008.77 2987.93 3084.1 3283.97 3473.52 3975.86 3826.43 0 0 0 0 0 0 0 2522.23 2592.25 2824.79 2553.36 2587.58 2526.52 2502.1 0 0 0 0 0 0 0 0 0 0 0 0 0 0 0 0 0 3152.36 0 3378.46 3207.01 3319.9 3326.22 3364.78 3278.58 3224.14 3268.68 3220.49 3312.82 3335.41 3263.15 3133.58 3023.85 3088.02 3144.44 3203.21 3200.28 3119.94 3134.46 3108.5 3239.52 3365.99 3221.67 3114.85 2771.23 2874.24 2770.4 2526.59 2682.31 2763.83 2800.04 3065.73 3289.44 3613.56 3420.69 3436.31 3461.69 3443.71 3266.64 3323.52 3127.33 3005.91 3039.84 3029.42 3009.74 2897.47 2884.08 2962.6 2799.01 2862.96 2982.4 2756.56 2731.03 2740.76 2761.87 2773.52 2602.22 2590.13 2776.68 2591.49 2791.14 2641.14 2578.03 2601.05 2597.83 2915.09 0 0 0 0 0 0 0 0 0 0 0 0 0 0 0 0 0 0 0 0 0 0 0 0 0 0 0 0 0 0 0 0 0 0 0 0 1704.85 1892.34 2251.46 2369.96 2664.63 2682.78 2924.29 2993.1 2961.87 3052.12 2986.49 2992.78 3042.21 2815.59 2819.23 2701.61 2708.37 2646.31 2728.59 4876.38 4702.66 2786.51 2995.5 3112.3 3202.48 3169.75 3168.61 3185.03 3156.04 3187.88 3291.96 3256.31 3338.07 3122.26 3219.75 3327.94 3274.99 3252.77 3106.08 2868.74 2648.81 1975.19 2046.06 1577.51 1711.54 1819.53 2842.16 3154.49 3325.82 3446.83 3359.86 3318.46 3297.26 3036.54 3040.84 2882.04 2781.19 2746.05 2927.5 3152.18 3026.9 2852.16 2910.24 2921.54 2786.83 2507.41 2468.09 2345.31 2332.59 2672.86 2878.98 3124.24 3044.2 3113.11 3173.23 3123.78 3103.32 3221.05 3136.1 3103.55 3060.64 3061.25 3018.51 2950.41 4118.34 2976.53 2837.69 2830.65 2822.36 2847.56 2910.59 2807.77 2740.98 2853.91 2754.03 2448.25 2268.11 1801.33 508.149 143.64 0 0 0 0 0 0 0 0 0 0 0 0 0 0 0 0 0 0 0 0 0 0 0 0 0 0 0 0 0 0 0 0 0 0 0 0 0 0 0 0 0 0 0 0 0 0 0 0 0 0 0 0 0 0 0 0 0 0 0 0 0 0 0 0 2493.29 2461.47 2883.48 2938.78 3185.46 4034.66 3124.82 3241.84 3269.82 3254.85 3285.96 3272.95 3239.89 3135.04 3092.28 3203.4 3042.38 3068.19 3143.74 3209.71 3092.57 3238.39 3107.4 2750.74 2616.06 2491.88 2329.71 2226.54 2163.19 2282.08 2093.34 2145.15 2373.74 2481.86 2460.31 2563.97 2403.67 2458.87 2369.89 2419.83 2414.43 2328.74 2139.33 0 0 0 0 0 0 0 0 0 0 0 0 0 0 0 0 0 0 0 0 0 0 0 0 0 0 0 0 0 0 0 0 0 0 0 0 0 0 0 3403.41 0 0 0 0 0 2400.61 0 0 0 0 0 0 0 0 0 0 0 0 0 0 0 0 0 0 0 0 0 0 0 0 0 0 0 0 0 0 0 0 0 0 0 0 0 0 0 0 0 0 0 0 0 0 0 0 0 0 0 0 0 0 0 0 0 0 0 0 0 0 0 0 0 0 0 0 0 0 0 0 0
0 0 0 0 0 0 0 0 0 0 0 0 0 0 0 0 0 0 0 0 0 3152.48 2996.95 2882.94 2848.29 3126.51 3016.29 2939.81 2922.05 2969.79 3215.68 3317.28 3282.23 3285.83 3284.22 3304.02 3319.77 3291.05 3262.83 3098.34 3015.91 3053.95 3022.65 3025.81 3002.15 3043.76 3181.59 3308.45 3718.14 3585.45 3417.41 2741.92 1510.19 0 0 0 0 0 0 0 0 0 0 0 0 0 0 0 0 0 0 0 0 0 0 0 0 0 0 0 0 3267.72 3369.71 3389.25 3291.76 3399.06 3446.76 3471.86 3386.99 3347.86 3386.92 3291.25 3362.69 3345.25 3266.58 3147.51 3015.75 3083.48 3114.9 3153.84 3206.46 3590.44 3133.05 3131.94 4278.28 3445.06 3327.28 3285.9 2987.08 2950.83 2882.14 2624.29 2744.48 2769.03 2827.55 3074.27 3309.55 3544.32 3395.97 3394.25 3411.85 3420.13 3294.22 3247.17 3102.86 2982.14 3036.16 3032.65 2988.46 2923.42 2872.91 2936.93 2862.47 2965.12 3033.47 2836.54 2823.5 2892.93 2771.04 2816.02 2695.75 2796.72 2813.23 2750.6 2891.03 2751.46 2664.21 2782.35 2877.4 3161.09 3077.82 0 2844.08 0 2710.69 0 0 2631.98 0 0 0 0 0 0 0 0 0 0 0 0 0 0 0 0 0 0 0 0 0 0 0 0 0 0 0 1786.54 1681.81 1896.19 2215.63 2324.13 2542.37 2676.06 2845.05 2869.03 2841.87 2979.7 2948.75 2895.12 2951.5 2753.8 2722.04 2582.16 2637.69 2611.18 2715.61 2771.64 2790.72 2714.9 2973.1 3146.21 3316.1 3322.01 3322.33 3304.21 3302.78 3381.19 3466.34 3445.84 3483.68 3294.87 3352.81 3386.03 3326.42 3307.73 3151.83 2974.53 2820.61 2218.53 2278.52 1890.04 1954.28 1750.22 2432.6 2855.61 0 0 3295.38 3374.73 3377.65 3026.36 3092.63 2998.55 2853.37 2621.33 2580.53 0 0 0 2592.69 2750.1 2471.55 2185.9 2251.64 2330.55 2545.84 2984.79 3099.71 3180.14 3061.64 3177.13 3275.76 3190.85 3175.33 4146.23 3189.33 3905.61 3147.69 3141.85 3097.82 3012.34 4202.1 3019.17 2904.14 2888.3 2881.3 2872.87 2964.96 2829.46 2832.61 2895.92 2963.65 2697.49 2528.38 2032.08 1398.3 173.999 0 0 0 0 0 0 0 0 0 0 0 0 0 0 0 0 0 0 0 0 0 0 0 0 0 0 0 0 0 0 0 0 0 0 0 0 0 0 0 0 0 0 0 0 0 0 0 0 0 0 0 0 0 0 0 0 0 0 0 0 0 0 0 2518.25 2672.14 2693.33 3085.23 3107.35 3860.95 4159.49 3116.7 3246.6 3277.81 3242.52 3240.33 3250.57 3219.32 3154.31 3135.57 3229.92 3026.19 3060.25 3147.86 3173.41 3055.68 3147.27 3058.52 2699.31 2565.81 2468.35 2264.28 1927.94 1801.25 1914.37 1686.95 1760.24 2066.45 2170.07 2213.62 2276.39 2182.26 2261.72 2167.15 2308.52 2223.38 0 0 0 0 0 0 0 0 0 0 0 0 0 0 0 0 0 0 0 0 0 0 0 0 0 0 0 0 0 0 0 0 0 0 0 0 0 3325.43 3298.3 3140.68 3210.26 3306.88 3206.4 3411.85 3170.53 2962.24 2760.28 2674.31 2740.13 0 0 0 0 0 0 0 0 0 0 0 0 0 0 0 0 0 0 0 0 0 0 0 0 0 0 0 0 0 0 0 0 0 0 0 0 0 0 0 0 0 0 0 0 0 0 0 0 0 0 0 0 0 0 0 0 0 0 0 0 0 0 0 0 0 0 0 0 0 0 0 0
0 0 0 0 0 0 0 0 0 0 0 0 0 0 0 0 0 0 0 0 0 2739.01 2704.75 2696.01 2662.22 2898.12 2934.78 2922.15 2933.65 2937.09 3178.52 3305.25 3309.75 3603.78 3597.29 3634.3 3600.46 3344.45 3373.57 3248.36 3149.46 3141.15 3084.67 3078.5 3097.19 3142.32 3339.59 3379.07 3591.82 3516.17 3290.6 2297.9 1253.82 0 0 0 0 0 0 0 0 0 0 0 0 0 0 0 0 0 0 0 0 0 0 0 0 0 0 0 0 3010.28 3078.38 3141.79 3148.04 3319.18 3340.39 3414.84 3357.03 3271.1 3328 3279.41 3345.59 3313.8 3211.8 3126.98 3028.92 3112.19 3171.91 3204.13 3246.48 3760.06 3821.11 3767.66 3935.39 4241.72 3432.86 4136.62 3069.93 3018.84 2793.51 2480.61 2784.52 2811.82 2749.7 3040.61 3402.1 3666.23 3465.55 3430.55 3423.27 3383.44 3235.96 3212.78 3115.13 2964.44 2990.86 2997.22 2977.11 2942.81 2893.33 2970.47 2918.14 2978.59 3082.74 2922.86 2883.88 2988.3 2934.36 2984.84 2847.08 2835.67 2807.77 2750.01 2870.06 2821.79 2773.56 2795 2954.57 3156.51 3219.87 3159.96 3255.23 0 3120.17 0 0 0 0 0 0 0 0 0 0 0 0 0 0 0 0 0 0 0 0 0 0 0 0 0 0 0 0 0 1727.28 2091.69 1851.68 2305.32 2450.18 2474.83 2625.89 2763.33 2823.98 2900.88 2856.09 3001.83 2946.79 2908.88 3003.87 2870.8 2885.86 2801.72 2838.22 2816.82 2848.72 2874.54 2918.03 2766.38 2923.63 3047.41 3169.63 3150.64 3165.68 3126.69 3151.83 3195.16 3291.83 3311.91 3362.08 3250.75 3309.16 3348.79 3368.69 3305.38 3190.48 3045.25 2934.01 2332.24 2269.4 2005.13 2021.19 1828.79 0 0 0 0 0 0 0 0 0 0 0 0 0 0 0 0 0 0 2466.39 2167.07 2296.92 2264.56 2615.9 2874.29 2877.4 3000.16 2942.08 3102.98 3203.46 3122.9 3135.33 3216.23 3213.95 3472.01 3215.18 3261.88 4056.12 3098.39 4119.05 3126.69 3031.6 2989.74 3014.61 3009.42 3134.16 3050.23 3047.19 3220.24 3416.99 3067.13 2910.04 2291.21 2145.23 186.888 0 0 0 0 0 0 0 0 0 0 0 0 0 0 0 0 0 0 0 0 0 0 0 0 0 0 0 0 0 0 0 0 0 0 0 0 0 0 0 0 0 0 0 0 0 0 0 0 0 0 0 0 0 0 0 0 0 0 0 0 0 0 0 2541.48 2697.36 2683.12 2915.09 2976.58 3121.1 3989.28 3061.87 3188.79 3247.67 3225.07 3252.01 3280.82 3239.58 3195.16 3204.56 3307.27 3136.39 3182.98 3273.14 3297.2 3223.71 3355.69 3222.97 2843.84 2608.62 2371.06 2144.33 0 0 1860.59 1687.09 0 2289.06 2414.98 2639.02 2335.35 2294.69 0 0 0 0 0 0 0 0 0 0 0 0 0 0 0 0 0 0 0 0 0 0 0 0 0 0 0 0 0 0 0 0 0 0 0 0 0 0 0 2494.44 2881.2 3045.8 3078.61 3048.63 3209.1 3287.18 3298.04 3601.46 3343.79 3211.18 3172.39 3052.18 3025.26 2644.1 0 0 0 0 0 0 0 0 0 0 0 0 0 0 0 0 0 0 0 0 0 0 0 0 0 0 0 0 0 0 0 0 0 0 0 0 0 0 0 0 0 0 0 0 0 0 0 0 0 0 0 0 0 0 0 0 0 0 0 0 0 0 0 0 0 0 0 0 0 0 0
0 0 0 0 0 0 0 0 0 0 0 0 0 0 0 0 0 0 0 0 0 2691.82 2566.17 2522.15 2581.6 2805.47 2870.31 2835.29 2808.66 2837.11 3051.68 3187.57 3221.3 3238.52 3268.55 3268.61 3305.32 3328.07 3363.76 3249.94 3194.61 3168.79 3181.05 3173.05 3249.12 3273.2 3418.59 3428.02 3627.62 3535.81 3802.41 2078.81 638.486 0 0 0 0 0 0 0 0 0 0 0 0 0 0 0 0 0 0 0 0 0 0 0 0 0 0 0 0 3179.36 3261.43 3361.27 3340.52 3446.61 3377.1 3426.06 3387.33 3280.63 3288.92 3264.67 3330.78 3310.73 3253.65 3183.52 3102.69 3195.1 3280.24 3330.38 3365.79 3802.67 3837.19 3766.22 3996.32 4198.42 3496.9 3910.44 3071.45 2948.13 2517.84 1948.79 2298.81 2374.08 2535.76 2658.68 3115.02 3375.13 3185.27 3281.91 3320.62 3311.06 3190 3168.31 3126.4 2982.25 2999.73 3037.86 3008.72 2987.02 2939.66 2978.7 2943.68 2993.15 3123.83 2997.86 2993.74 3109.48 3050.51 3084.89 3044.64 3029.8 2930.88 2851.09 2951.5 2849.93 2845.82 2908.62 3045.91 3239.83 3337.87 3391.78 3525.11 3425.99 3686.69 3646.47 0 3430.97 0 0 0 0 0 0 0 0 0 0 0 0 0 0 0 0 0 0 0 0 0 0 0 0 0 1933.74 2041.18 2411.76 2271.3 2631.16 2692.81 2698.1 2766.02 2869.38 2931.39 2971.79 2932.88 3050.18 2968.84 2896.07 2944.87 2895.92 2887.85 2820.09 2866.68 2861.64 2825.93 2847.17 3066.68 3057.01 3180.63 4467.14 4586.45 4436.55 3318.65 3285.19 3290.86 3295.51 3308.77 3279.6 3338.8 3260.67 3310.86 3317.41 3306.16 3307.79 3164.25 3066.18 2988.94 2439.28 2326.45 2142.82 2069.53 1996.23 0 0 0 0 0 0 0 0 0 0 0 0 0 0 0 0 0 0 0 0 2214.14 2303.8 2661.63 2781.42 2805.89 2975.05 2921.08 3023.79 3113.86 3085.35 3094.74 3175.75 3209.22 3185.7 3185.76 3496.61 3143.38 3109.02 3155.74 3140.68 3055.57 2985.59 3021.83 3056.62 3235.83 3197.05 3251.45 3503.76 3826.08 3486.22 3267.34 2514.14 2486.86 281.87 0 0 0 0 0 0 0 0 0 0 0 0 0 0 0 0 0 0 0 0 0 0 0 0 0 3149.05 3053.01 0 0 0 0 0 0 0 0 0 0 0 0 0 0 0 0 0 0 0 0 0 0 0 0 0 0 0 0 0 0 0 0 0 0 0 0 2601.22 2766.43 2759.6 2958.89 3015.42 3812.17 4151.67 3163.95 3265.75 3317.01 3290.21 4048.58 3984.55 4013.24 3246.41 3246.92 3299.6 3154.79 3187.51 3296.16 3268.93 3245.22 3393.77 3261.75 3100.4 2823.27 0 0 0 0 0 0 0 0 0 0 0 0 0 0 0 0 0 0 0 0 0 0 0 0 0 0 0 0 0 0 0 0 0 0 0 0 0 0 0 0 0 0 0 0 0 0 0 0 2248.62 1970.67 2199.71 2438.82 2736.78 2941.57 2991.23 2937.91 3039.29 3199.92 3746.62 4578.31 4570.95 4515.59 3795.61 3321.08 3378.39 3353.54 2870.6 2923.47 2520.64 2511.88 0 0 0 0 0 0 0 0 0 0 0 0 0 0 0 0 0 0 0 0 0 0 0 0 0 0 0 0 0 0 0 0 0 0 0 0 0 0 0 0 0 0 0 0 0 0 0 0 0 0 0 0 0 0 0 0 0 0 0 0 0 0 0 0 0 0 0
0 0 0 0 0 0 0 0 0 0 0 0 0 0 0 0 0 0 0 0 2849.45 2570.33 2502.77 2520.37 2588.18 2828.22 2901.48 2867.86 2844.57 2881.85 3066.06 3206.95 3191.33 3215.31 3247.04 3238.39 3290.47 3328.6 3345.19 3221.85 3184.07 3205.72 3191.82 3164.97 3236.02 3245.03 3326.88 3412.48 3632.02 3470.14 3650.99 2219.74 755.701 467.202 0 0 0 0 0 0 0 0 0 0 0 0 0 0 0 0 0 0 0 0 0 0 0 0 0 0 0 0 0 3371.2 3354.89 3318.52 3321.74 3423.69 3398.03 3270.72 3257.63 3214.14 3304.67 3300.12 3260.1 3178.28 3111.09 3228.42 3308.05 3569.51 3903.62 3800.94 3865.93 3859.7 4119.46 4364.65 3458.76 3384.39 3061.81 2882.54 2444.58 2037.86 2387.42 2375.96 2558.96 2775.99 3217.84 3498.94 3270.65 3370.12 3352.47 3321.81 3183.88 3149.93 3122.73 2994.97 3019.6 3047.96 3001.45 2983.25 2954.36 2995.66 2954.83 2973.26 3019.06 2892.68 2912.01 2984.79 2946.58 3001.13 2976.85 2998.39 2959.94 2927.4 2996.52 2878.63 2946.94 2983.73 3110.17 3268.49 3320.76 3238.64 3430.9 3447.61 3831.41 3586.53 3509.99 3351.13 0 1619.87 0 0 0 0 0 0 0 0 0 0 0 0 0 0 0 0 0 0 0 0 0 0 0 2546.69 2431.22 2904.09 2602.59 2934.16 3024.77 2988.89 3000.81 3095.36 3065.73 3110.57 3068.92 3186.61 3064.16 2953.43 2962.81 2919.96 2894.13 2882.04 2918.34 2878.34 2818.62 2838.36 3048.79 3114.32 3222.16 3318 3369.91 3318.13 3313.21 3308.9 3326.35 3350.87 3343.59 3323.58 3373.71 3301.28 3356.83 3365.86 3402.17 3486.44 3400.99 3445.13 3492.53 3070.89 0 0 0 0 0 0 0 0 0 0 0 0 0 0 0 0 0 0 0 0 0 0 0 0 2424.27 2476.07 2750.92 2830.6 2934.06 3029.2 2982.14 3031.77 3092.06 3073.42 3093.82 3160.14 3199.55 3160.38 3150.58 3142.73 3103.9 3101.03 3140.03 3111.49 3051.95 2978.12 3007.75 3082.8 3250.19 3230.91 3215.74 3501.94 3826.95 3245.85 2931.03 2418.92 2413.49 238.032 0 0 0 0 0 0 0 0 0 0 0 0 0 0 0 0 0 0 0 0 0 0 0 0 0 0 0 0 0 0 0 0 0 0 0 0 0 0 0 0 0 0 0 0 0 0 0 0 0 0 0 0 0 0 0 0 0 0 0 0 0 0 0 2661.42 2842.16 2893.58 3083.65 3088.02 3238.02 3233.59 3182.68 3279.54 3288.15 3250.5 3243.59 3270.97 3273.08 3197.35 3309.62 3295 3119.65 3196.99 3257.06 3151.23 3034.29 3122.09 2915.65 2428.2 0 0 0 0 0 0 0 0 0 0 0 0 0 0 0 0 0 0 0 0 0 0 0 0 0 0 0 0 0 0 0 0 0 0 0 0 0 0 0 0 0 0 0 0 0 0 0 0 0 2645.89 2311.35 2475.34 2615.2 2924.29 3072.07 3078.61 3070.44 3098.68 3254.73 3655.76 3962.53 3945.57 3352.67 4666.43 3351.67 3305.77 3354.82 2985.38 2991.07 2376.91 2403.71 2454.19 0 0 0 0 0 0 0 0 0 0 0 0 0 0 0 0 0 0 0 0 0 0 0 0 0 0 0 0 0 0 0 0 0 0 0 0 0 0 0 0 0 0 0 0 0 0 0 0 0 0 0 0 0 0 0 0 0 0 0 0 0 0 0 0 0 0
0 0 0 0 0 0 0 0 0 0 0 0 0 0 0 0 0 0 0 0 2710.69 2572.7 2553.16 2629.84 2627.86 2857.26 2947.77 2932.16 2940.02 2931.7 3095.19 3227.06 3194.07 3722.52 3684.99 3688.96 3650.04 3353.14 3341.12 3233.34 3186.79 3207.75 3206.03 3153.96 3223.15 3182.25 3223.77 3370.25 3593.75 3391.92 3567.54 1151.19 488.679 0 0 0 0 0 0 0 0 0 0 0 0 0 0 0 0 0 0 0 0 0 0 0 0 0 0 0 0 0 0 3237.33 3309.36 3292.8 3277.04 3412.75 3439.97 3306.03 3269.95 3223.65 3264.61 3270.65 3223.77 3190.36 3119.19 3219.5 3295.19 3866.37 3769.1 3903.98 3988.15 3983.32 4187.94 4296.47 3517.35 3476.47 3199.18 2894.03 2587.5 2190.64 2466.39 2450.65 2586.62 2816.87 3211.8 3403.41 3220.68 3330.11 3290.02 3281.27 3115.02 3077.99 3096.51 2998.77 3002.9 3055.73 3006.13 3004.46 2972 3022.43 2996.15 2982.03 2985.59 2929.4 2905.65 2947.51 2931.95 2987.29 2948.34 3019.49 2999.63 2998.5 3030.89 2941.46 3007.32 3047.74 3138.38 3286.73 3252.14 3125.17 3223.52 3323.19 3729.96 3581.93 3446.19 3553.33 0 2445.07 0 887.964 0 0 0 0 0 0 0 0 0 0 0 0 0 0 0 0 0 0 0 0 0 2919.3 2684.75 3084.5 2823.22 3165.2 3155.38 3039.35 2970.37 3048.74 3041.39 3099.42 3058.41 3160.02 3086.82 3000.22 3032.21 3047.41 3002.63 3005.05 3014.77 2989.26 2907.36 2887.45 3141.2 3209.46 3290.92 3404.93 3405.96 3342.92 3378.46 3374.32 3358.24 3366.4 3336.21 3335.21 3363.49 3321.81 3397.34 3340.66 3395.07 3488.18 3342.19 3433 3394.59 3000.86 0 0 0 0 0 0 0 0 0 0 0 0 0 0 0 0 0 0 0 0 0 0 0 0 0 2483.33 2762.78 2885.81 3035.94 3054.4 2935.6 2947.72 2961.35 2999.09 3043.37 3089.66 3152.3 3107.12 3113.28 3142.09 3507.72 3536.41 3541.11 3223.9 3199.85 3109.48 3154.55 3226.06 3394.18 3326.55 3186.85 3421.8 3648.61 3162.28 3051.4 2783.64 0 0 0 0 0 0 0 0 0 0 0 0 0 0 0 0 0 0 0 0 0 0 0 0 0 0 0 0 0 0 0 0 0 0 0 0 0 0 0 0 0 0 0 0 0 0 0 0 0 0 0 0 0 0 0 0 0 0 0 0 0 0 0 0 0 2271.05 2710.12 2837.21 3038.14 3047.96 3179.3 3116.35 3068.36 3162.7 3156.93 3139.73 3094.96 3120.17 3114.67 3084.5 3232.9 3178.82 3050.46 3135.22 3106.94 3088.24 2984.84 2997.59 0 0 0 0 0 0 0 0 0 0 0 0 0 0 0 0 0 0 0 0 0 0 0 0 0 0 0 0 0 0 0 0 0 0 0 0 0 0 0 0 0 0 0 0 0 0 0 0 0 0 0 2777.1 2550.79 2685.96 2776.55 2921.54 3045.75 3038.58 3000.59 3588.14 3685.31 3834.21 3875.39 3803.36 3273.33 4489.38 3792.35 3246.41 3229.85 2894.97 2876.46 2393.25 2334.34 2353.83 1936.57 2029.28 1841.02 0 0 0 0 0 0 0 0 0 0 0 0 0 0 0 0 0 0 0 0 0 0 0 0 0 0 0 0 0 0 0 0 0 0 0 0 0 0 0 0 0 0 0 0 0 0 0 0 0 0 0 0 0 0 0 0 0 0 0 0 0 0 0
0 0 0 0 0 0 0 0 0 0 0 0 0 0 0 0 0 0 0 0 2602.06 2452.58 2404.19 2313.1 2384.37 2626.5 2824.79 2811.44 2823.5 2822.03 2963.39 3115.25 3760.73 3794.58 3766.73 3860.5 3871.46 3727.23 3714.52 3642.67 3314 3338.53 3377.1 3315.18 3722.85 3431.74 3371.2 3497.7 3734.86 3420.62 3513.52 710.962 413.78 0 0 0 0 0 0 0 0 0 0 0 0 0 0 0 0 0 0 0 0 0 0 0 0 0 0 0 0 0 0 3127.79 3177.37 3170.59 3139.85 3328.6 3399.27 3276.4 3189.39 3190.36 3220.92 3232.4 3190.54 3172.39 3114.09 3194.49 3259.15 3765.2 3811.74 3994.98 4072.96 4068.22 4217.1 4179.59 4282.65 4623.1 3505.81 3136.21 2745.51 2209.07 2336.33 2267.83 2502.74 2751.73 3026.63 3197.9 3037.48 3141.09 3054.18 3109.36 3008.12 2960.83 2961.24 2893.48 2926.58 2952.96 2914.79 2976.37 2915.45 2941.67 2957.43 2992.89 3051.18 3026.68 3069.82 3117.57 3021.67 3062.54 3042.32 3108.73 3066.12 3067.35 3084.33 3027.61 3104.59 3173.95 3286.22 3366.19 3287.64 3193.46 3228.3 3284.87 3559.14 3278.96 3201.14 3222.04 3107.46 2765.24 0 1619.29 0 0 0 0 0 0 0 0 0 0 0 0 0 0 0 0 0 0 0 0 0 3393.5 3168.73 3405.62 2972.94 3180.93 3096.28 2925.87 3586.37 3714.36 3663.91 3681.11 2949.01 3050.84 3008.18 2937.7 2939.25 2986.97 2957.33 2979.28 3023.57 2984.42 2957.69 2965.27 3245.41 3488.54 3514.18 3591.67 3518.98 3388.15 3395.9 3371.47 3331.5 3320.82 3221.85 3227.24 3273.46 3258.77 3355.29 3311.19 3438.99 3556.34 3468.56 3565.87 3489.26 3082.68 0 0 0 0 0 0 0 0 0 0 0 0 0 0 0 0 0 0 0 0 0 0 0 0 0 2693.42 3010.72 3033.63 3187.03 3130.13 2990.27 3010.23 2957.64 2967.42 3062.26 3086.82 3173.17 3099.02 3083.08 3109.36 3100.57 3190.24 3208.42 3159.84 3126.92 3018.41 3089.32 3216.66 4374.55 3470.5 3390.75 3675.54 3843.96 3367.07 0 0 0 0 0 0 0 0 0 0 0 0 0 0 0 0 0 0 0 0 0 0 0 0 0 0 0 0 0 0 0 0 0 0 0 0 0 0 0 0 0 0 0 0 0 0 0 0 0 0 0 0 0 0 0 0 0 0 0 0 0 0 0 0 0 0 0 0 2541.33 2777 3043.37 3134.05 3197.66 3140.5 3093.37 3135.69 3079.74 3068.7 3040.78 3091.37 3036.21 3047.52 3260.67 3178.82 3082.68 3239.14 3299.66 3261.56 3088.36 0 0 0 0 0 0 0 0 0 0 0 0 0 0 0 0 0 0 0 0 0 0 0 0 0 0 0 0 0 0 0 0 0 0 0 0 0 0 0 0 0 0 0 0 0 0 0 0 1806.58 2550.64 2500.54 2650.95 2693.37 2585.1 2712.01 2864.72 2968.16 3583.16 3747.71 3751.15 3759.97 3807.07 3870.39 3835.79 3806.03 3723.67 3920.31 3797.68 3079.8 3083.31 2842.88 2836.01 2578.83 2565.69 2706.1 2316.07 2445.32 1949.56 0 0 0 0 0 0 0 0 0 0 0 0 0 0 0 0 0 0 0 0 0 0 0 0 0 0 0 0 0 0 0 0 0 0 0 0 0 0 0 0 0 0 0 0 0 0 0 0 0 0 0 0 0 0 0 0 0 0 0 0 0 0 0
0 0 0 0 0 0 0 0 0 0 0 0 0 0 0 0 0 0 0 0 0 1956.06 1976.59 1960.29 2032.21 2249.14 2521.01 2602.27 2726.24 2750.28 2878.44 3063.38 3806.38 3868.6 3877.27 3988.05 4007.01 3800.43 3392.47 3362.15 3375.61 3358.18 3415.19 3342.12 3412.13 3365.86 3231.72 3327.47 3421.94 2966.69 2759.19 1001.69 615.989 0 0 0 0 0 0 0 0 0 0 0 0 0 0 0 0 0 0 0 0 0 0 0 0 0 0 0 0 0 2894.52 3061.92 3179.72 3210.94 3069.32 3259.79 3310.21 3211.61 3230.54 3212.17 3248.74 3252.39 3799.74 3798.1 3794.75 3856.07 3830.19 3884.64 3951.51 4099.63 4158.15 3513.23 3674.42 3809.57 3703.37 4556.06 3597.06 2979.76 2367.78 1708.53 1952.87 2264.83 2760.69 3011.31 3387.88 3484.99 3268.87 3402.86 3311.19 3328.13 3097.54 3001.51 3030.89 2955.4 3001.45 3058.69 3002.15 3061.98 3000.16 3032.1 3010.17 3016.18 3040.5 3020.91 3116.29 3165.92 3089.95 3060.02 3062.71 3183.82 3118.96 3161.21 3177.31 3099.65 3139.68 3166.88 3310.08 3365.38 3876.74 3265.94 3987.96 4032.43 3433.99 3203.09 3216.85 3137.91 2930.21 2808.9 3054.29 1836.34 0 0 0 0 0 0 0 0 0 0 0 0 0 0 0 0 0 0 0 0 0 3518.16 3266.7 3523.56 3212.84 3339.26 3200.83 3039.46 2933.65 4077.51 3965.24 3973.32 2978.86 3049.62 3027.61 2948.44 2940.59 3035.22 2981.87 2998.66 3016.24 3014.18 2979.02 2918.19 3164.07 3443.36 3444.49 3540.66 3460.98 3324.44 3358.85 3334.81 3336.54 3309.1 3218.76 3195.34 3204.01 3206.83 3289.05 3190.73 3306.16 3372.55 3354.08 3257.32 3173.29 2823.98 2792.67 2643.01 0 0 0 0 0 0 0 0 0 0 0 0 0 0 0 0 0 0 0 0 0 0 0 0 2644.14 2636.24 2890.98 2734.1 2665.39 2763.38 2757.61 2799.24 2925.67 2990.32 3115.37 3027.78 3023.3 3029.2 3049.62 3141.73 4426.13 4077.51 3041.72 2946.73 3026.57 3254.35 3539.17 3516.69 3462.19 3593.59 3998.98 2984.84 0 0 0 0 0 0 0 0 0 0 0 0 0 0 0 0 0 0 0 0 0 0 0 0 0 0 0 0 0 0 0 0 0 0 0 0 0 0 0 0 0 0 0 0 0 0 0 0 0 0 0 0 0 0 0 0 0 0 0 0 0 0 0 0 0 0 0 0 2284.23 2323.77 2646.47 2868 2888.64 2909.38 2884.52 3026.46 2947.82 2879.82 2868.54 2906.51 2894.87 3015.42 3237.33 3170.71 3088.7 3333.89 3443.79 3572.85 0 0 0 0 0 0 0 0 0 0 0 0 0 0 0 0 0 0 0 0 0 0 0 0 0 0 0 0 0 0 0 0 0 0 0 0 0 0 0 0 0 0 0 0 0 0 0 0 0 1679.47 2528.23 0 2611.66 2552 2494.48 2660.78 2898.93 2931.08 3008.5 2957.59 2954.78 3010.88 3067.41 3518.83 3126.8 3069.82 3057.91 3031.33 3038.69 3005.59 2982.09 2853.13 2816.54 2548.16 2534.42 2625.56 2247.54 2304.56 1903.49 0 0 0 0 0 0 0 0 0 0 0 0 0 0 0 0 0 0 0 0 0 0 0 0 0 0 0 0 0 0 0 0 0 0 0 0 0 0 0 0 0 0 0 0 0 0 0 0 0 0 0 0 0 0 0 0 0 0 0 0 0 0 0
0 0 0 0 0 0 0 0 0 0 0 0 0 0 0 0 0 0 0 0 0 1701.53 1710.81 1773.39 1919.8 2208.55 2577.48 2680.94 2787.01 2811.44 2904.09 3909.71 3116.35 3971.91 3980.48 4107.15 4137.23 3846.69 3328.53 3334.88 3357.24 3289.63 3368.63 3273.84 3345.39 3278.83 3051.51 3146.57 3084.78 2512.37 2404.88 927.719 0 0 0 0 0 0 0 0 0 0 0 0 0 0 0 0 0 0 0 0 0 0 0 0 0 0 0 0 0 0 2433.51 2656.66 2903.19 3053.9 2975.63 3185.09 3237.89 3198.15 3249.94 3246.73 3258.33 3259.85 3182.62 3241.65 3907.89 3988.43 3905.34 3956.45 3550.85 4134.89 4125.64 3662.55 3791.41 3829.75 3651.55 3751.15 3461.9 2802.89 2275.06 1657.64 1780.3 1894.1 2537.41 2750.87 3087.67 3150.23 2923.02 3131.12 3060.53 3066.51 2974.05 2903.19 2972.63 2923.07 2954.73 3031.44 2965.38 3061.2 3066.85 3095.65 3054.51 3033.08 3080.02 3071.11 3204.5 3253.15 3192.18 3109.42 3127.62 3247.17 3196.14 3175.87 3172.75 3122.73 3148.93 3154.67 3315.18 3314 3187.64 3205.91 3254.16 4307.72 4067.92 3246.23 3344.52 3164.01 2984.1 3185.7 3552.65 2145.81 0 0 0 0 0 0 0 0 0 0 0 0 0 0 0 0 0 0 0 0 3326.35 3667.11 3452.93 3552.13 3219.26 3373.71 3768.42 3062.54 3807.41 4020.54 3882.39 3870.83 3038.47 3108.9 3058.91 2983.84 2970.05 3051.79 2944.04 2958.32 3005 2956.86 2896.72 2856.29 3053.62 3325.49 3303.95 3422.78 3320.03 3242.71 3268.93 3278.32 3267.21 3265.31 3209.16 3214.88 3217.28 3202.97 3238.33 3123.95 3197.72 3269.25 3244.03 3081.38 2920.52 2565.5 2712.62 2773.42 0 0 0 0 0 0 0 0 0 0 0 0 0 0 0 0 0 0 0 0 0 0 0 0 2663.49 2369.52 2484.32 2345.57 2282.98 2378.99 2565.22 2653.88 2862.91 2922.66 3197.29 3569.97 3173.23 3187.33 3187.64 3239.83 4234.12 3124.77 3154.43 2951.35 3033.8 3163.35 3434.2 3478.05 3396.86 3560.42 3968.71 2869.13 0 0 0 0 0 0 0 0 0 0 0 0 0 0 0 0 0 0 0 0 0 0 0 0 0 0 0 0 0 0 0 0 0 0 0 0 0 0 0 0 0 0 0 0 0 0 0 0 0 0 0 0 0 0 0 0 0 0 0 0 0 0 0 0 0 0 0 0 2134.1 2437.58 2761.56 2953.63 2947.87 3105.62 3098.34 3205.36 3039.79 2937.09 2932.52 2992.4 3009.36 3105.45 3222.59 3091.43 3071.73 3321.48 3416.85 0 0 0 0 0 0 0 0 0 0 0 0 0 0 0 0 0 0 0 0 0 0 0 0 0 0 0 0 0 0 0 0 0 0 0 0 0 0 0 0 0 0 0 0 0 0 0 0 0 0 0 0 0 2741.79 2622.32 2636.41 2776.32 2997.43 3005.81 3032.1 2976.74 2978.65 2978.8 3015.15 3043.37 3067.97 3038.96 3059.02 3619.33 3726.07 3745.12 3158.71 3139.79 3148.99 2848.91 2570.1 2532.54 2129.52 1872.14 0 0 0 0 0 0 0 0 0 0 0 0 0 0 0 0 0 0 0 0 0 0 0 0 0 0 0 0 0 0 0 0 0 0 0 0 0 0 0 0 0 0 0 0 0 0 0 0 0 0 0 0 0 0 0 0 0 0 0 0 0 0 0 0
0 0 0 0 0 0 0 0 0 0 0 0 0 0 0 0 0 0 0 0 0 1599.71 1605.17 1771.56 1923.83 2124.51 2487.01 2681.88 2762.97 2721.24 2798.82 2938.89 4031.46 4062.11 4046.34 3896.45 3194.68 4041.66 3951.61 3862.19 3476.11 3363.02 3416.37 3275.82 3356.97 3217.84 2981.56 2915.55 2888.1 2019.02 1806.8 715.779 0 0 0 0 0 0 0 0 0 0 0 0 0 0 0 0 0 0 0 0 0 0 0 0 0 0 0 0 0 1934.39 2093.49 2287.62 2602.79 2828.98 2715.48 3011.96 3207.93 3104.01 3180.56 3220.92 3202.36 3212.29 3159.13 3259.98 3291.96 3333.82 4073.35 4158.97 3558.76 4404.52 4412.86 3714.69 3813.12 3810.96 3730.3 4287.14 3671.44 3113.75 2398.52 0 0 1985.48 2555.65 2803.69 3100.4 3104.7 2897.02 3247.48 3174.37 3052.12 2989.63 2893.78 2967.21 2946.63 2990.86 3093.54 2976.21 3067.75 3095.65 3085.23 3090.06 3077.14 3101.03 3149.46 3225.88 3273.52 3264.67 3158.29 3223.15 3277.36 3222.84 3238.71 3205.17 3189.63 3235.65 3243.4 3418.59 3352.94 3258.9 3265.43 3265.05 4216.35 3465.62 3147.69 3015.75 2828.5 2740.49 2787.8 3432.65 0 0 0 0 0 0 0 0 0 0 0 0 0 0 0 0 0 0 0 0 0 3121.39 3387.12 3256.31 3341.79 4038.74 4219.85 4060.34 3878.89 3830.45 3755.68 3658.71 3625.04 3091.66 3112.71 3062.31 2989.79 3001.29 3107.23 2974 2996.95 3023.08 2987.5 2964.12 2863.55 3007.53 3183.4 3142.15 3275.57 3166.94 3137.68 3185.09 3179.66 3195.77 3279.79 3229.73 3247.17 3242.59 3277.04 3263.84 3103.55 3178.34 3260.1 3139.09 2938.53 2717.1 2472.24 2446.32 2493.11 0 0 0 0 0 0 0 0 0 0 0 0 0 0 0 0 0 0 0 0 0 0 0 0 0 2075.37 2251.49 2223.56 2322.45 2394.85 2582.36 2628.73 2825.07 2864.82 4445.6 4588.83 3113.86 3094.79 3090.97 3116.81 3197.42 3035.22 3069.2 2850.61 2994.43 3086.77 3328.93 3347.26 3270.21 3294.35 3605.02 0 0 0 0 0 0 0 0 0 0 0 0 0 0 0 0 0 0 0 0 0 0 0 0 0 0 0 0 0 0 0 0 0 0 0 0 0 0 0 0 0 0 0 0 0 0 0 0 0 0 0 0 0 0 0 0 0 0 0 0 0 0 0 0 0 0 0 0 0 0 0 0 0 2841.05 2997.8 3117.62 3337.67 3251.64 3179.06 3135.57 3209.34 3075 3243.9 3426.2 3251.64 3144.21 3195.77 3148.99 0 0 0 0 0 0 0 0 0 0 0 0 0 0 0 0 0 0 0 0 0 0 0 0 0 0 0 0 0 0 0 0 0 0 0 0 0 0 0 0 0 0 0 0 0 0 0 0 0 0 0 0 3054.34 3053.9 2985.64 2952.7 3099.65 3214.32 3833.86 3612.39 3051.84 3035.72 3050.01 3105.91 3126.8 3104.76 3102.35 3122.09 3583.77 3724.58 3791.5 3218.82 3185.52 3226.93 3004.46 2683.77 2572.11 2235.95 1979.2 1805.55 1278.22 885.873 0 0 0 0 0 0 0 0 0 0 0 0 0 0 0 0 0 0 0 0 0 0 0 0 0 0 0 0 0 0 0 0 0 0 0 0 0 0 0 0 0 0 0 0 0 0 0 0 0 0 0 0 0 0 0 0 0 0 0 0 0
0 0 0 0 0 0 0 0 0 0 0 0 0 0 0 0 0 0 0 0 0 0 1403.53 1563.62 1780.7 2056.32 2394.99 2706.84 2814.08 2732.9 2790.77 2953.63 3046.36 4201.47 4181.15 3927.47 3095.02 4168.48 4023.82 3294.09 3377.03 3241.77 3346.85 3201.69 3272.57 3168.43 2934.36 0 3120.17 2271.33 2095.72 1005.96 0 0 0 0 0 0 0 0 0 0 0 0 0 0 0 0 0 0 0 0 0 0 0 0 0 0 0 0 0 2086.62 2294.19 2421.61 2561.07 2741.12 2604.73 2812.71 3076.75 3021.89 3128.96 3235.27 3172.69 3231.59 3206.89 3331.7 4178.86 3448.24 4286.04 4282.98 3636.59 4343.4 4259.17 3752.32 3809.32 3741.69 3632.1 3639.66 0 0 2482.63 0 0 0 2841.24 2941.15 3016.45 3068.81 2738.25 3173.89 2949.43 2828.55 2789.05 2773.47 2961.14 2988.19 2988.67 3132.29 2968.47 3112.59 3221.6 3215.37 3084.89 2935.24 3026.08 3106.25 3182.19 3242.27 3289.89 3144.09 3202.24 3279.73 3302.91 3273.91 3236.27 3209.96 3268.1 3250.69 3410.81 3354.15 3293.51 3275.25 3896.18 4277.08 4253.23 3126.51 2979.6 2808.29 2700.83 2637.78 0 0 1447.53 0 0 0 0 0 0 0 0 0 0 0 0 0 0 0 0 0 0 3747.21 3361.88 3438.84 3351.8 4275.34 4302.09 4362.38 4617.63 4021.6 3918.11 3782.95 3685.07 3667.67 3137.15 3122.67 3070.61 3011.04 3039.13 3134.98 2960.98 2966.27 2999.84 3036.98 3006.51 2913.98 3060.36 3192.61 3113.63 3245.79 3151.59 3076.18 3068.81 3080.19 3138.03 3168.49 3144.85 3166.16 3170.23 3195.04 3207.38 3097.54 3178.88 3202.48 3197.29 2894.32 2692.51 2491.81 2423.18 0 0 0 0 0 0 0 0 0 0 0 0 0 0 0 0 0 0 0 0 0 0 0 0 0 0 0 1698.93 1736.93 1952.08 2076.81 2243.72 2366.55 2454.23 2525.23 2937.14 4174.18 2911.15 2851.72 2837.06 2930.42 3012.34 2941.15 3042.6 2761.51 2902.13 3160.14 3448.31 3546.72 3451.29 3543.58 3590.9 0 0 0 0 0 0 0 0 0 0 0 0 0 0 0 0 0 0 0 0 0 0 0 0 0 0 0 0 0 0 0 0 0 0 0 0 0 0 0 0 0 0 0 0 0 0 0 0 0 0 0 0 0 0 0 0 0 0 0 0 0 0 0 0 0 0 0 0 0 0 0 0 0 0 0 3127.74 3244.97 3181.35 3160.26 3125.46 3156.27 2985.8 3077.59 3263.27 3052.95 3137.33 0 0 0 0 0 0 0 0 0 0 0 0 0 0 0 0 0 0 0 0 0 0 0 0 0 0 0 0 0 0 0 0 0 0 0 0 0 0 0 0 0 0 0 0 0 0 0 0 0 0 0 0 0 0 3003.49 3188.91 3138.5 2972.31 4546.8 4424.62 3857.04 3695.54 3539.46 3093.02 3064.83 3116.99 3176.05 3158.06 3166.76 3164.73 3539.39 3661.75 3704.27 3209.03 3156.87 3145.74 2944.04 2619.61 2646.85 2197.73 1894.42 1503.18 1146.55 865.527 756.502 0 0 0 0 0 0 0 0 0 0 0 0 0 0 0 0 0 0 0 0 0 0 0 0 0 0 0 0 0 0 0 0 0 0 0 0 0 0 0 0 0 0 0 0 0 0 0 0 0 0 0 0 0 0 0 0 0 0 0 0
0 0 0 0 0 0 0 0 0 0 0 0 0 0 0 0 0 0 0 0 0 0 1271.58 1270.03 1630.4 2054.4 2360.45 2697.49 2772.92 2723.94 2745.06 4140.4 4259.28 4197.16 3005.75 2959.99 2970.89 4179.28 3992.13 3093.37 3286.03 3176.47 3332.63 3207.13 3148.75 3040.01 2744.21 2698.66 3065.67 2692.9 2492.59 2058.79 1939.51 1907.27 1970.02 2010.05 2006.47 1718.57 1643.91 1682.69 1720.44 0 0 0 0 0 0 0 0 0 0 0 0 0 0 0 0 0 0 0 0 2450.54 0 2460.53 0 2672.74 2634.05 2847.8 3098.05 3107 3209.1 3286.86 3193.64 3994.22 4081.48 4003.18 3395.62 3420.69 3448.53 3444.92 3546.05 3636.11 3563.07 3462.76 3462.69 3377.17 3306.75 3280.5 2993.47 2554.13 2198.76 2087.27 2279.85 0 2795 0 0 2987.77 2685.49 3046.63 2752.68 2720.36 2688.15 2639.6 2782.62 2910.04 2957.07 3089.38 2884.62 3074.38 3199.06 3121.74 2950.57 2868.59 2944.72 3027.83 3107.23 3171.37 3234.9 3099.83 3221.79 3949.47 3379.28 3357.5 3297 3265.88 3328.07 3326.68 3463.12 3382.14 3278.58 3783.2 3224.64 3974.64 3961.5 3027.39 2914.08 2790.12 0 0 0 0 0 0 0 0 0 0 0 0 0 0 0 0 0 0 0 0 0 0 0 3588.67 3250.94 3406.73 3483.68 4335.55 4357.17 4378.2 4642.8 3985.59 3933.54 3779.28 3679.57 3643.38 3121.16 3084.21 3048.18 3041.11 3062.54 3149.64 3010.17 3033.52 3080.7 3136.1 3137.09 3041.61 3114.9 3251.64 3180.32 3284.67 3192.79 3125.23 3104.82 3145.92 3186.91 3238.21 3223.4 3235.15 3226.5 3207.19 3210.08 3062.76 3086.48 3128.96 3007.64 2643.93 2400.44 2262.91 2245.19 0 0 0 0 0 0 0 0 0 0 0 0 0 0 0 0 0 0 0 0 0 0 0 1846.85 1967.99 2257.15 2151.04 2252.31 2204.25 2184.85 2200.72 2330.91 2485.46 2445.68 2391.92 2723.76 2642.3 2719.83 2652.33 2644.26 2766.34 2891.28 2861.35 3020.53 2776.73 2868.64 3032.65 3321.28 3365.92 3106.48 3288.99 3420.62 0 0 0 0 0 0 0 0 0 0 0 0 0 0 0 0 0 0 0 0 0 0 0 0 0 0 0 0 0 0 0 0 0 0 0 0 0 0 0 0 0 0 0 0 0 0 0 0 0 0 0 0 0 0 0 0 0 0 0 0 0 0 0 0 0 0 0 0 0 0 0 0 0 0 0 0 3175.21 3039.07 0 2945.85 0 2856.92 0 0 0 0 0 0 0 0 0 0 0 0 0 0 0 0 0 0 0 0 0 0 0 0 0 0 0 0 0 0 0 0 0 0 0 0 0 0 0 0 0 0 0 0 0 0 0 0 0 0 0 0 0 0 0 0 0 0 3039.02 3219.38 3082.23 2989.31 4446.31 4317.7 3778.09 3642.83 3164.97 3160.61 3099.6 3152.24 3175.27 3148.45 3154.2 3156.81 3141.62 3193.34 3160.43 3266.58 3217.28 3281.91 3086.31 2750.74 2790.82 2312.4 0 0 1256.25 989.653 768.198 0 0 0 0 0 0 0 0 0 0 0 0 0 0 0 0 0 0 0 0 0 0 0 0 0 0 0 0 0 0 0 0 0 0 0 0 0 0 0 0 0 0 0 0 0 0 0 0 0 0 0 0 0 0 0 0 0 0 0 0
0 0 0 0 0 0 0 0 0 0 0 0 2662.18 2622.48 2444.65 2439.49 0 1790.54 1611.36 1519.91 1512.67 1572.12 1348.74 1417.45 1571.54 1994.12 2312.94 2841.44 3007.15 2866.09 2868.94 4147.46 4301.42 4279.26 4265.12 3070.38 2964.49 3024.61 3092.23 2991.87 3209.28 3055.01 3201.38 3090.01 3089.27 3067.69 2905.25 2977.85 3201.38 2957.75 2999.47 2793.79 2647.14 2482.67 2533.5 2588.14 2573.01 2310.01 2276.94 2149.14 2143.04 0 0 0 0 0 0 0 0 0 0 0 0 0 0 0 0 0 0 0 0 1491.92 1505.07 1616.85 0 2150.87 2261.05 2363.01 2656.02 2890.93 3171.91 3279.54 3132.88 3232.9 3171.19 3236.02 3200.83 3199.61 3136.8 3098.39 3148.93 3294.15 3207.07 3208.73 3231.66 3393.56 3332.43 3450.8 3455.06 3336.47 3143.91 3300.38 0 0 3278.77 0 0 3137.27 2879.42 3121.8 2685.1 2542.56 2441.69 2487.89 2592.09 2780.46 2852.06 2866.73 2707.15 2956.5 3156.75 3145.44 2925.77 2816.16 2866.29 2987.02 3067.52 3114.27 3209.03 3097.48 3224.39 3939.55 3773.76 3743.2 3348.19 3332.83 3404.44 3394.8 3529.34 3409.84 3262.07 3187.7 3148.57 3761.24 3717.57 2867.42 2679.69 2498.38 0 0 0 0 0 0 0 0 0 0 0 0 0 0 0 0 0 0 0 0 0 0 0 3054.56 2974.68 3437.44 3435.39 3308.97 5015.74 4925.19 3808.97 4402.32 4257.55 3823.64 3695.62 3644.25 3116.06 3025.92 3036.65 3054.62 3064.78 3123.95 3008.56 2984.79 3063.6 3093.82 3215.31 3083.65 3061.31 3149.87 3111.15 3190.48 3167.36 3051.4 3028.38 3034.84 3082.4 3118.61 3166.94 3220.68 3210.69 3155.44 3152.24 3005.86 3033.47 3059.02 3029.42 2574.91 2221.91 2105.53 2070.37 0 0 0 0 0 0 0 0 0 0 0 0 0 0 1920.72 1917.56 1972.52 2078.84 2089.76 2080.95 2266.24 2421.5 2674.27 2561.78 2632.52 2805 2703.36 2813.66 4734.77 2648.31 2614.02 2696.71 5347.62 2698.4 2550.06 2908.68 2772.05 2798.17 2834.76 2732.37 2773.33 2902.54 2809.65 2944.3 2632.4 2676.92 2817.29 2914.23 2801.35 0 0 0 0 0 0 0 0 0 0 0 0 0 0 0 0 0 0 0 0 0 0 0 0 0 0 0 0 0 0 0 0 0 0 0 0 0 0 0 0 0 0 0 0 0 0 0 0 0 0 0 0 0 0 0 0 0 0 0 0 0 0 0 0 0 0 0 0 0 0 0 0 0 0 0 0 0 0 0 0 0 0 0 0 0 0 0 0 0 0 0 0 0 0 0 0 0 0 0 0 0 0 0 0 0 0 0 0 0 0 0 0 0 0 0 0 0 0 0 0 0 0 0 0 0 0 0 0 0 0 0 0 0 0 0 0 0 0 0 0 0 0 2846.3 2914.59 3178.03 3008.34 3021.4 3187.88 3264.61 3193.28 3238.21 3213.89 3249.68 3179.54 3199 3207.19 3178.34 3133.46 3150.29 3148.16 3209.03 3128.09 3200.22 3200.46 3237.89 2975.32 2745.78 2714.16 2353.27 0 1654.53 1230.42 1031.58 812.277 1056.11 0 0 0 0 0 0 0 0 0 0 0 0 0 0 0 0 0 0 0 0 0 0 0 0 0 0 0 0 0 0 0 0 0 0 0 0 0 0 0 0 0 0 0 0 0 0 0 0 0 0 0 0 0 0 0 0 0 0 0
0 0 0 0 0 0 0 0 0 3139.09 3105.68 2727.17 2591.57 2469.47 2244.59 2223.24 1970.37 1813.49 1682.62 1691.63 1606.53 1635.55 1326.76 1465.07 1559.5 2021.77 2300.48 2936.37 3039.95 2845.29 2812.05 2898.42 4143.77 4127.46 4163.72 3117.45 2914.99 2987.66 3103.55 3040.56 3260.67 2965.43 3244.59 3088.47 3042.16 3049.12 3008.93 3055.9 4991.27 4925.33 3122.61 2910.59 2883.73 2780.13 2750.78 2680.17 2642.43 2422.8 2340.83 2188.69 2130.42 2097.66 2214.46 0 0 0 0 0 0 0 0 0 0 0 0 0 0 0 0 0 0 0 0 0 0 0 1861.15 1998.63 2362.18 2747.94 3169.57 3365.86 3220.43 3325.17 3271.54 3391.37 3313.02 3211.68 3177.01 3131.12 3112.65 3250.94 3205.91 3195.28 3198.02 3293.64 5018.44 3446.05 3514.55 3480.94 3373.3 3337.6 3498.28 3417.27 3450.8 0 0 3432.02 0 3290.73 2797.56 2708.33 2594.22 2569.19 2617.49 2704.31 2740.71 2875.77 2779.54 3099.02 3236.02 3235.21 3054.79 2991.07 3135.8 3242.27 3252.46 3276.78 3349.39 3193.4 3317.6 3866.28 3486.8 3438.84 3349.93 3357.91 3409.29 3399.27 3525.11 3388.63 3240.77 3210.51 3110.46 3105.28 3140.09 2719.79 2484.58 2371.97 0 0 0 0 0 0 0 0 0 0 0 0 0 0 0 0 0 0 0 0 0 0 0 2063.17 2664.8 3032.81 3232.59 3062.82 5009.75 4948.43 2944.35 4431.63 3901.89 2938.17 3671.36 3594.67 3015.91 2921.18 2962.5 3048.68 3068.92 3126.28 3027.78 2985.7 3062.37 3135.33 3294.28 3148.51 3069.04 3074.1 3018.84 3097.19 3075.84 2918.44 2865.9 2818.76 2903.49 2906.76 3024.12 3100.28 3075.45 2965.69 2925.97 2730.06 2777.74 2807.53 2837.59 2350.3 1957.98 1863.96 0 0 0 0 0 0 0 0 0 0 0 0 0 0 2160.46 2094.64 2167.85 2313.45 2338.28 2432.31 2460.13 2573.88 2682.91 2829.65 2798.26 2857.79 2974.1 2964.75 2903.29 4911.64 2753.99 2581.09 2688.11 2698.88 2544.8 2479.03 2753.04 2690.01 2790.91 2952.33 2930.67 2875.28 3063.43 2938.84 2994.43 2787.34 2888.64 2874.88 2890.83 2716.05 2531.44 0 0 0 0 0 0 0 0 0 0 0 0 0 0 0 0 0 0 0 0 0 0 0 0 0 0 0 0 0 0 0 0 0 0 0 0 0 0 0 0 0 0 0 0 0 0 0 0 0 0 0 0 0 0 0 0 0 0 0 0 0 0 0 0 0 0 0 0 0 0 0 0 0 0 0 0 0 0 0 0 0 0 0 0 0 0 0 0 0 0 0 0 0 0 0 0 0 0 0 0 0 0 0 0 0 0 0 0 0 0 0 0 0 0 0 0 0 0 0 0 0 0 0 0 0 0 0 0 0 0 0 0 0 0 0 0 0 0 0 0 0 2488.04 2600.37 2947.98 2865.65 2936.68 3101.77 3212.72 3132.12 3242.34 3232.9 3266.07 3191.09 3190.42 3199.49 3160.73 3081.15 3149.7 3155.98 3160.08 3125.87 3172.99 3199.79 3236.21 3103.27 2911.65 2770.17 2485.13 0 1549.07 1154.08 859.849 711.934 0 0 0 0 0 0 0 0 0 0 0 0 0 0 0 0 0 0 0 0 0 0 0 0 0 0 0 0 0 0 0 0 0 0 0 0 0 0 0 0 0 0 0 0 0 0 0 0 0 0 0 0 0 0 0 0 0 0 0 0
0 0 0 0 0 0 2646.89 2954.36 3009.74 3017.7 3130.54 2701.92 2639.69 2615.29 2552.23 2666.62 2465.16 2402.98 2247.9 2119.68 2159.34 2090.7 1857.44 1827.9 1790.71 2000.56 2152.53 2755.52 2860.82 2700.22 2674.91 2750.15 2959.36 2899.03 3046.02 2997.64 2719.83 2847.17 3029.63 3002.96 3315.83 2989.53 3210.2 3118.15 5270.85 5118.1 4995.13 3089.27 4914.23 4817.15 3101.03 2913.78 2827.5 2653.67 2710.61 2662.47 2662.64 2542.95 2540.87 2498.04 2525.99 2492.22 2747.13 2572.38 0 0 2372.5 2034.32 0 1628.59 0 0 1502.15 1379.97 0 0 0 0 0 0 0 0 0 0 0 0 1450.5 1659.32 2211.72 2728.77 3226.87 3353.54 3264.48 3329.26 3280.56 3361.61 3317.34 3088.19 3053.62 2978.91 3001.4 3035.33 3012.44 3038.14 2980.97 3036.38 3173.23 3203.7 3214.69 3282.94 3343.92 3394.87 3384.25 3363.16 3456.27 3431.46 3426.27 3540.29 0 3117.04 2542.91 2537.87 0 2241.5 2455.81 0 0 2882.44 2661 3122.26 3313.87 3271.61 2980.5 2895.37 3102.63 3221.23 3274.67 3338.46 3387.4 3190 3385.28 3561.02 3551.38 3461.12 3365.92 3412.34 3471.79 3452.36 3632.73 3453.35 3319.84 3352.94 3300.38 3205.11 3080.31 2507.41 2214.05 2130.12 0 0 0 0 0 0 0 0 0 0 0 0 0 0 0 0 0 0 0 0 0 0 0 1967.64 2151.89 2867.02 3228.42 3048.29 3854.12 3916.46 2858.57 2883.48 3733.62 2969.21 3011.63 2967.84 3028.87 2907.92 2964.8 3083.25 3063.54 3131.24 3025.81 2979.23 3081.89 3137.5 3353.75 3182.19 2977.38 2926.69 2776.91 2832.9 2824.36 2715.48 2624.86 2598.56 2756.07 2715.3 3002.2 3081.72 3047.46 2892.68 2777.42 2586.78 2545.42 2535.91 2783.59 2206.69 1929.31 0 0 0 0 0 0 0 0 0 0 0 0 0 0 2595.7 2518.78 2289.46 2442.94 2636.78 2583.07 2607 2680.21 2842.64 2894.57 3035 3078.1 3070.95 3113.05 4709.66 4831.72 4998.85 3934.93 2752.59 2765.93 2764.97 2712.14 2663.78 2992.56 2871.49 2976.74 3043.7 3002.36 2827.12 2973.37 2704.71 2631.32 2364.81 2431.22 2417.07 2533.19 0 0 0 0 0 0 0 0 0 0 0 0 0 0 0 0 0 0 0 0 0 0 0 0 0 0 0 0 0 0 0 0 0 0 0 0 0 0 0 0 0 0 0 0 0 0 0 0 0 0 0 0 0 0 0 0 0 0 0 0 0 0 0 0 0 0 0 0 0 0 0 0 0 0 0 0 0 0 0 0 0 0 0 0 0 0 0 0 0 0 0 0 0 0 0 0 0 0 0 0 0 0 0 0 0 0 0 0 0 0 0 0 0 0 0 0 0 0 0 0 0 0 0 0 0 0 0 0 0 0 0 0 0 0 0 0 0 0 0 0 0 0 0 2445.61 2546.38 2978.59 2841.1 2955.3 3151.83 3265.69 3255.61 3355.42 3388.63 3429.85 3319.18 3309.29 3348.46 3259.91 3172.81 3180.5 3187.76 3151.41 3071.11 3190.54 3256.69 3260.42 3201.63 3069.6 2829.6 2535.95 2306.11 1554.07 1149.84 0 0 0 0 0 0 0 0 0 0 0 0 0 0 0 0 0 0 0 0 0 0 0 0 0 0 0 0 0 0 0 0 0 0 0 0 0 0 0 0 0 0 0 0 0 0 0 0 0 0 0 0 0 0 0 0 0 0 0 0 0 0
0 0 0 0 0 0 0 0 0 0 0 0 0 0 0 0 0 0 0 0 0 0 0 0 0 0 0 0 0 0 0 0 0 0 0 0 0 0 0 0 0 0 0 0 0 0 0 0 0 0 0 0 0 0 0 0 0 0 0 0 0 0 0 0 0 0 0 0 0 0 0 0 0 0 0 0 0 0 0 0 0 0 0 0 0 0 0 0 0 0 0 0 0 0 0 0 0 0 0 0 0 0 0 0 0 0 0 0 0 0 0 0 0 0 0 0 0 0 0 0 0 0 0 0 0 0 0 0 0 0 0 0 0 0 0 0 0 0 0 0 0 0 0 0 0 0 0 0 0 0 0 0 0 0 0 0 0 0 0 0 0 0 0 0 0 0 0 0 0 0 0 0 0 0 0 0 0 0 0 0 0 0 0 0 0 0 0 0 0 0 0 0 0 0 0 0 0 0 0 0 0 0 0 0 0 0 0 0 0 0 0 0 0 0 0 0 0 0 0 0 0 0 0 0 0 0 0 0 0 0 0 0 0 0 0 0 0 0 0 0 0 0 0 0 0 0 0 0 0 0 0 0 0 0 0 0 0 0 0 0 0 0 0 0 0 0 0 0 0 0 0 0 0 0 0 0 0 0 0 0 0 0 0 0 0 0 0 0 0 0 0 0 0 0 0 0 0 0 0 0 0 0 0 0 0 0 0 0 0 0 0 0 0 0 0 0 0 0 0 0 0 0 0 0 0 0 0 0 0 0 0 0 0 0 0 0 0 0 0 0 0 0 0 0 0 0 0 0 0 0 0 0 0 0 0 0 0 0 0 0 0 0 0 0 0 0 0 0 0 0 0 0 0 0 0 0 0 0 0 0 0 0 0 0 0 0 0 0 0 0 0 0 0 0 0 0 0 0 0 0 0 0 0 0 0 0 0 0 0 0 0 0 0 0 0 0 0 0 0 0 0 0 0 0 0 0 0 0 0 0 0 0 0 0 0 0 0 0 0 0 0 0 0 0 0 0 0 0 0 0 0 0 0 0 0 0 0 0 0 0 0 0 0 0 0 0 0 0 0 0 0 0 0 0 0 0 0 0 0 0 0 0 0 0 0 0 0 0 0 0 0 0 0 0 0 0 0 0 0 0 0 0 0 0 0 0 0 0 0 0 0 0
